; Generated with MatterSlice 2.21.2
; filamentDiameter = 1.75
; extrusionWidth = 0.4
; firstLayerExtrusionWidth = 0.44
; layerThickness = 0.2
; firstLayerThickness = 0.2
; automatic settings before start_gcode
G21 ; set units to millimeters
M107 ; fan off
M140 S70 ; start heating the bed
M104 T0 S215 ; start heating T0
T0 ; set the active extruder to 0
; settings from start_gcode
G28 ; home all axes
G1 Z5 F5000
; automatic settings after start_gcode
M190 S70 ; wait for bed temperature to be reached
M109 T0 S215 ; Finish heating T0
T0 ; set the active extruder to 0
G90 ; use absolute coordinates
G92 E0 ; reset the expected extruder position
M82 ; use absolute distance for extrusion
; Layer count: 114
; Layer Change GCode
; LAYER:0
; LAYER_HEIGHT:0.2
; TYPE:FILL
M400
M107
G1 X19.2 Y25.07 Z0.5 F3300
G1 X51.68 Y25.35
G1 X111.24 Y27.2
G1 X128.08 Y27.21
G1 X129.13 Y27.68
G1 X129.5 Y29.93
G1 X129.94 Y61.75
G1 X131.71 Y116.99
G1 X131.78 Y134.1
G1 X137.78 Y140.1
; TYPE:SKIRT
G1 Z0.2
G1 F1800
G1 X12.9 E4.569 F1200
G1 Y19.03 E8.998
G1 X137.78 E13.567
G1 Y140.1 E17.997
G1 X137.34 Y139.66 F3300
G1 X13.34 E22.534 F1200
G1 Y19.47 E26.931
G1 X137.34 E31.468
G1 Y139.66 E35.865
G1 X136.9 Y139.22 F3300
G1 X13.78 E40.369 F1200
G1 Y19.91 E44.735
G1 X136.9 E49.239
G1 Y139.22 E53.604
G1 X136.46 Y138.78 F3300
G1 X14.22 E58.077 F1200
G1 Y20.35 E62.41
G1 X136.46 E66.882
G1 Y138.78 E71.215
G1 X136.02 Y138.34 F3300
G1 X14.66 E75.655 F1200
G1 Y20.79 E79.956
G1 X136.02 E84.396
G1 Y138.34 E88.697
G1 E79.197 F1800
G1 Z0.5
G1 X135.6 Y137.92 F3300
G1 X128.68 Y131
G1 X127.69 Y130.01
G1 X128.46 Y130.78
; TYPE:WALL-OUTER
G1 Z0.2
G1 E88.697 F1800
G1 X22.22 E92.583 F1200
G1 Y28.35 E96.331
G1 X128.46 E100.218
G1 Y130.74 E103.964
G1 Y130.78
G1 X125.46
G1 X128.02 Y130.34 F3300
; TYPE:WALL-INNER
G1 X22.66 E107.819 F1200
G1 Y28.79 E111.534
G1 X128.02 E115.389
G1 Y130.3 E119.103
G1 Y130.34
G1 X127.58 Y129.9 F3300
G1 X23.1 E122.925 F1200
G1 Y29.23 E126.608
G1 X127.58 E130.431
G1 Y129.86 E134.112
G1 Y129.9
G1 E124.612 F1800
G1 Z0.5
G1 X112.93 Y54.43 F3300
; TYPE:WALL-OUTER
G1 Z0.2
G1 E134.112 F1800
G1 X112.18 Y54.51 E134.14 F1200
G1 X91.58 E134.893
G1 X90.84 Y54.43 E134.921
G1 X90.12 Y54.18 E134.949
G1 X89.48 Y53.77 E134.976
G1 X88.94 Y53.23 E135.004
G1 X88.54 Y52.59 E135.032
G1 X88.28 Y51.87 E135.06
G1 X88.2 Y51.13 E135.087
G1 Y37.64 E135.581
G1 X88.28 Y36.9 E135.608
G1 X88.54 Y36.18 E135.636
G1 X88.94 Y35.54 E135.664
G1 X89.48 Y35 E135.692
G1 X90.12 Y34.6 E135.719
G1 X90.84 Y34.34 E135.747
G1 X91.58 Y34.26 E135.775
G1 X112.18 E136.528
G1 X112.93 Y34.34 E136.556
G1 X113.64 Y34.6 E136.583
G1 X114.29 Y35 E136.611
G1 X114.83 Y35.54 E136.639
G1 X115.23 Y36.18 E136.667
G1 X115.48 Y36.9 E136.695
G1 X115.57 Y37.64 E136.722
G1 Y51.13 E137.216
G1 X115.48 Y51.87 E137.243
G1 X115.23 Y52.59 E137.271
G1 X114.83 Y53.23 E137.299
G1 X114.29 Y53.77 E137.326
G1 X113.64 Y54.18 E137.354
G1 X112.97 Y54.41 E137.38
G1 X112.93 Y54.43
G1 X112.18 Y54.51
G1 X109.93
G1 X113.02 Y54.86 F3300
; TYPE:WALL-INNER
G1 X112.21 Y54.95 E137.411 F1200
G1 X91.56 E138.166
G1 X90.74 Y54.86 E138.196
G1 X89.93 Y54.58 E138.228
G1 X89.2 Y54.12 E138.259
G1 X88.59 Y53.51 E138.29
G1 X88.14 Y52.78 E138.322
G1 X87.85 Y51.97 E138.353
G1 X87.76 Y51.15 E138.383
G1 Y37.62 E138.879
G1 X87.85 Y36.8 E138.909
G1 X88.14 Y35.99 E138.94
G1 X88.59 Y35.26 E138.972
G1 X89.2 Y34.65 E139.003
G1 X89.93 Y34.2 E139.035
G1 X90.74 Y33.91 E139.066
G1 X91.56 Y33.82 E139.096
G1 X112.21 E139.852
G1 X113.02 Y33.91 E139.882
G1 X113.84 Y34.2 E139.913
G1 X114.56 Y34.65 E139.945
G1 X115.17 Y35.26 E139.976
G1 X115.63 Y35.99 E140.007
G1 X115.91 Y36.8 E140.039
G1 X116.01 Y37.62 E140.069
G1 Y51.15 E140.564
G1 X115.91 Y51.97 E140.594
G1 X115.63 Y52.78 E140.626
G1 X115.17 Y53.51 E140.657
G1 X114.56 Y54.12 E140.689
G1 X113.84 Y54.58 E140.72
G1 X113.07 Y54.85 E140.75
G1 X113.02 Y54.86
G1 X113.12 Y55.29 F3300
G1 X112.23 Y55.39 E140.783 F1200
G1 X91.54 E141.54
G1 X90.64 Y55.29 E141.573
G1 X89.74 Y54.97 E141.608
G1 X88.93 Y54.47 E141.643
G1 X88.25 Y53.79 E141.678
G1 X87.74 Y52.97 E141.713
G1 X87.42 Y52.07 E141.748
G1 X87.32 Y51.18 E141.781
G1 Y37.59 E142.278
G1 X87.42 Y36.7 E142.311
G1 X87.74 Y35.8 E142.346
G1 X88.25 Y34.99 E142.381
G1 X88.93 Y34.31 E142.416
G1 X89.74 Y33.8 E142.451
G1 X90.64 Y33.48 E142.486
G1 X91.53 Y33.38 E142.519
G1 X112.23 E143.276
G1 X113.12 Y33.48 E143.309
G1 X114.03 Y33.8 E143.344
G1 X114.84 Y34.31 E143.379
G1 X115.52 Y34.99 E143.414
G1 X116.03 Y35.8 E143.449
G1 X116.34 Y36.7 E143.484
G1 X116.45 Y37.59 E143.517
G1 Y51.18 E144.014
G1 X116.34 Y52.07 E144.047
G1 X116.03 Y52.97 E144.082
G1 X115.52 Y53.79 E144.117
G1 X114.84 Y54.47 E144.152
G1 X114.03 Y54.97 E144.187
G1 X113.16 Y55.28 E144.221
G1 X113.12 Y55.29
G1 X115.57 Y53.03 F3300
G1 X118.2 Y49.07
G1 X121.16 Y45.45
; TYPE:WALL-OUTER
G1 X120.92 Y45.14 E144.235 F1200
G1 X120.77 Y44.78 E144.249
G1 X120.71 Y44.4 E144.264
G1 X120.76 Y44.01 E144.278
G1 X120.91 Y43.65 E144.292
G1 X121.14 Y43.34 E144.306
G1 X121.45 Y43.1 E144.321
G1 X121.81 Y42.95 E144.335
G1 X122.19 Y42.89 E144.349
G1 X122.58 Y42.94 E144.363
G1 X122.94 Y43.09 E144.378
G1 X123.25 Y43.32 E144.392
G1 X123.49 Y43.63 E144.406
G1 X123.64 Y43.99 E144.42
G1 X123.69 Y44.38 E144.435
G1 X123.65 Y44.76 E144.449
G1 X123.5 Y45.12 E144.463
G1 X123.26 Y45.43 E144.477
G1 X122.96 Y45.67 E144.491
G1 X122.6 Y45.82 E144.506
G1 X122.21 Y45.88 E144.52
G1 X121.83 Y45.83 E144.534
G1 X121.47 Y45.68 E144.548
G1 X121.19 Y45.47 E144.561
G1 X121.16 Y45.45
G1 X120.92 Y45.14
G1 X120.77 Y44.78
G1 X120.71 Y44.4
G1 X120.76 Y44.01
G1 X120.91 Y43.65
G1 X121.14 Y43.34
G1 X121.45 Y43.1
G1 X121.71 Y42.99
G1 X120.84 Y45.76 F3300
; TYPE:WALL-INNER
G1 X120.53 Y45.37 E144.58 F1200
G1 X120.34 Y44.9 E144.598
G1 X120.27 Y44.4 E144.617
G1 X120.33 Y43.9 E144.635
G1 X120.52 Y43.43 E144.654
G1 X120.83 Y43.03 E144.672
G1 X121.23 Y42.72 E144.691
G1 X121.69 Y42.52 E144.709
G1 X122.19 Y42.45 E144.727
G1 X122.69 Y42.51 E144.746
G1 X123.16 Y42.7 E144.764
G1 X123.56 Y43.01 E144.783
G1 X123.87 Y43.41 E144.801
G1 X124.07 Y43.87 E144.82
G1 X124.14 Y44.37 E144.838
G1 X124.07 Y44.87 E144.857
G1 X123.88 Y45.34 E144.875
G1 X123.58 Y45.74 E144.894
G1 X123.18 Y46.05 E144.912
G1 X122.72 Y46.25 E144.931
G1 X122.22 Y46.32 E144.949
G1 X121.72 Y46.26 E144.968
G1 X121.25 Y46.07 E144.986
G1 X120.88 Y45.79 E145.003
G1 X120.84 Y45.76
G1 X120.53 Y46.08 F3300
G1 X120.15 Y45.59 E145.026 F1200
G1 X119.91 Y45.02 E145.048
G1 X119.82 Y44.4 E145.071
G1 X119.9 Y43.79 E145.094
G1 X120.14 Y43.21 E145.117
G1 X120.51 Y42.71 E145.139
G1 X121 Y42.33 E145.162
G1 X121.57 Y42.09 E145.185
G1 X122.19 Y42.01 E145.207
G1 X122.8 Y42.09 E145.23
G1 X123.38 Y42.32 E145.253
G1 X123.87 Y42.69 E145.276
G1 X124.25 Y43.18 E145.298
G1 X124.5 Y43.76 E145.321
G1 X124.58 Y44.37 E145.344
G1 X124.5 Y44.99 E145.366
G1 X124.27 Y45.56 E145.389
G1 X123.9 Y46.06 E145.412
G1 X123.41 Y46.44 E145.435
G1 X122.83 Y46.68 E145.457
G1 X122.22 Y46.76 E145.48
G1 X121.6 Y46.69 E145.503
G1 X121.03 Y46.45 E145.525
G1 X120.57 Y46.11 E145.547
G1 X120.53 Y46.08
G1 E136.047 F1800
G1 Z0.5
G1 X116.18 Y51.48 F3300
G1 X114.72 Y54.13
G1 X111.51 Y55.28
G1 X90.56 Y55.04
G1 X88.08 Y53.21
G1 X86.46 Y49.28
G1 X83.05 Y44.38
; TYPE:WALL-OUTER
G1 Z0.2
G1 E145.547 F1800
G1 X83.01 Y44.76 E145.561 F1200
G1 X82.86 Y45.12 E145.575
G1 X82.62 Y45.43 E145.589
G1 X82.32 Y45.67 E145.603
G1 X81.96 Y45.82 E145.618
G1 X81.57 Y45.88 E145.632
G1 X81.19 Y45.83 E145.646
G1 X80.83 Y45.68 E145.66
G1 X80.52 Y45.45 E145.675
G1 X80.28 Y45.14 E145.689
G1 X80.13 Y44.78 E145.703
G1 X80.07 Y44.4 E145.717
G1 X80.12 Y44.01 E145.732
G1 X80.27 Y43.65 E145.746
G1 X80.5 Y43.34 E145.76
G1 X80.81 Y43.1 E145.774
G1 X81.17 Y42.95 E145.789
G1 X81.55 Y42.89 E145.803
G1 X81.94 Y42.94 E145.817
G1 X82.3 Y43.09 E145.831
G1 X82.61 Y43.32 E145.846
G1 X82.85 Y43.63 E145.86
G1 X83 Y43.99 E145.874
G1 X83.05 Y44.33 E145.887
G1 Y44.38
G1 X83.01 Y44.76
G1 X82.86 Y45.12
G1 X82.62 Y45.43
G1 X82.32 Y45.67
G1 X81.96 Y45.82
G1 X81.57 Y45.88
G1 X81.19 Y45.83
G1 X80.93 Y45.72
G1 X83.5 Y44.37 F3300
; TYPE:WALL-INNER
G1 X83.43 Y44.87 E145.905 F1200
G1 X83.24 Y45.34 E145.924
G1 X82.94 Y45.75 E145.942
G1 X82.54 Y46.05 E145.961
G1 X82.08 Y46.25 E145.979
G1 X81.58 Y46.32 E145.997
G1 X81.08 Y46.26 E146.016
G1 X80.61 Y46.07 E146.034
G1 X80.2 Y45.76 E146.053
G1 X79.89 Y45.37 E146.071
G1 X79.7 Y44.9 E146.09
G1 X79.63 Y44.4 E146.108
G1 X79.69 Y43.9 E146.127
G1 X79.88 Y43.43 E146.145
G1 X80.19 Y43.03 E146.164
G1 X80.58 Y42.72 E146.182
G1 X81.05 Y42.52 E146.201
G1 X81.55 Y42.45 E146.219
G1 X82.05 Y42.51 E146.238
G1 X82.52 Y42.7 E146.256
G1 X82.92 Y43.01 E146.275
G1 X83.23 Y43.41 E146.293
G1 X83.43 Y43.87 E146.312
G1 X83.49 Y44.33 E146.328
G1 X83.5 Y44.37
G1 X83.94 F3300
G1 X83.86 Y44.99 E146.351 F1200
G1 X83.63 Y45.56 E146.374
G1 X83.26 Y46.06 E146.397
G1 X82.76 Y46.44 E146.419
G1 X82.19 Y46.68 E146.442
G1 X81.58 Y46.76 E146.465
G1 X80.96 Y46.69 E146.487
G1 X80.39 Y46.45 E146.51
G1 X79.89 Y46.08 E146.533
G1 X79.51 Y45.59 E146.556
G1 X79.27 Y45.02 E146.578
G1 X79.19 Y44.4 E146.601
G1 X79.26 Y43.79 E146.624
G1 X79.5 Y43.21 E146.646
G1 X79.87 Y42.72 E146.669
G1 X80.36 Y42.33 E146.692
G1 X80.93 Y42.09 E146.715
G1 X81.55 Y42.01 E146.737
G1 X82.16 Y42.09 E146.76
G1 X82.74 Y42.32 E146.783
G1 X83.23 Y42.69 E146.805
G1 X83.61 Y43.18 E146.828
G1 X83.86 Y43.75 E146.851
G1 X83.94 Y44.33 E146.872
G1 Y44.37
G1 X82.54 Y42.5 F3300
G1 X81.55 Y42.13
G1 X78.82 Y43.43
G1 X70.61 Y44.38
; TYPE:WALL-OUTER
G1 X70.56 Y44.76 E146.886 F1200
G1 X70.41 Y45.12 E146.901
G1 X70.18 Y45.43 E146.915
G1 X69.87 Y45.67 E146.929
G1 X69.51 Y45.82 E146.943
G1 X69.13 Y45.88 E146.958
G1 X68.74 Y45.83 E146.972
G1 X68.38 Y45.68 E146.986
G1 X68.07 Y45.45 E147
G1 X67.83 Y45.14 E147.014
G1 X67.68 Y44.78 E147.029
G1 X67.63 Y44.4 E147.043
G1 X67.67 Y44.01 E147.057
G1 X67.82 Y43.65 E147.071
G1 X68.06 Y43.34 E147.086
G1 X68.36 Y43.1 E147.1
G1 X68.72 Y42.95 E147.114
G1 X69.11 Y42.89 E147.128
G1 X69.49 Y42.94 E147.143
G1 X69.85 Y43.09 E147.157
G1 X70.16 Y43.32 E147.171
G1 X70.4 Y43.63 E147.185
G1 X70.55 Y43.99 E147.2
G1 X70.6 Y44.33 E147.212
G1 X70.61 Y44.38
G1 X70.56 Y44.76
G1 X70.41 Y45.12
G1 X70.18 Y45.43
G1 X69.87 Y45.67
G1 X69.51 Y45.82
G1 X69.13 Y45.88
G1 X68.74 Y45.83
G1 X68.48 Y45.72
G1 X71.05 Y44.37 F3300
; TYPE:WALL-INNER
G1 X70.99 Y44.87 E147.231 F1200
G1 X70.8 Y45.34 E147.249
G1 X70.49 Y45.74 E147.268
G1 X70.1 Y46.05 E147.286
G1 X69.63 Y46.25 E147.305
G1 X69.13 Y46.32 E147.323
G1 X68.63 Y46.26 E147.341
G1 X68.16 Y46.07 E147.36
G1 X67.76 Y45.76 E147.378
G1 X67.45 Y45.37 E147.397
G1 X67.25 Y44.9 E147.415
G1 X67.18 Y44.4 E147.434
G1 X67.25 Y43.9 E147.452
G1 X67.44 Y43.43 E147.471
G1 X67.74 Y43.03 E147.489
G1 X68.14 Y42.72 E147.508
G1 X68.6 Y42.52 E147.526
G1 X69.1 Y42.45 E147.545
G1 X69.61 Y42.51 E147.563
G1 X70.07 Y42.7 E147.582
G1 X70.48 Y43.01 E147.6
G1 X70.79 Y43.41 E147.619
G1 X70.98 Y43.87 E147.637
G1 X71.05 Y44.33 E147.654
G1 Y44.37
G1 X71.49 F3300
G1 X71.42 Y44.99 E147.677 F1200
G1 X71.18 Y45.56 E147.699
G1 X70.81 Y46.06 E147.722
G1 X70.32 Y46.44 E147.745
G1 X69.75 Y46.68 E147.768
G1 X69.13 Y46.76 E147.79
G1 X68.52 Y46.69 E147.813
G1 X67.94 Y46.45 E147.836
G1 X67.45 Y46.08 E147.858
G1 X67.07 Y45.59 E147.881
G1 X66.82 Y45.02 E147.904
G1 X66.74 Y44.4 E147.927
G1 X66.82 Y43.79 E147.949
G1 X67.05 Y43.21 E147.972
G1 X67.42 Y42.71 E147.995
G1 X67.92 Y42.33 E148.018
G1 X68.48 Y42.09 E148.04
G1 X69.1 Y42.01 E148.063
G1 X69.72 Y42.09 E148.086
G1 X70.29 Y42.32 E148.108
G1 X70.79 Y42.69 E148.131
G1 X71.17 Y43.18 E148.154
G1 X71.41 Y43.76 E148.177
G1 X71.49 Y44.33 E148.198
G1 Y44.37
G1 X69.52 Y42.12 F3300
G1 X67.21 Y40.85
G1 X62.4 Y36.9
; TYPE:WALL-OUTER
G1 X62.48 Y37.64 E148.225 F1200
G1 Y51.13 E148.718
G1 X62.4 Y51.87 E148.746
G1 X62.14 Y52.59 E148.774
G1 X61.74 Y53.23 E148.801
G1 X61.2 Y53.77 E148.829
G1 X60.56 Y54.18 E148.857
G1 X59.84 Y54.43 E148.885
G1 X59.1 Y54.51 E148.912
G1 X38.5 E149.666
G1 X37.75 Y54.43 E149.693
G1 X37.04 Y54.18 E149.721
G1 X36.39 Y53.77 E149.749
G1 X35.85 Y53.23 E149.777
G1 X35.45 Y52.59 E149.805
G1 X35.2 Y51.87 E149.832
G1 X35.11 Y51.13 E149.86
G1 Y37.64 E150.353
G1 X35.2 Y36.9 E150.381
G1 X35.45 Y36.18 E150.408
G1 X35.85 Y35.54 E150.436
G1 X36.39 Y35 E150.464
G1 X37.04 Y34.6 E150.492
G1 X37.75 Y34.34 E150.52
G1 X38.5 Y34.26 E150.547
G1 X59.1 E151.301
G1 X59.84 Y34.34 E151.328
G1 X60.56 Y34.6 E151.356
G1 X61.2 Y35 E151.384
G1 X61.74 Y35.54 E151.412
G1 X62.14 Y36.18 E151.439
G1 X62.38 Y36.86 E151.466
G1 X62.4 Y36.9
G1 X62.48 Y37.64
G1 Y39.9
G1 X62.83 Y36.8 F3300
; TYPE:WALL-INNER
G1 X62.92 Y37.62 E151.496 F1200
G1 Y51.15 E151.991
G1 X62.83 Y51.97 E152.021
G1 X62.54 Y52.78 E152.052
G1 X62.09 Y53.51 E152.084
G1 X61.48 Y54.12 E152.115
G1 X60.75 Y54.58 E152.147
G1 X59.94 Y54.86 E152.178
G1 X59.12 Y54.95 E152.208
G1 X38.47 E152.964
G1 X37.66 Y54.86 E152.994
G1 X36.84 Y54.58 E153.025
G1 X36.12 Y54.12 E153.057
G1 X35.51 Y53.51 E153.088
G1 X35.05 Y52.78 E153.12
G1 X34.77 Y51.97 E153.151
G1 X34.67 Y51.15 E153.181
G1 Y37.62 E153.676
G1 X34.77 Y36.8 E153.707
G1 X35.05 Y35.99 E153.738
G1 X35.51 Y35.26 E153.769
G1 X36.12 Y34.65 E153.801
G1 X36.84 Y34.2 E153.832
G1 X37.66 Y33.91 E153.864
G1 X38.47 Y33.82 E153.894
G1 X59.12 E154.649
G1 X59.94 Y33.91 E154.679
G1 X60.75 Y34.2 E154.711
G1 X61.48 Y34.65 E154.742
G1 X62.09 Y35.26 E154.774
G1 X62.54 Y35.99 E154.805
G1 X62.81 Y36.76 E154.835
G1 X62.83 Y36.8
G1 X63.26 Y36.7 F3300
G1 X63.36 Y37.59 E154.868 F1200
G1 Y51.18 E155.365
G1 X63.26 Y52.07 E155.398
G1 X62.94 Y52.97 E155.433
G1 X62.43 Y53.79 E155.468
G1 X61.75 Y54.47 E155.503
G1 X60.94 Y54.97 E155.538
G1 X60.04 Y55.29 E155.573
G1 X59.14 Y55.39 E155.606
G1 X38.45 E156.363
G1 X37.56 Y55.29 E156.396
G1 X36.65 Y54.97 E156.431
G1 X35.84 Y54.47 E156.466
G1 X35.16 Y53.79 E156.501
G1 X34.65 Y52.97 E156.536
G1 X34.34 Y52.07 E156.571
G1 X34.23 Y51.18 E156.604
G1 Y37.59 E157.101
G1 X34.34 Y36.7 E157.134
G1 X34.65 Y35.8 E157.169
G1 X35.16 Y34.99 E157.204
G1 X35.84 Y34.31 E157.239
G1 X36.65 Y33.8 E157.274
G1 X37.56 Y33.48 E157.309
G1 X38.45 Y33.38 E157.342
G1 X59.15 E158.099
G1 X60.04 Y33.48 E158.132
G1 X60.94 Y33.8 E158.167
G1 X61.75 Y34.31 E158.202
G1 X62.43 Y34.99 E158.238
G1 X62.94 Y35.8 E158.273
G1 X63.24 Y36.66 E158.306
G1 X63.26 Y36.7
G1 E148.806 F1800
G1 Z0.5
G1 X61.12 Y34.13 F3300
G1 X58.42 Y33.49
G1 X37.47 Y33.57
G1 X34.96 Y35.57
G1 X33.18 Y39.56
G1 X29.91 Y43.99
; TYPE:WALL-OUTER
G1 Z0.2
G1 E158.306 F1800
G1 X29.97 Y44.38 E158.32 F1200
G1 X29.92 Y44.76 E158.335
G1 X29.77 Y45.12 E158.349
G1 X29.54 Y45.43 E158.363
G1 X29.23 Y45.67 E158.377
G1 X28.87 Y45.82 E158.392
G1 X28.49 Y45.88 E158.406
G1 X28.1 Y45.83 E158.42
G1 X27.74 Y45.68 E158.434
G1 X27.43 Y45.45 E158.448
G1 X27.19 Y45.14 E158.463
G1 X27.04 Y44.78 E158.477
G1 X26.99 Y44.4 E158.491
G1 X27.03 Y44.01 E158.505
G1 X27.18 Y43.65 E158.52
G1 X27.42 Y43.34 E158.534
G1 X27.72 Y43.1 E158.548
G1 X28.08 Y42.95 E158.562
G1 X28.47 Y42.89 E158.577
G1 X28.85 Y42.94 E158.591
G1 X29.21 Y43.09 E158.605
G1 X29.52 Y43.32 E158.619
G1 X29.76 Y43.63 E158.634
G1 X29.9 Y43.95 E158.646
G1 X29.91 Y43.99
G1 X29.97 Y44.38
G1 X29.92 Y44.76
G1 X29.77 Y45.12
G1 X29.54 Y45.43
G1 X29.23 Y45.67
G1 X28.87 Y45.82
G1 X28.49 Y45.88
G1 X28.21 Y45.84
G1 X30.34 Y43.87 F3300
; TYPE:WALL-INNER
G1 X30.41 Y44.37 E158.665 F1200
G1 X30.35 Y44.87 E158.683
G1 X30.16 Y45.34 E158.702
G1 X29.85 Y45.75 E158.72
G1 X29.45 Y46.05 E158.739
G1 X28.99 Y46.25 E158.757
G1 X28.49 Y46.32 E158.776
G1 X27.99 Y46.26 E158.794
G1 X27.52 Y46.07 E158.812
G1 X27.12 Y45.76 E158.831
G1 X26.81 Y45.37 E158.849
G1 X26.61 Y44.9 E158.868
G1 X26.54 Y44.4 E158.886
G1 X26.61 Y43.9 E158.905
G1 X26.8 Y43.43 E158.923
G1 X27.1 Y43.03 E158.942
G1 X27.5 Y42.72 E158.96
G1 X27.96 Y42.52 E158.979
G1 X28.46 Y42.45 E158.997
G1 X28.97 Y42.51 E159.016
G1 X29.43 Y42.7 E159.034
G1 X29.84 Y43.01 E159.053
G1 X30.15 Y43.41 E159.071
G1 X30.33 Y43.83 E159.088
G1 X30.34 Y43.87
G1 X30.77 Y43.75 F3300
G1 X30.86 Y44.37 E159.111 F1200
G1 X30.78 Y44.99 E159.134
G1 X30.54 Y45.56 E159.156
G1 X30.17 Y46.06 E159.179
G1 X29.68 Y46.44 E159.202
G1 X29.11 Y46.68 E159.224
G1 X28.49 Y46.76 E159.247
G1 X27.88 Y46.69 E159.27
G1 X27.3 Y46.45 E159.292
G1 X26.81 Y46.08 E159.315
G1 X26.43 Y45.59 E159.338
G1 X26.18 Y45.02 E159.361
G1 X26.1 Y44.4 E159.383
G1 X26.18 Y43.79 E159.406
G1 X26.41 Y43.21 E159.429
G1 X26.78 Y42.72 E159.451
G1 X27.27 Y42.33 E159.474
G1 X27.85 Y42.09 E159.497
G1 X28.46 Y42.01 E159.52
G1 X29.08 Y42.09 E159.542
G1 X29.65 Y42.32 E159.565
G1 X30.15 Y42.69 E159.588
G1 X30.53 Y43.18 E159.61
G1 X30.75 Y43.71 E159.632
G1 X30.77 Y43.75
G1 X31.1 Y43.57 F3300
; TYPE:FILL
G1 X33.85 Y40.82 E159.774 F1200
G1 Y40.19 F3300
G1 X30.92 Y43.13 E159.926 F1200
G1 X30.67 Y42.75 F3300
G1 X33.85 Y39.57 E160.09 F1200
G1 Y38.95 F3300
G1 X30.4 Y42.41 E160.269 F1200
G1 X30.04 Y42.14 F3300
G1 X33.85 Y38.33 E160.466 F1200
G1 Y37.71 F3300
G1 X29.65 Y41.91 E160.684 F1200
G1 X29.21 Y41.73 F3300
G1 X33.92 Y37.02 E160.927 F1200
G1 X34.1 Y36.21 F3300
G1 X28.67 Y41.65 E161.209 F1200
G1 X28.01 Y41.69 F3300
G1 X34.72 Y34.97 E161.556 F1200
G1 X35.83 Y33.87 F3300
G1 X40.08 Y29.61 E161.777 F1200
G1 X40.71 F3300
G1 X37.07 Y33.25 E161.965 F1200
G1 X37.88 Y33.06 F3300
G1 X41.33 Y29.61 E162.144 F1200
G1 X41.95 F3300
G1 X38.56 Y33 E162.319 F1200
G1 X39.18 F3300
G1 X42.57 Y29.61 E162.495 F1200
G1 X43.2 F3300
G1 X39.8 Y33 E162.67 F1200
G1 X40.43 F3300
G1 X43.82 Y29.61 E162.846 F1200
G1 X44.44 F3300
G1 X41.05 Y33 E163.021 F1200
G1 X41.67 F3300
G1 X45.06 Y29.61 E163.197 F1200
G1 X45.68 F3300
G1 X42.29 Y33 E163.372 F1200
G1 X42.92 F3300
G1 X46.31 Y29.61 E163.548 F1200
G1 X46.93 F3300
G1 X43.54 Y33 E163.723 F1200
G1 X44.16 F3300
G1 X47.55 Y29.61 E163.899 F1200
G1 X48.17 F3300
G1 X44.78 Y33 E164.074 F1200
G1 X45.4 F3300
G1 X48.8 Y29.61 E164.25 F1200
G1 X49.42 F3300
G1 X46.03 Y33 E164.425 F1200
G1 X46.65 F3300
G1 X50.04 Y29.61 E164.601 F1200
G1 X50.66 F3300
G1 X47.27 Y33 E164.776 F1200
G1 X47.89 F3300
G1 X51.29 Y29.61 E164.951 F1200
G1 X51.91 F3300
G1 X48.52 Y33 E165.127 F1200
G1 X49.14 F3300
G1 X52.53 Y29.61 E165.302 F1200
G1 X53.15 F3300
G1 X49.76 Y33 E165.478 F1200
G1 X50.38 F3300
G1 X53.77 Y29.61 E165.653 F1200
G1 X54.4 F3300
G1 X51.01 Y33 E165.829 F1200
G1 X51.63 F3300
G1 X55.02 Y29.61 E166.004 F1200
G1 X55.64 F3300
G1 X52.25 Y33 E166.18 F1200
G1 X52.87 F3300
G1 X56.26 Y29.61 E166.355 F1200
G1 X56.89 F3300
G1 X53.49 Y33 E166.531 F1200
G1 X54.12 F3300
G1 X57.51 Y29.61 E166.706 F1200
G1 X58.13 F3300
G1 X54.74 Y33 E166.882 F1200
G1 X55.36 F3300
G1 X58.75 Y29.61 E167.057 F1200
G1 X59.37 F3300
G1 X55.98 Y33 E167.233 F1200
G1 X56.61 F3300
G1 X60 Y29.61 E167.408 F1200
G1 X60.62 F3300
G1 X57.23 Y33 E167.584 F1200
G1 X57.85 F3300
G1 X61.24 Y29.61 E167.759 F1200
G1 X61.86 F3300
G1 X58.47 Y33 E167.935 F1200
G1 X59.09 F3300
G1 X62.49 Y29.61 E168.11 F1200
G1 X63.11 F3300
G1 X59.66 Y33.06 E168.289 F1200
G1 X60.2 Y33.14 F3300
G1 X63.73 Y29.61 E168.471 F1200
G1 X64.35 F3300
G1 X60.66 Y33.3 E168.662 F1200
G1 X61.12 Y33.46 F3300
G1 X64.97 Y29.61 E168.861 F1200
G1 X65.6 F3300
G1 X61.5 Y33.7 E169.073 F1200
G1 X61.89 Y33.94 F3300
G1 X66.22 Y29.61 E169.297 F1200
G1 X66.84 F3300
G1 X62.22 Y34.23 E169.537 F1200
G1 X62.53 Y34.54 F3300
G1 X67.46 Y29.61 E169.792 F1200
G1 X68.09 F3300
G1 X62.81 Y34.88 E170.065 F1200
G1 X63.05 Y35.26 F3300
G1 X68.71 Y29.61 E170.358 F1200
G1 X69.33 F3300
G1 X63.29 Y35.65 E170.67 F1200
G1 X63.45 Y36.11 F3300
G1 X69.95 Y29.61 E171.006 F1200
G1 X70.57 F3300
G1 X63.61 Y36.57 E171.367 F1200
G1 X63.69 Y37.12 F3300
G1 X71.2 Y29.61 E171.755 F1200
G1 X71.82 F3300
G1 X63.74 Y37.69 E172.173 F1200
G1 Y38.31 F3300
G1 X72.44 Y29.61 E172.624 F1200
G1 X73.06 F3300
G1 X63.74 Y38.93 E173.106 F1200
G1 Y39.56 F3300
G1 X73.69 Y29.61 E173.621 F1200
G1 X74.31 F3300
G1 X63.74 Y40.18 E174.168 F1200
G1 Y40.8 F3300
G1 X74.93 Y29.61 E174.747 F1200
G1 X75.55 F3300
G1 X63.74 Y41.42 E175.358 F1200
G1 Y42.05 F3300
G1 X76.17 Y29.61 E176.002 F1200
G1 X76.8 F3300
G1 X63.74 Y42.67 E176.678 F1200
G1 Y43.29 F3300
G1 X77.42 Y29.61 E177.386 F1200
G1 X78.04 F3300
G1 X63.74 Y43.91 E178.126 F1200
G1 Y44.53 F3300
G1 X78.66 Y29.61 E178.898 F1200
G1 X79.29 F3300
G1 X63.74 Y45.16 E179.702 F1200
G1 Y45.78 F3300
G1 X79.91 Y29.61 E180.539 F1200
G1 X80.53 F3300
G1 X68.42 Y41.72 E181.166 F1200
G1 X69.13 Y41.63 F3300
G1 X81.15 Y29.61 E181.787 F1200
G1 X81.77 F3300
G1 X69.68 Y41.7 E182.413 F1200
G1 X70.15 Y41.85 F3300
G1 X82.4 Y29.61 E183.047 F1200
G1 X83.02 F3300
G1 X70.57 Y42.06 E183.691 F1200
G1 X70.93 Y42.32 F3300
G1 X83.64 Y29.61 E184.348 F1200
G1 X84.26 F3300
G1 X71.23 Y42.64 E185.023 F1200
G1 X71.5 Y42.99 F3300
G1 X84.89 Y29.61 E185.715 F1200
G1 X85.51 F3300
G1 X71.69 Y43.43 E186.431 F1200
G1 X71.82 Y43.92 F3300
G1 X86.13 Y29.61 E187.171 F1200
G1 X86.75 F3300
G1 X71.86 Y44.5 E187.942 F1200
G1 X71.71 Y45.27 F3300
G1 X87.38 Y29.61 E188.752 F1200
G1 X88 F3300
G1 X23.48 Y94.13 E192.091 F1200
G1 Y94.75 F3300
G1 X88.62 Y29.61 E195.461 F1200
G1 X89.24 F3300
G1 X23.48 Y95.37 E198.864 F1200
G1 Y95.99 F3300
G1 X89.86 Y29.61 E202.298 F1200
G1 X90.49 F3300
G1 X23.48 Y96.62 E205.766 F1200
G1 Y97.24 F3300
G1 X91.11 Y29.61 E209.265 F1200
G1 X91.73 F3300
G1 X23.48 Y97.86 E212.796 F1200
G1 Y98.48 F3300
G1 X92.35 Y29.61 E216.36 F1200
G1 X92.98 F3300
G1 X80.87 Y41.72 E216.986 F1200
G1 X81.58 Y41.63 F3300
G1 X87.29 Y35.91 E217.282 F1200
G1 X87.03 Y36.8 F3300
G1 X82.13 Y41.7 E217.535 F1200
G1 X82.6 Y41.85 F3300
G1 X86.95 Y37.5 E217.761 F1200
G1 X86.94 Y38.13 F3300
G1 X83.02 Y42.06 E217.964 F1200
G1 X83.37 Y42.32 F3300
G1 X86.94 Y38.75 E218.148 F1200
G1 Y39.38 F3300
G1 X83.67 Y42.64 E218.317 F1200
G1 X83.95 Y42.99 F3300
G1 X86.94 Y40 E218.472 F1200
G1 Y40.62 F3300
G1 X84.13 Y43.43 E218.617 F1200
G1 X84.26 Y43.92 F3300
G1 X86.94 Y41.24 E218.756 F1200
G1 Y41.87 F3300
G1 X84.31 Y44.5 E218.892 F1200
G1 X84.15 Y45.27 F3300
G1 X86.94 Y42.49 E219.036 F1200
G1 Y43.11 F3300
G1 X23.48 Y106.57 E222.32 F1200
G1 Y107.19 F3300
G1 X86.94 Y43.73 E225.604 F1200
G1 Y44.35 F3300
G1 X23.48 Y107.82 E228.887 F1200
G1 Y108.44 F3300
G1 X86.94 Y44.98 E232.171 F1200
G1 Y45.6 F3300
G1 X23.48 Y109.06 E235.454 F1200
G1 Y109.68 F3300
G1 X86.94 Y46.22 E238.738 F1200
G1 Y46.84 F3300
G1 X23.48 Y110.31 E242.021 F1200
G1 Y110.93 F3300
G1 X86.94 Y47.47 E245.305 F1200
G1 Y48.09 F3300
G1 X23.48 Y111.55 E248.589 F1200
G1 Y112.17 F3300
G1 X86.94 Y48.71 E251.872 F1200
G1 Y49.33 F3300
G1 X23.48 Y112.79 E255.156 F1200
G1 Y113.42 F3300
G1 X86.94 Y49.96 E258.439 F1200
G1 Y50.58 F3300
G1 X23.48 Y114.04 E261.723 F1200
G1 Y114.66 F3300
G1 X86.94 Y51.2 E265.006 F1200
G1 X87 Y51.76 F3300
G1 X23.48 Y115.28 E268.293 F1200
G1 Y115.91 F3300
G1 X87.1 Y52.29 E271.585 F1200
G1 X87.26 Y52.75 F3300
G1 X23.48 Y116.53 E274.885 F1200
G1 Y117.15 F3300
G1 X87.43 Y53.2 E278.193 F1200
G1 X87.67 Y53.58 F3300
G1 X23.48 Y117.77 E281.515 F1200
G1 Y118.4 F3300
G1 X87.91 Y53.96 E284.848 F1200
G1 X88.21 Y54.29 F3300
G1 X23.48 Y119.02 E288.198 F1200
G1 Y119.64 F3300
G1 X88.52 Y54.6 E291.563 F1200
G1 X88.87 Y54.88 F3300
G1 X23.48 Y120.26 E294.946 F1200
G1 Y120.88 F3300
G1 X89.25 Y55.11 E298.349 F1200
G1 X89.64 Y55.34 F3300
G1 X23.48 Y121.51 E301.773 F1200
G1 Y122.13 F3300
G1 X90.1 Y55.5 E305.22 F1200
G1 X90.56 Y55.66 F3300
G1 X23.48 Y122.75 E308.691 F1200
G1 Y123.37 F3300
G1 X91.12 Y55.73 E312.191 F1200
G1 X91.7 Y55.77 F3300
G1 X23.48 Y124 E315.721 F1200
G1 Y124.62 F3300
G1 X92.33 Y55.77 E319.283 F1200
G1 X92.95 F3300
G1 X23.48 Y125.24 E322.877 F1200
G1 Y125.86 F3300
G1 X93.57 Y55.77 E326.504 F1200
G1 X94.19 F3300
G1 X23.48 Y126.48 E330.163 F1200
G1 Y127.11 F3300
G1 X94.81 Y55.77 E333.854 F1200
G1 X95.44 F3300
G1 X23.48 Y127.73 E337.577 F1200
G1 Y128.35 F3300
G1 X96.06 Y55.77 E341.332 F1200
G1 X96.68 F3300
G1 X23.48 Y128.97 E345.12 F1200
G1 X23.56 Y129.52 F3300
G1 X97.3 Y55.77 E348.936 F1200
G1 X97.93 F3300
G1 X24.18 Y129.52 E352.751 F1200
G1 X24.8 F3300
G1 X98.55 Y55.77 E356.567 F1200
G1 X99.17 F3300
G1 X25.42 Y129.52 E360.383 F1200
G1 X26.04 F3300
G1 X99.79 Y55.77 E364.199 F1200
G1 X100.41 F3300
G1 X26.67 Y129.52 E368.015 F1200
G1 X27.29 F3300
G1 X101.04 Y55.77 E371.83 F1200
G1 X101.66 F3300
G1 X27.91 Y129.52 E375.646 F1200
G1 X28.53 F3300
G1 X102.28 Y55.77 E379.462 F1200
G1 X102.9 F3300
G1 X29.16 Y129.52 E383.278 F1200
G1 X29.78 F3300
G1 X103.53 Y55.77 E387.094 F1200
G1 X104.15 F3300
G1 X30.4 Y129.52 E390.909 F1200
G1 X31.02 F3300
G1 X104.77 Y55.77 E394.725 F1200
G1 X105.39 F3300
G1 X31.64 Y129.52 E398.541 F1200
G1 X32.27 F3300
G1 X106.01 Y55.77 E402.357 F1200
G1 X106.64 F3300
G1 X32.89 Y129.52 E406.172 F1200
G1 X33.51 F3300
G1 X107.26 Y55.77 E409.988 F1200
G1 X107.88 F3300
G1 X34.13 Y129.52 E413.804 F1200
G1 X34.76 F3300
G1 X108.5 Y55.77 E417.62 F1200
G1 X109.13 F3300
G1 X35.38 Y129.52 E421.435 F1200
G1 X36 F3300
G1 X109.75 Y55.77 E425.251 F1200
G1 X110.37 F3300
G1 X36.62 Y129.52 E429.067 F1200
G1 X37.24 F3300
G1 X110.99 Y55.77 E432.883 F1200
G1 X111.61 F3300
G1 X37.87 Y129.52 E436.698 F1200
G1 X38.49 F3300
G1 X112.24 Y55.77 E440.514 F1200
G1 X112.94 Y55.69 F3300
G1 X39.11 Y129.52 E444.334 F1200
G1 X39.73 F3300
G1 X113.8 Y55.46 E448.166 F1200
G1 X116.51 Y52.74 F3300
G1 X122.12 Y47.13 E448.456 F1200
G1 X121.57 Y47.07 F3300
G1 X116.75 Y51.88 E448.706 F1200
G1 X116.82 Y51.18 F3300
G1 X121.11 Y46.9 E448.928 F1200
G1 X120.7 Y46.68 F3300
G1 X116.82 Y50.56 E449.128 F1200
G1 Y49.94 F3300
G1 X120.35 Y46.42 E449.311 F1200
G1 X120.06 Y46.09 F3300
G1 X116.82 Y49.32 E449.478 F1200
G1 Y48.7 F3300
G1 X119.8 Y45.72 E449.632 F1200
G1 X119.61 Y45.29 F3300
G1 X116.82 Y48.07 E449.776 F1200
G1 Y47.45 F3300
G1 X119.49 Y44.78 E449.914 F1200
G1 X119.47 Y44.18 F3300
G1 X116.82 Y46.83 E450.051 F1200
G1 Y46.21 F3300
G1 X119.66 Y43.37 E450.197 F1200
G1 X121.19 Y41.84 F3300
G1 X127.2 Y35.83 E450.508 F1200
G1 Y36.45 F3300
G1 X122.01 Y41.65 E450.777 F1200
G1 X122.6 Y41.68 F3300
G1 X127.2 Y37.08 E451.015 F1200
G1 Y37.7 F3300
G1 X123.1 Y41.8 E451.227 F1200
G1 X123.54 Y41.98 F3300
G1 X127.2 Y38.32 E451.416 F1200
G1 Y38.94 F3300
G1 X123.9 Y42.24 E451.587 F1200
G1 X124.23 Y42.53 F3300
G1 X127.2 Y39.56 E451.74 F1200
G1 Y40.19 F3300
G1 X124.5 Y42.88 E451.88 F1200
G1 X124.71 Y43.29 F3300
G1 X127.2 Y40.81 E452.009 F1200
G1 Y41.43 F3300
G1 X124.88 Y43.75 E452.129 F1200
G1 X124.95 Y44.3 F3300
G1 X127.2 Y42.05 E452.245 F1200
G1 Y42.68 F3300
G1 X124.89 Y44.99 E452.365 F1200
G1 X127.2 Y45.17 F3300
G1 X42.85 Y129.52 E456.729 F1200
G1 X43.47 F3300
G1 X127.2 Y45.79 E461.061 F1200
G1 Y46.41 F3300
G1 X44.09 Y129.52 E465.362 F1200
G1 X44.71 F3300
G1 X127.2 Y47.03 E469.63 F1200
G1 Y47.65 F3300
G1 X45.33 Y129.52 E473.865 F1200
G1 X45.96 F3300
G1 X127.2 Y48.28 E478.069 F1200
G1 Y48.9 F3300
G1 X46.58 Y129.52 E482.24 F1200
G1 X47.2 F3300
G1 X127.2 Y49.52 E486.38 F1200
G1 Y50.14 F3300
G1 X47.82 Y129.52 E490.486 F1200
G1 X48.45 F3300
G1 X127.2 Y50.77 E494.561 F1200
G1 Y51.39 F3300
G1 X49.07 Y129.52 E498.604 F1200
G1 X49.69 F3300
G1 X127.2 Y52.01 E502.614 F1200
G1 Y52.63 F3300
G1 X50.31 Y129.52 E506.592 F1200
G1 X50.93 F3300
G1 X127.2 Y53.25 E510.538 F1200
G1 Y53.88 F3300
G1 X51.56 Y129.52 E514.452 F1200
G1 X52.18 F3300
G1 X127.2 Y54.5 E518.334 F1200
G1 Y55.12 F3300
G1 X52.8 Y129.52 E522.183 F1200
G1 X53.42 F3300
G1 X127.2 Y55.74 E526.001 F1200
G1 Y56.37 F3300
G1 X54.05 Y129.52 E529.786 F1200
G1 X54.67 F3300
G1 X127.2 Y56.99 E533.538 F1200
G1 Y57.61 F3300
G1 X55.29 Y129.52 E537.259 F1200
G1 X55.91 F3300
G1 X127.2 Y58.23 E540.947 F1200
G1 Y58.85 F3300
G1 X56.53 Y129.52 E544.604 F1200
G1 X57.16 F3300
G1 X127.2 Y59.48 E548.228 F1200
G1 Y60.1 F3300
G1 X57.78 Y129.52 E551.82 F1200
G1 X58.4 F3300
G1 X127.2 Y60.72 E555.379 F1200
G1 Y61.34 F3300
G1 X59.02 Y129.52 E558.907 F1200
G1 X59.65 F3300
G1 X127.2 Y61.97 E562.402 F1200
G1 Y62.59 F3300
G1 X60.27 Y129.52 E565.865 F1200
G1 X60.89 F3300
G1 X127.2 Y63.21 E569.296 F1200
G1 Y63.83 F3300
G1 X61.51 Y129.52 E572.695 F1200
G1 X62.13 F3300
G1 X127.2 Y64.45 E576.061 F1200
G1 Y65.08 F3300
G1 X62.76 Y129.52 E579.395 F1200
G1 X63.38 F3300
G1 X127.2 Y65.7 E582.697 F1200
G1 Y66.32 F3300
G1 X64 Y129.52 E585.967 F1200
G1 X64.62 F3300
G1 X127.2 Y66.94 E589.205 F1200
G1 Y67.57 F3300
G1 X65.25 Y129.52 E592.411 F1200
G1 X65.87 F3300
G1 X127.2 Y68.19 E595.584 F1200
G1 Y68.81 F3300
G1 X66.49 Y129.52 E598.725 F1200
G1 X67.11 F3300
G1 X127.2 Y69.43 E601.834 F1200
G1 Y70.06 F3300
G1 X67.74 Y129.52 E604.911 F1200
G1 X68.36 F3300
G1 X127.2 Y70.68 E607.955 F1200
G1 Y71.3 F3300
G1 X68.98 Y129.52 E610.968 F1200
G1 X69.6 F3300
G1 X127.2 Y71.92 E613.948 F1200
G1 Y72.54 F3300
G1 X70.22 Y129.52 E616.896 F1200
G1 X70.85 F3300
G1 X127.2 Y73.17 E619.811 F1200
G1 Y73.79 F3300
G1 X71.47 Y129.52 E622.695 F1200
G1 X72.09 F3300
G1 X127.2 Y74.41 E625.546 F1200
G1 Y75.03 F3300
G1 X72.71 Y129.52 E628.365 F1200
G1 X73.34 F3300
G1 X127.2 Y75.66 E631.152 F1200
G1 Y76.28 F3300
G1 X73.96 Y129.52 E633.907 F1200
G1 X74.58 F3300
G1 X127.2 Y76.9 E636.63 F1200
G1 Y77.52 F3300
G1 X75.2 Y129.52 E639.32 F1200
G1 X75.82 F3300
G1 X127.2 Y78.14 E641.978 F1200
G1 Y78.77 F3300
G1 X76.45 Y129.52 E644.604 F1200
G1 X77.07 F3300
G1 X127.2 Y79.39 E647.198 F1200
G1 Y80.01 F3300
G1 X77.69 Y129.52 E649.76 F1200
G1 X78.31 F3300
G1 X127.2 Y80.63 E652.289 F1200
G1 Y81.26 F3300
G1 X78.94 Y129.52 E654.786 F1200
G1 X79.56 F3300
G1 X127.2 Y81.88 E657.251 F1200
G1 Y82.5 F3300
G1 X80.18 Y129.52 E659.684 F1200
G1 X80.8 F3300
G1 X127.2 Y83.12 E662.085 F1200
G1 Y83.74 F3300
G1 X81.42 Y129.52 E664.453 F1200
G1 X82.05 F3300
G1 X127.2 Y84.37 E666.79 F1200
G1 Y84.99 F3300
G1 X82.67 Y129.52 E669.094 F1200
G1 X83.29 F3300
G1 X127.2 Y85.61 E671.366 F1200
G1 Y86.23 F3300
G1 X83.91 Y129.52 E673.605 F1200
G1 X84.54 F3300
G1 X127.2 Y86.86 E675.813 F1200
G1 Y87.48 F3300
G1 X85.16 Y129.52 E677.988 F1200
G1 X85.78 F3300
G1 X127.2 Y88.1 E680.131 F1200
G1 Y88.72 F3300
G1 X86.4 Y129.52 E682.242 F1200
G1 X87.03 F3300
G1 X127.2 Y89.34 E684.321 F1200
G1 Y89.97 F3300
G1 X87.65 Y129.52 E686.367 F1200
G1 X88.27 F3300
G1 X127.2 Y90.59 E688.381 F1200
G1 Y91.21 F3300
G1 X88.89 Y129.52 E690.364 F1200
G1 X89.51 F3300
G1 X127.2 Y91.83 E692.313 F1200
G1 Y92.46 F3300
G1 X90.14 Y129.52 E694.231 F1200
G1 X90.76 F3300
G1 X127.2 Y93.08 E696.117 F1200
G1 Y93.7 F3300
G1 X91.38 Y129.52 E697.97 F1200
G1 X92 F3300
G1 X127.2 Y94.32 E699.791 F1200
G1 Y94.94 F3300
G1 X92.63 Y129.52 E701.58 F1200
G1 X93.25 F3300
G1 X127.2 Y95.57 E703.337 F1200
G1 Y96.19 F3300
G1 X93.87 Y129.52 E705.061 F1200
G1 X94.49 F3300
G1 X127.2 Y96.81 E706.754 F1200
G1 Y97.43 F3300
G1 X95.11 Y129.52 E708.414 F1200
G1 X95.74 F3300
G1 X127.2 Y98.06 E710.042 F1200
G1 Y98.68 F3300
G1 X96.36 Y129.52 E711.638 F1200
G1 X96.98 F3300
G1 X127.2 Y99.3 E713.201 F1200
G1 Y99.92 F3300
G1 X97.6 Y129.52 E714.732 F1200
G1 X98.23 F3300
G1 X127.2 Y100.54 E716.232 F1200
G1 Y101.17 F3300
G1 X98.85 Y129.52 E717.699 F1200
G1 X99.47 F3300
G1 X127.2 Y101.79 E719.133 F1200
G1 Y102.41 F3300
G1 X100.09 Y129.52 E720.536 F1200
G1 X100.71 F3300
G1 X127.2 Y103.03 E721.906 F1200
G1 Y103.66 F3300
G1 X101.34 Y129.52 E723.245 F1200
G1 X101.96 F3300
G1 X127.2 Y104.28 E724.551 F1200
G1 Y104.9 F3300
G1 X102.58 Y129.52 E725.824 F1200
G1 X103.2 F3300
G1 X127.2 Y105.52 E727.066 F1200
G1 Y106.15 F3300
G1 X103.83 Y129.52 E728.275 F1200
G1 X104.45 F3300
G1 X127.2 Y106.77 E729.453 F1200
G1 Y107.39 F3300
G1 X105.07 Y129.52 E730.598 F1200
G1 X105.69 F3300
G1 X127.2 Y108.01 E731.71 F1200
G1 Y108.63 F3300
G1 X106.31 Y129.52 E732.791 F1200
G1 X106.94 F3300
G1 X127.2 Y109.26 E733.84 F1200
G1 Y109.88 F3300
G1 X107.56 Y129.52 E734.856 F1200
G1 X108.18 F3300
G1 X127.2 Y110.5 E735.84 F1200
G1 Y111.12 F3300
G1 X108.8 Y129.52 E736.792 F1200
G1 X109.43 F3300
G1 X127.2 Y111.75 E737.711 F1200
G1 Y112.37 F3300
G1 X110.05 Y129.52 E738.599 F1200
G1 X110.67 F3300
G1 X127.2 Y112.99 E739.454 F1200
G1 Y113.61 F3300
G1 X111.29 Y129.52 E740.277 F1200
G1 X111.92 F3300
G1 X127.2 Y114.23 E741.068 F1200
G1 Y114.86 F3300
G1 X112.54 Y129.52 E741.827 F1200
G1 X113.16 F3300
G1 X127.2 Y115.48 E742.553 F1200
G1 Y116.1 F3300
G1 X113.78 Y129.52 E743.247 F1200
G1 X114.4 F3300
G1 X127.2 Y116.72 E743.909 F1200
G1 Y117.35 F3300
G1 X115.03 Y129.52 E744.539 F1200
G1 X115.65 F3300
G1 X127.2 Y117.97 E745.137 F1200
G1 Y118.59 F3300
G1 X116.27 Y129.52 E745.702 F1200
G1 X116.89 F3300
G1 X127.2 Y119.21 E746.236 F1200
G1 Y119.83 F3300
G1 X117.52 Y129.52 E746.737 F1200
G1 X118.14 F3300
G1 X127.2 Y120.46 E747.206 F1200
G1 Y121.08 F3300
G1 X118.76 Y129.52 E747.643 F1200
G1 X119.38 F3300
G1 X127.2 Y121.7 E748.047 F1200
G1 Y122.32 F3300
G1 X120 Y129.52 E748.419 F1200
G1 X120.63 F3300
G1 X127.2 Y122.95 E748.759 F1200
G1 Y123.57 F3300
G1 X121.25 Y129.52 E749.067 F1200
G1 X121.87 F3300
G1 X127.2 Y124.19 E749.343 F1200
G1 Y124.81 F3300
G1 X122.49 Y129.52 E749.587 F1200
G1 X123.12 F3300
G1 X127.2 Y125.44 E749.798 F1200
G1 Y126.06 F3300
G1 X123.74 Y129.52 E749.977 F1200
G1 X124.36 F3300
G1 X127.2 Y126.68 E750.124 F1200
G1 Y127.3 F3300
G1 X124.98 Y129.52 E750.239 F1200
G1 X125.6 F3300
G1 X127.2 Y127.92 E750.321 F1200
G1 Y128.55 F3300
G1 X126.23 Y129.52 E750.372 F1200
G1 X126.85 F3300
G1 X127.2 Y129.17 E750.39 F1200
G1 E740.89 F1800
G1 Z0.5
G1 X122.81 Y47.07 F3300
G1 Z0.2
G1 E750.39 F1800
G1 X40.36 Y129.52 E754.656 F1200
G1 X40.98 F3300
G1 X127.2 Y43.3 E759.117 F1200
G1 Y43.92 F3300
G1 X41.6 Y129.52 E763.546 F1200
G1 X42.22 F3300
G1 X127.2 Y44.54 E767.943 F1200
G1 Y35.21 F3300
G1 X116.82 Y45.58 E768.48 F1200
G1 Y44.96 F3300
G1 X127.2 Y34.59 E769.017 F1200
G1 Y33.96 F3300
G1 X116.82 Y44.34 E769.553 F1200
G1 Y43.72 F3300
G1 X127.2 Y33.34 E770.09 F1200
G1 Y32.72 F3300
G1 X116.82 Y43.1 E770.627 F1200
G1 Y42.47 F3300
G1 X127.2 Y32.1 E771.164 F1200
G1 Y31.48 F3300
G1 X116.82 Y41.85 E771.701 F1200
G1 Y41.23 F3300
G1 X127.2 Y30.85 E772.238 F1200
G1 Y30.23 F3300
G1 X116.82 Y40.61 E772.775 F1200
G1 Y39.98 F3300
G1 X127.2 Y29.61 E773.311 F1200
G1 X126.58 F3300
G1 X116.82 Y39.36 E773.816 F1200
G1 Y38.74 F3300
G1 X125.95 Y29.61 E774.289 F1200
G1 X125.33 F3300
G1 X116.82 Y38.12 E774.729 F1200
G1 Y37.5 F3300
G1 X124.71 Y29.61 E775.137 F1200
G1 X124.09 F3300
G1 X116.75 Y36.94 E775.517 F1200
G1 X116.65 Y36.43 F3300
G1 X123.47 Y29.61 E775.87 F1200
G1 X122.84 F3300
G1 X116.49 Y35.96 E776.198 F1200
G1 X116.3 Y35.53 F3300
G1 X122.22 Y29.61 E776.505 F1200
G1 X121.6 F3300
G1 X116.06 Y35.14 E776.791 F1200
G1 X115.82 Y34.76 F3300
G1 X120.98 Y29.61 E777.057 F1200
G1 X120.35 F3300
G1 X115.52 Y34.45 E777.308 F1200
G1 X115.21 Y34.14 F3300
G1 X119.73 Y29.61 E777.542 F1200
G1 X119.11 F3300
G1 X114.85 Y33.87 E777.762 F1200
G1 X114.47 Y33.63 F3300
G1 X118.49 Y29.61 E777.97 F1200
G1 X117.87 F3300
G1 X114.07 Y33.41 E778.167 F1200
G1 X113.61 Y33.25 F3300
G1 X117.24 Y29.61 E778.355 F1200
G1 X116.62 F3300
G1 X113.13 Y33.1 E778.536 F1200
G1 X112.57 Y33.04 F3300
G1 X116 Y29.61 E778.713 F1200
G1 X115.38 F3300
G1 X111.99 Y33 E778.889 F1200
G1 X111.36 F3300
G1 X114.75 Y29.61 E779.064 F1200
G1 X114.13 F3300
G1 X110.74 Y33 E779.239 F1200
G1 X110.12 F3300
G1 X113.51 Y29.61 E779.415 F1200
G1 X112.89 F3300
G1 X109.5 Y33 E779.59 F1200
G1 X108.87 F3300
G1 X112.27 Y29.61 E779.766 F1200
G1 X111.64 F3300
G1 X108.25 Y33 E779.941 F1200
G1 X107.63 F3300
G1 X111.02 Y29.61 E780.117 F1200
G1 X110.4 F3300
G1 X107.01 Y33 E780.292 F1200
G1 X106.39 F3300
G1 X109.78 Y29.61 E780.467 F1200
G1 X109.15 F3300
G1 X105.76 Y33 E780.643 F1200
G1 X105.14 F3300
G1 X108.53 Y29.61 E780.818 F1200
G1 X107.91 F3300
G1 X104.52 Y33 E780.994 F1200
G1 X103.9 F3300
G1 X107.29 Y29.61 E781.169 F1200
G1 X106.66 F3300
G1 X103.27 Y33 E781.345 F1200
G1 X102.65 F3300
G1 X106.04 Y29.61 E781.52 F1200
G1 X105.42 F3300
G1 X102.03 Y33 E781.696 F1200
G1 X101.41 F3300
G1 X104.8 Y29.61 E781.871 F1200
G1 X104.18 F3300
G1 X100.79 Y33 E782.046 F1200
G1 X100.16 F3300
G1 X103.55 Y29.61 E782.222 F1200
G1 X102.93 F3300
G1 X99.54 Y33 E782.397 F1200
G1 X98.92 F3300
G1 X102.31 Y29.61 E782.573 F1200
G1 X101.69 F3300
G1 X98.3 Y33 E782.748 F1200
G1 X97.67 F3300
G1 X101.06 Y29.61 E782.924 F1200
G1 X100.44 F3300
G1 X97.05 Y33 E783.099 F1200
G1 X96.43 F3300
G1 X99.82 Y29.61 E783.275 F1200
G1 X99.2 F3300
G1 X95.81 Y33 E783.45 F1200
G1 X95.19 F3300
G1 X98.58 Y29.61 E783.625 F1200
G1 X97.95 F3300
G1 X94.56 Y33 E783.801 F1200
G1 X93.94 F3300
G1 X97.33 Y29.61 E783.976 F1200
G1 X96.71 F3300
G1 X93.32 Y33 E784.152 F1200
G1 X92.7 F3300
G1 X96.09 Y29.61 E784.327 F1200
G1 X95.46 F3300
G1 X92.07 Y33 E784.503 F1200
G1 X91.44 Y33.01 F3300
G1 X94.84 Y29.61 E784.678 F1200
G1 X94.22 F3300
G1 X90.74 Y33.09 E784.858 F1200
G1 X89.85 Y33.35 F3300
G1 X93.6 Y29.61 E785.052 F1200
G1 E775.552 F1800
G1 Z0.5
G1 X78.89 Y43.69 F3300
G1 Z0.2
G1 E785.052 F1800
G1 X23.48 Y99.11 E787.919 F1200
G1 Y99.73 F3300
G1 X78.8 Y44.41 E790.781 F1200
G1 X78.88 Y44.95 F3300
G1 X23.48 Y100.35 E793.648 F1200
G1 Y100.97 F3300
G1 X79.03 Y45.42 E796.522 F1200
G1 X79.23 Y45.85 F3300
G1 X23.48 Y101.59 E799.406 F1200
G1 Y102.22 F3300
G1 X79.5 Y46.2 E802.305 F1200
G1 X79.82 Y46.5 F3300
G1 X23.48 Y102.84 E805.22 F1200
G1 Y103.46 F3300
G1 X80.17 Y46.77 E808.153 F1200
G1 X80.61 Y46.95 F3300
G1 X23.48 Y104.08 E811.109 F1200
G1 Y104.71 F3300
G1 X81.1 Y47.09 E814.091 F1200
G1 X81.67 Y47.13 F3300
G1 X23.48 Y105.33 E817.102 F1200
G1 Y105.95 F3300
G1 X82.44 Y46.99 E820.152 F1200
G1 X70 Y46.98 F3300
G1 X23.48 Y93.5 E822.559 F1200
G1 Y92.88 F3300
G1 X61.01 Y55.35 E824.501 F1200
G1 X60.07 Y55.67 F3300
G1 X23.48 Y92.26 E826.395 F1200
G1 Y91.64 F3300
G1 X59.37 Y55.75 E828.252 F1200
G1 X58.72 Y55.77 F3300
G1 X23.48 Y91.02 E830.075 F1200
G1 Y90.39 F3300
G1 X58.1 Y55.77 E831.867 F1200
G1 X57.48 F3300
G1 X23.48 Y89.77 E833.626 F1200
G1 Y89.15 F3300
G1 X56.86 Y55.77 E835.353 F1200
G1 X56.23 F3300
G1 X23.48 Y88.53 E837.048 F1200
G1 Y87.9 F3300
G1 X55.61 Y55.77 E838.71 F1200
G1 X54.99 F3300
G1 X23.48 Y87.28 E840.341 F1200
G1 Y86.66 F3300
G1 X54.37 Y55.77 E841.939 F1200
G1 X53.75 F3300
G1 X23.48 Y86.04 E843.505 F1200
G1 Y85.42 F3300
G1 X53.12 Y55.77 E845.039 F1200
G1 X52.5 F3300
G1 X23.48 Y84.79 E846.541 F1200
G1 Y84.17 F3300
G1 X51.88 Y55.77 E848.01 F1200
G1 X51.26 F3300
G1 X23.48 Y83.55 E849.447 F1200
G1 Y82.93 F3300
G1 X50.63 Y55.77 E850.852 F1200
G1 X50.01 F3300
G1 X23.48 Y82.3 E852.225 F1200
G1 Y81.68 F3300
G1 X49.39 Y55.77 E853.566 F1200
G1 X48.77 F3300
G1 X23.48 Y81.06 E854.874 F1200
G1 Y80.44 F3300
G1 X48.15 Y55.77 E856.151 F1200
G1 X47.52 F3300
G1 X23.48 Y79.82 E857.395 F1200
G1 Y79.19 F3300
G1 X46.9 Y55.77 E858.607 F1200
G1 X46.28 F3300
G1 X23.48 Y78.57 E859.787 F1200
G1 Y77.95 F3300
G1 X45.66 Y55.77 E860.934 F1200
G1 X45.03 F3300
G1 X23.48 Y77.33 E862.049 F1200
G1 Y76.7 F3300
G1 X44.41 Y55.77 E863.133 F1200
G1 X43.79 F3300
G1 X23.48 Y76.08 E864.183 F1200
G1 Y75.46 F3300
G1 X43.17 Y55.77 E865.202 F1200
G1 X42.55 F3300
G1 X23.48 Y74.84 E866.189 F1200
G1 Y74.22 F3300
G1 X41.92 Y55.77 E867.143 F1200
G1 X41.3 F3300
G1 X23.48 Y73.59 E868.065 F1200
G1 Y72.97 F3300
G1 X40.68 Y55.77 E868.955 F1200
G1 X40.06 F3300
G1 X23.48 Y72.35 E869.813 F1200
G1 Y71.73 F3300
G1 X39.43 Y55.77 E870.639 F1200
G1 X38.81 F3300
G1 X23.48 Y71.1 E871.432 F1200
G1 Y70.48 F3300
G1 X38.21 Y55.75 E872.194 F1200
G1 X37.65 Y55.68 F3300
G1 X23.48 Y69.86 E872.928 F1200
G1 Y69.24 F3300
G1 X37.16 Y55.55 E873.636 F1200
G1 X36.7 Y55.39 F3300
G1 X23.48 Y68.61 E874.32 F1200
G1 Y67.99 F3300
G1 X36.28 Y55.19 E874.982 F1200
G1 X35.9 Y54.95 F3300
G1 X23.48 Y67.37 E875.625 F1200
G1 Y66.75 F3300
G1 X35.53 Y54.69 E876.249 F1200
G1 X35.22 Y54.38 F3300
G1 X23.48 Y66.13 E876.856 F1200
G1 Y65.5 F3300
G1 X34.91 Y54.07 E877.448 F1200
G1 X34.66 Y53.7 F3300
G1 X23.48 Y64.88 E878.026 F1200
G1 Y64.26 F3300
G1 X34.42 Y53.32 E878.592 F1200
G1 X34.22 Y52.89 F3300
G1 X23.48 Y63.64 E879.148 F1200
G1 Y63.01 F3300
G1 X34.06 Y52.43 E879.696 F1200
G1 X33.94 Y51.93 F3300
G1 X23.48 Y62.39 E880.237 F1200
G1 Y61.77 F3300
G1 X33.87 Y51.37 E880.775 F1200
G1 X33.85 Y50.77 F3300
G1 X23.48 Y61.15 E881.311 F1200
G1 Y60.53 F3300
G1 X33.85 Y50.15 E881.848 F1200
G1 Y49.53 F3300
G1 X23.48 Y59.9 E882.385 F1200
G1 Y59.28 F3300
G1 X33.85 Y48.91 E882.922 F1200
G1 Y48.28 F3300
G1 X23.48 Y58.66 E883.459 F1200
G1 Y58.04 F3300
G1 X33.85 Y47.66 E883.996 F1200
G1 Y47.04 F3300
G1 X23.48 Y57.41 E884.532 F1200
G1 Y56.79 F3300
G1 X33.85 Y46.42 E885.069 F1200
G1 Y45.79 F3300
G1 X23.48 Y56.17 E885.606 F1200
G1 Y55.55 F3300
G1 X33.85 Y45.17 E886.143 F1200
G1 Y44.55 F3300
G1 X23.48 Y54.93 E886.68 F1200
G1 Y54.3 F3300
G1 X33.85 Y43.93 E887.217 F1200
G1 Y43.31 F3300
G1 X23.48 Y53.68 E887.754 F1200
G1 Y53.06 F3300
G1 X29.7 Y46.84 E888.075 F1200
G1 X28.81 Y47.1 F3300
G1 X23.48 Y52.44 E888.351 F1200
G1 Y51.81 F3300
G1 X28.19 Y47.11 E888.595 F1200
G1 X27.66 Y47.01 F3300
G1 X23.48 Y51.19 E888.811 F1200
G1 Y50.57 F3300
G1 X27.22 Y46.83 E889.005 F1200
G1 X26.84 Y46.58 F3300
G1 X23.48 Y49.95 E889.179 F1200
G1 Y49.32 F3300
G1 X26.5 Y46.3 E889.335 F1200
G1 X26.23 Y45.95 F3300
G1 X23.48 Y48.7 E889.477 F1200
G1 Y48.08 F3300
G1 X26 Y45.56 E889.608 F1200
G1 X25.82 Y45.12 F3300
G1 X23.48 Y47.46 E889.729 F1200
G1 Y46.84 F3300
G1 X25.74 Y44.58 E889.846 F1200
G1 X25.78 Y43.92 F3300
G1 X23.48 Y46.21 E889.965 F1200
G1 Y45.59 F3300
G1 X26.15 Y42.92 E890.103 F1200
G1 X27.02 Y42.05 F3300
G1 X39.46 Y29.61 E890.747 F1200
G1 X38.84 F3300
G1 X23.48 Y44.97 E891.542 F1200
G1 Y44.35 F3300
G1 X38.22 Y29.61 E892.304 F1200
G1 X37.6 F3300
G1 X23.48 Y43.72 E893.035 F1200
G1 Y43.1 F3300
G1 X36.97 Y29.61 E893.733 F1200
G1 X36.35 F3300
G1 X23.48 Y42.48 E894.399 F1200
G1 Y41.86 F3300
G1 X35.73 Y29.61 E895.033 F1200
G1 X35.11 F3300
G1 X23.48 Y41.24 E895.634 F1200
G1 Y40.61 F3300
G1 X34.48 Y29.61 E896.204 F1200
G1 X33.86 F3300
G1 X23.48 Y39.99 E896.741 F1200
G1 Y39.37 F3300
G1 X33.24 Y29.61 E897.246 F1200
G1 X32.62 F3300
G1 X23.48 Y38.75 E897.719 F1200
G1 Y38.12 F3300
G1 X32 Y29.61 E898.16 F1200
G1 X31.37 F3300
G1 X23.48 Y37.5 E898.568 F1200
G1 Y36.88 F3300
G1 X30.75 Y29.61 E898.944 F1200
G1 X30.13 F3300
G1 X23.48 Y36.26 E899.288 F1200
G1 Y35.64 F3300
G1 X29.51 Y29.61 E899.6 F1200
G1 X28.88 F3300
G1 X23.48 Y35.01 E899.88 F1200
G1 Y34.39 F3300
G1 X28.26 Y29.61 E900.127 F1200
G1 X27.64 F3300
G1 X23.48 Y33.77 E900.343 F1200
G1 Y33.15 F3300
G1 X27.02 Y29.61 E900.526 F1200
G1 X26.39 F3300
G1 X23.48 Y32.52 E900.677 F1200
G1 Y31.9 F3300
G1 X25.77 Y29.61 E900.795 F1200
G1 X25.15 F3300
G1 X23.48 Y31.28 E900.882 F1200
G1 Y30.66 F3300
G1 X24.53 Y29.61 E900.936 F1200
G1 X23.91 F3300
G1 X23.48 Y30.04 E900.958 F1200
G1 X33.85 Y41.44 F3300
G1 X31.2 Y44.09 E901.096 F1200
G1 X31.19 Y44.72 F3300
G1 X33.85 Y42.06 E901.233 F1200
G1 Y42.68 F3300
G1 X30.94 Y45.6 E901.384 F1200
G1 E891.884 F1800
G1 Z0.5
G1 X34.13 Y50.79 F3300
G1 X35.53 Y53.59
G1 X38.51 Y55.28
G1 X59.96 Y55.04
G1 X62.44 Y52.99
G1 X63.26 Y49.79
G1 X63.74 Y46.4
G1 Z0.2
G1 E901.384 F1800
G1 X66.44 Y43.69 E901.524 F1200
G1 X66.35 Y44.41 F3300
G1 X63.74 Y47.02 E901.66 F1200
G1 Y47.65 F3300
G1 X66.43 Y44.95 E901.799 F1200
G1 X66.58 Y45.42 F3300
G1 X63.74 Y48.27 E901.946 F1200
G1 Y48.89 F3300
G1 X66.78 Y45.85 E902.104 F1200
G1 X67.05 Y46.2 F3300
G1 X63.74 Y49.51 E902.276 F1200
G1 Y50.14 F3300
G1 X67.37 Y46.5 E902.464 F1200
G1 X67.73 Y46.77 F3300
G1 X63.74 Y50.76 E902.67 F1200
G1 X63.71 Y51.4 F3300
G1 X68.16 Y46.95 E902.9 F1200
G1 X68.65 Y47.09 F3300
G1 X63.64 Y52.1 E903.16 F1200
G1 X63.32 Y53.04 F3300
G1 X69.23 Y47.13 E903.466 F1200
; Layer Change GCode
; LAYER:1
; LAYER_HEIGHT:0.2
; TYPE:FILL
G1 X69.12 Y46.66 Z0.4 F3300
; TYPE:WALL-INNER
G1 X68.53 Y46.59 E903.485 F1500
G1 X67.98 Y46.36 E903.505
G1 X67.51 Y46 E903.525
G1 X67.14 Y45.52 E903.545
G1 X66.92 Y44.98 E903.565
G1 X66.84 Y44.39 E903.584
G1 X66.92 Y43.8 E903.604
G1 X67.14 Y43.25 E903.624
G1 X67.51 Y42.77 E903.644
G1 X67.98 Y42.41 E903.664
G1 X68.53 Y42.19 E903.683
G1 X69.12 Y42.11 E903.703
G1 X69.71 Y42.19 E903.723
G1 X70.26 Y42.41 E903.743
G1 X70.73 Y42.77 E903.762
G1 X71.09 Y43.25 E903.782
G1 X71.32 Y43.8 E903.802
G1 X71.4 Y44.39 E903.822
G1 X71.32 Y44.97 E903.842
G1 X71.09 Y45.52 E903.861
G1 X70.73 Y46 E903.881
G1 X70.26 Y46.36 E903.901
G1 X69.71 Y46.59 E903.921
G1 X69.16 Y46.66 E903.939
G1 X69.12
G1 Y46.26 F3300
G1 X68.63 Y46.2 E903.955 F1500
G1 X68.18 Y46.01 E903.972
G1 X67.79 Y45.71 E903.988
G1 X67.49 Y45.32 E904.004
G1 X67.31 Y44.87 E904.021
G1 X67.24 Y44.39 E904.037
G1 X67.31 Y43.9 E904.053
G1 X67.49 Y43.45 E904.069
G1 X67.79 Y43.06 E904.086
G1 X68.18 Y42.76 E904.102
G1 X68.63 Y42.58 E904.118
G1 X69.12 Y42.51 E904.135
G1 X69.6 Y42.58 E904.151
G1 X70.05 Y42.76 E904.167
G1 X70.44 Y43.06 E904.183
G1 X70.74 Y43.45 E904.2
G1 X70.93 Y43.9 E904.216
G1 X70.99 Y44.39 E904.232
G1 X70.93 Y44.87 E904.248
G1 X70.74 Y45.32 E904.265
G1 X70.44 Y45.71 E904.281
G1 X70.05 Y46.01 E904.297
G1 X69.6 Y46.2 E904.314
G1 X69.16 Y46.25 E904.329
G1 X69.12 Y46.26
G1 Y45.86 F3300
; TYPE:WALL-OUTER
G1 X68.74 Y45.81 E904.341 F2100
G1 X68.38 Y45.66 E904.354
G1 X68.08 Y45.43 E904.367
G1 X67.84 Y45.12 E904.38
G1 X67.7 Y44.77 E904.392
G1 X67.64 Y44.39 E904.405
G1 X67.7 Y44.01 E904.418
G1 X67.84 Y43.65 E904.431
G1 X68.08 Y43.34 E904.444
G1 X68.38 Y43.11 E904.456
G1 X68.74 Y42.96 E904.469
G1 X69.12 Y42.91 E904.482
G1 X69.5 Y42.96 E904.495
G1 X69.85 Y43.11 E904.508
G1 X70.16 Y43.34 E904.52
G1 X70.39 Y43.65 E904.533
G1 X70.54 Y44.01 E904.546
G1 X70.59 Y44.39 E904.559
G1 X70.54 Y44.77 E904.571
G1 X70.39 Y45.12 E904.584
G1 X70.16 Y45.43 E904.597
G1 X69.85 Y45.66 E904.61
G1 X69.5 Y45.81 E904.623
G1 X69.16 Y45.85 E904.634
G1 X69.12 Y45.86
G1 X68.74 Y45.81
G1 X68.38 Y45.66
G1 X68.08 Y45.43
G1 X67.84 Y45.12
G1 X67.7 Y44.77
G1 X67.64 Y44.39
G1 X67.7 Y44.01
G1 X67.81 Y43.72
G1 X69.12 Y46.66 F3300
G1 X66.19 Y48.92
G1 X63.26 Y51.17
; TYPE:WALL-INNER
G1 X63.16 Y52.05 E904.663 F1500
G1 X62.85 Y52.93 E904.694
G1 X62.35 Y53.72 E904.726
G1 X61.69 Y54.39 E904.757
G1 X60.9 Y54.88 E904.788
G1 X60.01 Y55.19 E904.819
G1 X59.14 Y55.29 E904.848
G1 X55 E904.986
G1 X50.86 E905.123
G1 X46.73 E905.261
G1 X42.59 E905.398
G1 X38.45 E905.536
G1 X37.58 Y55.19 E905.566
G1 X36.7 Y54.88 E905.597
G1 X35.9 Y54.39 E905.628
G1 X35.24 Y53.72 E905.659
G1 X34.74 Y52.93 E905.69
G1 X34.43 Y52.05 E905.721
G1 X34.33 Y51.17 E905.751
G1 Y46.65 E905.901
G1 Y42.12 E906.052
G1 Y37.6 E906.202
G1 X34.43 Y36.72 E906.231
G1 X34.74 Y35.84 E906.262
G1 X35.24 Y35.05 E906.294
G1 X35.9 Y34.39 E906.325
G1 X36.7 Y33.89 E906.356
G1 X37.58 Y33.58 E906.387
G1 X38.45 Y33.48 E906.416
G1 X42.59 E906.554
G1 X46.73 E906.691
G1 X50.86 E906.829
G1 X55 E906.966
G1 X59.14 E907.104
G1 X60.01 Y33.58 E907.134
G1 X60.9 Y33.89 E907.165
G1 X61.69 Y34.39 E907.196
G1 X62.35 Y35.05 E907.227
G1 X62.85 Y35.84 E907.258
G1 X63.16 Y36.72 E907.289
G1 X63.26 Y37.6 E907.319
G1 Y42.11 E907.469
G1 Y46.62 E907.619
G1 Y51.13 E907.769
G1 Y51.17
G1 X62.86 Y51.15 F3300
G1 X62.77 Y51.96 E907.796 F1500
G1 X62.49 Y52.76 E907.824
G1 X62.04 Y53.47 E907.852
G1 X61.44 Y54.07 E907.88
G1 X60.72 Y54.52 E907.908
G1 X59.92 Y54.8 E907.936
G1 X59.12 Y54.89 E907.964
G1 X54.99 E908.101
G1 X50.86 E908.238
G1 X46.74 E908.376
G1 X42.61 E908.513
G1 X38.48 E908.65
G1 X37.67 Y54.8 E908.677
G1 X36.87 Y54.52 E908.705
G1 X36.15 Y54.07 E908.733
G1 X35.56 Y53.47 E908.761
G1 X35.11 Y52.76 E908.79
G1 X34.83 Y51.96 E908.818
G1 X34.73 Y51.15 E908.845
G1 Y46.64 E908.995
G1 Y42.13 E909.145
G1 Y37.62 E909.295
G1 X34.83 Y36.81 E909.322
G1 X35.11 Y36.02 E909.35
G1 X35.56 Y35.3 E909.378
G1 X36.15 Y34.7 E909.406
G1 X36.87 Y34.25 E909.434
G1 X37.67 Y33.97 E909.463
G1 X38.48 Y33.88 E909.49
G1 X42.61 E909.627
G1 X46.74 E909.764
G1 X50.86 E909.902
G1 X54.99 E910.039
G1 X59.12 E910.176
G1 X59.93 Y33.97 E910.203
G1 X60.72 Y34.25 E910.231
G1 X61.44 Y34.7 E910.259
G1 X62.04 Y35.3 E910.288
G1 X62.49 Y36.02 E910.316
G1 X62.77 Y36.81 E910.344
G1 X62.86 Y37.62 E910.371
G1 Y42.12 E910.52
G1 Y46.61 E910.67
G1 Y51.11 E910.819
G1 Y51.15
G1 X62.38 Y51.87 F3300
; TYPE:WALL-OUTER
G1 X62.13 Y52.58 E910.845 F2100
G1 X61.72 Y53.22 E910.87
G1 X61.19 Y53.76 E910.895
G1 X60.55 Y54.16 E910.92
G1 X59.84 Y54.41 E910.945
G1 X59.09 Y54.49 E910.97
G1 X54.97 E911.107
G1 X50.85 E911.244
G1 X46.74 E911.381
G1 X42.62 E911.518
G1 X38.5 E911.655
G1 X37.76 Y54.41 E911.68
G1 X37.05 Y54.16 E911.705
G1 X36.41 Y53.76 E911.73
G1 X35.87 Y53.22 E911.755
G1 X35.47 Y52.58 E911.78
G1 X35.22 Y51.87 E911.805
G1 X35.13 Y51.13 E911.83
G1 Y46.63 E911.98
G1 Y42.14 E912.129
G1 Y37.64 E912.279
G1 X35.22 Y36.9 E912.304
G1 X35.47 Y36.19 E912.329
G1 X35.87 Y35.55 E912.354
G1 X36.41 Y35.02 E912.379
G1 X37.05 Y34.61 E912.404
G1 X37.76 Y34.36 E912.429
G1 X38.5 Y34.28 E912.454
G1 X42.62 E912.591
G1 X46.74 E912.728
G1 X50.85 E912.865
G1 X54.97 E913.002
G1 X59.09 E913.139
G1 X59.84 Y34.36 E913.164
G1 X60.55 Y34.61 E913.189
G1 X61.19 Y35.02 E913.214
G1 X61.72 Y35.55 E913.239
G1 X62.13 Y36.19 E913.264
G1 X62.38 Y36.9 E913.29
G1 X62.46 Y37.64 E913.314
G1 Y42.14 E913.464
G1 Y46.63 E913.613
G1 Y51.13 E913.763
G1 X62.38 Y51.83 E913.786
G1 Y51.87
G1 X62.13 Y52.58
G1 X61.72 Y53.22
G1 X61.19 Y53.76
G1 X60.57 Y54.15
G1 X63.16 Y52.05 F3300
G1 E909.036 F1800
G1 E904.286
G1 Z0.7
G1 X61.06 Y54.58 F3300
G1 X57.27 Y55.19
G1 X52.37 Y55.13
G1 X47.46 Y55.08
G1 X42.56 Y55.02
G1 X37.65 Y54.96
G1 X36.08 Y54.05
G1 X34.61 Y52.11
G1 X33.64 Y48.78
G1 X31.51 Y44.85
G1 X29.38 Y40.92
G1 X27.26 Y36.99
G1 X25.13 Y33.06
G1 X23 Y29.13
; TYPE:WALL-INNER
G1 Z0.4
G1 E909.036 F1800
G1 E913.786
G1 X27.98 E913.952 F1500
G1 X32.97 E914.118
G1 X37.95 E914.283
G1 X42.94 E914.449
G1 X47.92 E914.615
G1 X52.91 E914.781
G1 X57.89 E914.947
G1 X62.88 E915.112
G1 X67.86 E915.278
G1 X72.85 E915.444
G1 X77.83 E915.61
G1 X82.82 E915.776
G1 X87.8 E915.942
G1 X92.79 E916.107
G1 X97.77 E916.273
G1 X102.76 E916.439
G1 X107.74 E916.605
G1 X112.73 E916.771
G1 X117.71 E916.936
G1 X122.7 E917.102
G1 X127.68 E917.268
G1 Y33.93 E917.428
G1 Y38.74 E917.588
G1 Y43.54 E917.747
G1 Y48.34 E917.907
G1 Y53.15 E918.067
G1 Y57.95 E918.227
G1 Y62.75 E918.386
G1 Y67.56 E918.546
G1 Y72.36 E918.706
G1 Y77.16 E918.866
G1 Y81.97 E919.025
G1 Y86.77 E919.185
G1 Y91.57 E919.345
G1 Y96.38 E919.505
G1 Y101.18 E919.664
G1 Y105.98 E919.824
G1 Y110.79 E919.984
G1 Y115.59 E920.144
G1 Y120.39 E920.303
G1 Y125.2 E920.463
G1 Y130 E920.623
G1 X122.7 E920.789
G1 X117.71 E920.955
G1 X112.73 E921.12
G1 X107.74 E921.286
G1 X102.76 E921.452
G1 X97.77 E921.618
G1 X92.79 E921.784
G1 X87.8 E921.949
G1 X82.82 E922.115
G1 X77.83 E922.281
G1 X72.85 E922.447
G1 X67.86 E922.613
G1 X62.88 E922.779
G1 X57.89 E922.944
G1 X52.91 E923.11
G1 X47.92 E923.276
G1 X42.94 E923.442
G1 X37.95 E923.608
G1 X32.97 E923.773
G1 X27.98 E923.939
G1 X23 E924.105
G1 Y125.2 E924.265
G1 Y120.4 E924.424
G1 Y115.6 E924.584
G1 Y110.79 E924.744
G1 Y105.99 E924.903
G1 Y101.19 E925.063
G1 Y96.39 E925.223
G1 Y91.59 E925.382
G1 Y86.79 E925.542
G1 Y81.99 E925.702
G1 Y77.18 E925.861
G1 Y72.38 E926.021
G1 Y67.58 E926.181
G1 Y62.78 E926.34
G1 Y57.98 E926.5
G1 Y53.18 E926.66
G1 Y48.38 E926.819
G1 Y43.57 E926.979
G1 Y38.77 E927.139
G1 Y33.97 E927.298
G1 Y29.17 E927.458
G1 Y29.13
G1 X22.6 Y28.73 F3300
G1 X27.39 E927.618 F1500
G1 X32.19 E927.777
G1 X36.98 E927.937
G1 X41.78 E928.096
G1 X46.57 E928.256
G1 X51.37 E928.415
G1 X56.16 E928.575
G1 X60.96 E928.734
G1 X65.75 E928.894
G1 X70.55 E929.053
G1 X75.34 E929.213
G1 X80.13 E929.372
G1 X84.93 E929.532
G1 X89.72 E929.691
G1 X94.52 E929.851
G1 X99.31 E930.01
G1 X104.11 E930.17
G1 X108.9 E930.329
G1 X113.7 E930.489
G1 X118.49 E930.648
G1 X123.29 E930.808
G1 X128.08 E930.967
G1 Y33.57 E931.128
G1 Y38.41 E931.289
G1 Y43.25 E931.45
G1 Y48.1 E931.611
G1 Y52.94 E931.772
G1 Y57.78 E931.933
G1 Y62.62 E932.094
G1 Y67.46 E932.255
G1 Y72.3 E932.416
G1 Y77.14 E932.577
G1 Y81.99 E932.738
G1 Y86.83 E932.899
G1 Y91.67 E933.06
G1 Y96.51 E933.221
G1 Y101.35 E933.382
G1 Y106.19 E933.543
G1 Y111.03 E933.704
G1 Y115.88 E933.865
G1 Y120.72 E934.026
G1 Y125.56 E934.187
G1 Y130.4 E934.348
G1 X123.29 E934.508
G1 X118.49 E934.667
G1 X113.7 E934.827
G1 X108.9 E934.986
G1 X104.11 E935.146
G1 X99.31 E935.305
G1 X94.52 E935.465
G1 X89.72 E935.624
G1 X84.93 E935.784
G1 X80.13 E935.943
G1 X75.34 E936.103
G1 X70.55 E936.262
G1 X65.75 E936.422
G1 X60.96 E936.581
G1 X56.16 E936.741
G1 X51.37 E936.9
G1 X46.57 E937.06
G1 X41.78 E937.219
G1 X36.98 E937.379
G1 X32.19 E937.538
G1 X27.39 E937.698
G1 X22.6 E937.857
G1 Y125.56 E938.018
G1 Y120.72 E938.179
G1 Y115.88 E938.34
G1 Y111.04 E938.501
G1 Y106.2 E938.662
G1 Y101.36 E938.823
G1 Y96.52 E938.984
G1 Y91.68 E939.145
G1 Y86.84 E939.306
G1 Y82 E939.467
G1 Y77.17 E939.627
G1 Y72.33 E939.788
G1 Y67.49 E939.949
G1 Y62.65 E940.11
G1 Y57.81 E940.271
G1 Y52.97 E940.432
G1 Y48.13 E940.593
G1 Y43.29 E940.754
G1 Y38.45 E940.915
G1 Y33.61 E941.076
G1 Y28.77 E941.237
G1 Y28.73
G1 X22.2 Y28.33 F3300
; TYPE:WALL-OUTER
G1 X27.03 E941.398 F2100
G1 X31.86 E941.558
G1 X36.69 E941.719
G1 X41.52 E941.88
G1 X46.35 E942.04
G1 X51.19 E942.201
G1 X56.02 E942.362
G1 X60.85 E942.522
G1 X65.68 E942.683
G1 X70.51 E942.844
G1 X75.34 E943.005
G1 X80.17 E943.165
G1 X85 E943.326
G1 X89.83 E943.487
G1 X94.66 E943.647
G1 X99.49 E943.808
G1 X104.33 E943.969
G1 X109.16 E944.129
G1 X113.99 E944.29
G1 X118.82 E944.451
G1 X123.65 E944.611
G1 X128.48 E944.772
G1 Y33.21 E944.934
G1 Y38.09 E945.097
G1 Y42.97 E945.259
G1 Y47.85 E945.421
G1 Y52.73 E945.583
G1 Y57.61 E945.746
G1 Y62.49 E945.908
G1 Y67.37 E946.07
G1 Y72.25 E946.233
G1 Y77.13 E946.395
G1 Y82 E946.557
G1 Y86.88 E946.719
G1 Y91.76 E946.882
G1 Y96.64 E947.044
G1 Y101.52 E947.206
G1 Y106.4 E947.369
G1 Y111.28 E947.531
G1 Y116.16 E947.693
G1 Y121.04 E947.855
G1 Y125.92 E948.018
G1 Y130.8 E948.18
G1 X123.65 E948.341
G1 X118.82 E948.501
G1 X113.99 E948.662
G1 X109.16 E948.823
G1 X104.33 E948.983
G1 X99.49 E949.144
G1 X94.66 E949.305
G1 X89.83 E949.465
G1 X85 E949.626
G1 X80.17 E949.787
G1 X75.34 E949.948
G1 X70.51 E950.108
G1 X65.68 E950.269
G1 X60.85 E950.43
G1 X56.02 E950.59
G1 X51.19 E950.751
G1 X46.35 E950.912
G1 X41.52 E951.072
G1 X36.69 E951.233
G1 X31.86 E951.394
G1 X27.03 E951.554
G1 X22.2 E951.715
G1 Y125.92 E951.877
G1 Y121.04 E952.039
G1 Y116.17 E952.202
G1 Y111.29 E952.364
G1 Y106.41 E952.526
G1 Y101.53 E952.688
G1 Y96.66 E952.851
G1 Y91.78 E953.013
G1 Y86.9 E953.175
G1 Y82.02 E953.337
G1 Y77.15 E953.5
G1 Y72.27 E953.662
G1 Y67.39 E953.824
G1 Y62.51 E953.986
G1 Y57.64 E954.149
G1 Y52.76 E954.311
G1 Y47.88 E954.473
G1 Y43 E954.635
G1 Y38.13 E954.798
G1 Y33.25 E954.96
G1 Y28.37 E955.122
G1 Y28.33
G1 X25.2
G1 X23 Y29.13 F3300
G1 X24.63 Y33.48
G1 X26.26 Y37.84
G1 X27.89 Y42.19
; TYPE:WALL-INNER
G1 X28.48 Y42.11 E955.142 F1500
G1 X29.07 Y42.19 E955.161
G1 X29.61 Y42.41 E955.181
G1 X30.09 Y42.77 E955.201
G1 X30.45 Y43.25 E955.221
G1 X30.68 Y43.8 E955.241
G1 X30.76 Y44.39 E955.26
G1 X30.68 Y44.98 E955.28
G1 X30.45 Y45.52 E955.3
G1 X30.09 Y46 E955.32
G1 X29.61 Y46.36 E955.34
G1 X29.07 Y46.59 E955.359
G1 X28.48 Y46.66 E955.379
G1 X27.89 Y46.59 E955.399
G1 X27.34 Y46.36 E955.419
G1 X26.87 Y46 E955.438
G1 X26.5 Y45.52 E955.458
G1 X26.28 Y44.97 E955.478
G1 X26.2 Y44.39 E955.498
G1 X26.28 Y43.8 E955.517
G1 X26.5 Y43.25 E955.537
G1 X26.87 Y42.77 E955.557
G1 X27.34 Y42.41 E955.577
G1 X27.85 Y42.2 E955.595
G1 X27.89 Y42.19
G1 X27.99 Y42.58 F3300
G1 X28.48 Y42.51 E955.612 F1500
G1 X28.96 Y42.58 E955.628
G1 X29.41 Y42.76 E955.644
G1 X29.8 Y43.06 E955.66
G1 X30.1 Y43.45 E955.677
G1 X30.29 Y43.9 E955.693
G1 X30.35 Y44.39 E955.709
G1 X30.29 Y44.87 E955.726
G1 X30.1 Y45.32 E955.742
G1 X29.8 Y45.71 E955.758
G1 X29.41 Y46.01 E955.774
G1 X28.96 Y46.2 E955.791
G1 X28.48 Y46.26 E955.807
G1 X27.99 Y46.2 E955.823
G1 X27.54 Y46.01 E955.839
G1 X27.15 Y45.71 E955.856
G1 X26.85 Y45.32 E955.872
G1 X26.67 Y44.87 E955.888
G1 X26.6 Y44.39 E955.905
G1 X26.67 Y43.9 E955.921
G1 X26.85 Y43.45 E955.937
G1 X27.15 Y43.06 E955.953
G1 X27.54 Y42.76 E955.97
G1 X27.95 Y42.59 E955.985
G1 X27.99 Y42.58
G1 X28.1 Y42.96 F3300
; TYPE:WALL-OUTER
G1 X28.48 Y42.91 E955.997 F2100
G1 X28.86 Y42.96 E956.01
G1 X29.21 Y43.11 E956.023
G1 X29.52 Y43.34 E956.036
G1 X29.75 Y43.65 E956.049
G1 X29.9 Y44.01 E956.061
G1 X29.95 Y44.39 E956.074
G1 X29.9 Y44.77 E956.087
G1 X29.75 Y45.12 E956.1
G1 X29.52 Y45.43 E956.112
G1 X29.21 Y45.66 E956.125
G1 X28.86 Y45.81 E956.138
G1 X28.48 Y45.86 E956.151
G1 X28.1 Y45.81 E956.164
G1 X27.74 Y45.66 E956.176
G1 X27.44 Y45.43 E956.189
G1 X27.2 Y45.12 E956.202
G1 X27.06 Y44.77 E956.215
G1 X27.01 Y44.39 E956.228
G1 X27.06 Y44.01 E956.24
G1 X27.2 Y43.65 E956.253
G1 X27.44 Y43.34 E956.266
G1 X27.74 Y43.11 E956.279
G1 X28.06 Y42.98 E956.29
G1 X28.1 Y42.96
G1 X28.48 Y42.91
G1 X28.86 Y42.96
G1 X29.21 Y43.11
G1 X29.52 Y43.34
G1 X29.75 Y43.65
G1 X29.9 Y44.01
G1 X29.95 Y44.39
G1 X29.91 Y44.7
G1 X27.89 Y42.19 F3300
G1 E951.54 F1800
G1 E946.79
G1 Z0.7
G1 X31.18 Y39.39 F3300
G1 X34.46 Y36.58
G1 X35.93 Y34.57
G1 X38.51 Y33.58
G1 X42.8 Y33.6
G1 X47.08 Y33.61
G1 X51.37 Y33.63
G1 X55.65 Y33.64
G1 X59.94 Y33.66
G1 X62.22 Y35.47
G1 X66.49 Y37.7
G1 X70.75 Y39.93
G1 X75.02 Y42.16
G1 X79.28 Y44.39
; TYPE:WALL-INNER
G1 Z0.4
G1 E951.54 F1800
G1 E956.29
G1 X79.36 Y43.8 E956.31 F1500
G1 X79.59 Y43.25 E956.33
G1 X79.95 Y42.77 E956.349
G1 X80.42 Y42.41 E956.369
G1 X80.97 Y42.19 E956.389
G1 X81.56 Y42.11 E956.409
G1 X82.15 Y42.19 E956.429
G1 X82.7 Y42.41 E956.448
G1 X83.17 Y42.77 E956.468
G1 X83.54 Y43.25 E956.488
G1 X83.76 Y43.8 E956.508
G1 X83.84 Y44.39 E956.527
G1 X83.76 Y44.98 E956.547
G1 X83.54 Y45.52 E956.567
G1 X83.17 Y46 E956.587
G1 X82.7 Y46.36 E956.607
G1 X82.15 Y46.59 E956.626
G1 X81.56 Y46.66 E956.646
G1 X80.97 Y46.59 E956.666
G1 X80.42 Y46.36 E956.686
G1 X79.95 Y46 E956.706
G1 X79.59 Y45.52 E956.725
G1 X79.36 Y44.97 E956.745
G1 X79.29 Y44.42 E956.764
G1 X79.28 Y44.39
G1 X79.69 F3300
G1 X79.75 Y43.9 E956.78 F1500
G1 X79.94 Y43.45 E956.796
G1 X80.24 Y43.06 E956.812
G1 X80.63 Y42.76 E956.829
G1 X81.08 Y42.58 E956.845
G1 X81.56 Y42.51 E956.861
G1 X82.05 Y42.58 E956.878
G1 X82.5 Y42.76 E956.894
G1 X82.89 Y43.06 E956.91
G1 X83.19 Y43.45 E956.926
G1 X83.37 Y43.9 E956.943
G1 X83.44 Y44.39 E956.959
G1 X83.37 Y44.87 E956.975
G1 X83.19 Y45.32 E956.991
G1 X82.89 Y45.71 E957.008
G1 X82.5 Y46.01 E957.024
G1 X82.05 Y46.2 E957.04
G1 X81.56 Y46.26 E957.057
G1 X81.08 Y46.2 E957.073
G1 X80.63 Y46.01 E957.089
G1 X80.24 Y45.71 E957.105
G1 X79.94 Y45.32 E957.122
G1 X79.75 Y44.87 E957.138
G1 X79.69 Y44.42 E957.153
G1 Y44.39
G1 X80.09 F3300
; TYPE:WALL-OUTER
G1 X80.14 Y44.01 E957.166 F2100
G1 X80.29 Y43.65 E957.179
G1 X80.52 Y43.34 E957.191
G1 X80.83 Y43.11 E957.204
G1 X81.18 Y42.96 E957.217
G1 X81.56 Y42.91 E957.23
G1 X81.94 Y42.96 E957.242
G1 X82.3 Y43.11 E957.255
G1 X82.6 Y43.34 E957.268
G1 X82.84 Y43.65 E957.281
G1 X82.98 Y44.01 E957.294
G1 X83.04 Y44.39 E957.306
G1 X82.98 Y44.77 E957.319
G1 X82.84 Y45.12 E957.332
G1 X82.6 Y45.43 E957.345
G1 X82.3 Y45.66 E957.357
G1 X81.94 Y45.81 E957.37
G1 X81.56 Y45.86 E957.383
G1 X81.18 Y45.81 E957.396
G1 X80.83 Y45.66 E957.409
G1 X80.52 Y45.43 E957.421
G1 X80.29 Y45.12 E957.434
G1 X80.14 Y44.77 E957.447
G1 X80.1 Y44.42 E957.458
G1 X80.09 Y44.39
G1 X80.14 Y44.01
G1 X80.29 Y43.65
G1 X80.52 Y43.34
G1 X80.83 Y43.11
G1 X81.18 Y42.96
G1 X81.56 Y42.91
G1 X81.94 Y42.96
G1 X82.23 Y43.08
G1 X79.28 Y44.39 F3300
G1 X80.42 Y45.88
G1 X84.07 Y48.38
G1 X87.42 Y51.17
; TYPE:WALL-INNER
G1 Y46.65 E957.609 F1500
G1 Y42.12 E957.759
G1 Y37.6 E957.91
G1 X87.52 Y36.72 E957.939
G1 X87.83 Y35.84 E957.97
G1 X88.33 Y35.05 E958.001
G1 X88.99 Y34.39 E958.033
G1 X89.78 Y33.89 E958.064
G1 X90.67 Y33.58 E958.095
G1 X91.54 Y33.48 E958.124
G1 X95.68 E958.262
G1 X99.82 E958.399
G1 X103.95 E958.537
G1 X108.09 E958.674
G1 X112.23 E958.812
G1 X113.1 Y33.58 E958.841
G1 X113.98 Y33.89 E958.873
G1 X114.78 Y34.39 E958.904
G1 X115.44 Y35.05 E958.935
G1 X115.94 Y35.84 E958.966
G1 X116.25 Y36.72 E958.997
G1 X116.35 Y37.6 E959.026
G1 Y42.12 E959.177
G1 Y46.65 E959.327
G1 Y51.17 E959.478
G1 X116.25 Y52.05 E959.507
G1 X115.94 Y52.93 E959.538
G1 X115.44 Y53.72 E959.569
G1 X114.78 Y54.39 E959.601
G1 X113.98 Y54.88 E959.632
G1 X113.1 Y55.19 E959.663
G1 X112.23 Y55.29 E959.692
G1 X108.09 E959.83
G1 X103.95 E959.967
G1 X99.82 E960.105
G1 X95.68 E960.242
G1 X91.54 E960.38
G1 X90.67 Y55.19 E960.409
G1 X89.78 Y54.88 E960.441
G1 X88.99 Y54.39 E960.472
G1 X88.33 Y53.72 E960.503
G1 X87.83 Y52.93 E960.534
G1 X87.52 Y52.05 E960.565
G1 X87.43 Y51.21 E960.593
G1 X87.42 Y51.17
G1 X87.82 Y51.15 F3300
G1 Y46.64 E960.743 F1500
G1 Y42.13 E960.893
G1 Y37.62 E961.043
G1 X87.91 Y36.81 E961.07
G1 X88.19 Y36.02 E961.098
G1 X88.64 Y35.3 E961.126
G1 X89.24 Y34.7 E961.154
G1 X89.96 Y34.25 E961.183
G1 X90.75 Y33.97 E961.211
G1 X91.56 Y33.88 E961.238
G1 X95.69 E961.375
G1 X99.82 E961.512
G1 X103.94 E961.65
G1 X108.07 E961.787
G1 X112.2 E961.924
G1 X113.01 Y33.97 E961.951
G1 X113.81 Y34.25 E961.979
G1 X114.53 Y34.7 E962.008
G1 X115.12 Y35.3 E962.036
G1 X115.57 Y36.02 E962.064
G1 X115.85 Y36.81 E962.092
G1 X115.95 Y37.62 E962.119
G1 Y42.13 E962.269
G1 Y46.64 E962.419
G1 Y51.15 E962.569
G1 X115.85 Y51.96 E962.596
G1 X115.57 Y52.76 E962.624
G1 X115.12 Y53.47 E962.652
G1 X114.53 Y54.07 E962.681
G1 X113.81 Y54.52 E962.709
G1 X113.01 Y54.8 E962.737
G1 X112.2 Y54.89 E962.764
G1 X108.07 E962.901
G1 X103.94 E963.038
G1 X99.82 E963.176
G1 X95.69 E963.313
G1 X91.56 E963.45
G1 X90.76 Y54.8 E963.477
G1 X89.96 Y54.52 E963.506
G1 X89.24 Y54.07 E963.534
G1 X88.64 Y53.47 E963.562
G1 X88.19 Y52.76 E963.59
G1 X87.91 Y51.96 E963.618
G1 X87.83 Y51.19 E963.644
G1 X87.82 Y51.15
G1 X88.3 Y51.87 F3300
; TYPE:WALL-OUTER
G1 X88.22 Y51.13 E963.669 F2100
G1 Y46.63 E963.818
G1 Y42.14 E963.968
G1 Y37.64 E964.117
G1 X88.3 Y36.9 E964.142
G1 X88.55 Y36.19 E964.167
G1 X88.96 Y35.55 E964.192
G1 X89.49 Y35.02 E964.217
G1 X90.13 Y34.61 E964.242
G1 X90.84 Y34.36 E964.268
G1 X91.59 Y34.28 E964.292
G1 X95.71 E964.429
G1 X99.83 E964.566
G1 X103.94 E964.703
G1 X108.06 E964.84
G1 X112.18 E964.977
G1 X112.92 Y34.36 E965.002
G1 X113.63 Y34.61 E965.027
G1 X114.27 Y35.02 E965.052
G1 X114.81 Y35.55 E965.078
G1 X115.21 Y36.19 E965.103
G1 X115.46 Y36.9 E965.128
G1 X115.55 Y37.64 E965.153
G1 Y42.14 E965.302
G1 Y46.63 E965.452
G1 Y51.13 E965.601
G1 X115.46 Y51.87 E965.626
G1 X115.21 Y52.58 E965.651
G1 X114.81 Y53.22 E965.676
G1 X114.27 Y53.76 E965.701
G1 X113.63 Y54.16 E965.727
G1 X112.92 Y54.41 E965.752
G1 X112.18 Y54.49 E965.776
G1 X108.06 E965.913
G1 X103.94 E966.05
G1 X99.83 E966.187
G1 X95.71 E966.324
G1 X91.59 E966.461
G1 X90.84 Y54.41 E966.486
G1 X90.13 Y54.16 E966.511
G1 X89.49 Y53.76 E966.537
G1 X88.96 Y53.22 E966.562
G1 X88.55 Y52.58 E966.587
G1 X88.32 Y51.91 E966.611
G1 X88.3 Y51.87
G1 X88.22 Y51.13
G1 Y48.87
G1 X87.52 Y52.05 F3300
G1 E961.861 F1800
G1 E957.111
G1 Z0.7
G1 X89.17 Y54.05 F3300
G1 X90.74 Y54.96
G1 X95.17
G1 X99.6
G1 X104.02
G1 X108.45
G1 X112.88
G1 X115.1 Y53.55
G1 X116.38 Y51.04
G1 X117.66 Y48.53
G1 X120 Y44.98
; TYPE:WALL-INNER
G1 Z0.4
G1 E961.861 F1800
G1 E966.611
G1 X119.92 Y44.39 E966.63 F1500
G1 X120 Y43.8 E966.65
G1 X120.23 Y43.25 E966.67
G1 X120.59 Y42.77 E966.69
G1 X121.07 Y42.41 E966.71
G1 X121.61 Y42.19 E966.729
G1 X122.2 Y42.11 E966.749
G1 X122.79 Y42.19 E966.769
G1 X123.34 Y42.41 E966.789
G1 X123.81 Y42.77 E966.809
G1 X124.18 Y43.25 E966.828
G1 X124.4 Y43.8 E966.848
G1 X124.48 Y44.39 E966.868
G1 X124.4 Y44.97 E966.888
G1 X124.18 Y45.52 E966.907
G1 X123.81 Y46 E966.927
G1 X123.34 Y46.36 E966.947
G1 X122.79 Y46.59 E966.967
G1 X122.2 Y46.66 E966.987
G1 X121.61 Y46.59 E967.006
G1 X121.07 Y46.36 E967.026
G1 X120.59 Y46 E967.046
G1 X120.23 Y45.52 E967.066
G1 X120.02 Y45.01 E967.084
G1 X120 Y44.98
G1 X120.39 Y44.87 F3300
G1 X120.33 Y44.39 E967.1 F1500
G1 X120.39 Y43.9 E967.117
G1 X120.58 Y43.45 E967.133
G1 X120.88 Y43.06 E967.149
G1 X121.27 Y42.76 E967.166
G1 X121.72 Y42.58 E967.182
G1 X122.2 Y42.51 E967.198
G1 X122.69 Y42.58 E967.214
G1 X123.14 Y42.76 E967.231
G1 X123.53 Y43.06 E967.247
G1 X123.83 Y43.45 E967.263
G1 X124.01 Y43.9 E967.28
G1 X124.08 Y44.39 E967.296
G1 X124.01 Y44.87 E967.312
G1 X123.83 Y45.32 E967.328
G1 X123.53 Y45.71 E967.345
G1 X123.14 Y46.01 E967.361
G1 X122.69 Y46.2 E967.377
G1 X122.2 Y46.26 E967.393
G1 X121.72 Y46.2 E967.41
G1 X121.27 Y46.01 E967.426
G1 X120.88 Y45.71 E967.442
G1 X120.58 Y45.32 E967.459
G1 X120.41 Y44.91 E967.474
G1 X120.39 Y44.87
G1 X120.78 Y44.77 F3300
; TYPE:WALL-OUTER
G1 X120.73 Y44.39 E967.486 F2100
G1 X120.78 Y44.01 E967.499
G1 X120.93 Y43.65 E967.512
G1 X121.16 Y43.34 E967.525
G1 X121.47 Y43.11 E967.537
G1 X121.82 Y42.96 E967.55
G1 X122.2 Y42.91 E967.563
G1 X122.58 Y42.96 E967.576
G1 X122.94 Y43.11 E967.589
G1 X123.24 Y43.34 E967.601
G1 X123.48 Y43.65 E967.614
G1 X123.62 Y44.01 E967.627
G1 X123.67 Y44.39 E967.64
G1 X123.62 Y44.77 E967.652
G1 X123.48 Y45.12 E967.665
G1 X123.24 Y45.43 E967.678
G1 X122.94 Y45.66 E967.691
G1 X122.58 Y45.81 E967.704
G1 X122.2 Y45.86 E967.716
G1 X121.82 Y45.81 E967.729
G1 X121.47 Y45.66 E967.742
G1 X121.16 Y45.43 E967.755
G1 X120.93 Y45.12 E967.767
G1 X120.8 Y44.8 E967.779
G1 X120.78 Y44.77
G1 X120.73 Y44.39
G1 X120.78 Y44.01
G1 X120.93 Y43.65
G1 X121.16 Y43.34
G1 X121.47 Y43.11
G1 X121.82 Y42.96
G1 X122.2 Y42.91
G1 X122.51 Y42.95
G1 X120 Y44.98 F3300
G1 X119.66 Y44.99
; TYPE:FILL
G1 X116.68 Y42.01 E967.919 F2400
G1 Y42.58 F3300
G1 X119.35 Y45.24 E968.044 F2400
G1 X122.01 Y47.91 E968.17
G1 X124.68 Y50.57 E968.295
G1 X127.34 Y53.23 E968.42
G1 Y53.8 F3300
G1 X124.68 Y51.14 E968.545 F2400
G1 X122.01 Y48.48 E968.671
G1 X119.35 Y45.81 E968.796
G1 X116.68 Y43.15 E968.921
G1 Y43.71 F3300
G1 X119.35 Y46.38 E969.046 F2400
G1 X122.01 Y49.04 E969.172
G1 X124.68 Y51.71 E969.297
G1 X127.34 Y54.37 E969.422
G1 Y54.93 F3300
G1 X124.68 Y52.27 E969.548 F2400
G1 X122.01 Y49.61 E969.673
G1 X119.35 Y46.94 E969.799
G1 X116.68 Y44.28 E969.924
G1 Y44.84 F3300
G1 X119.35 Y47.51 E970.049 F2400
G1 X122.01 Y50.17 E970.175
G1 X124.68 Y52.84 E970.3
G1 X127.34 Y55.5 E970.425
G1 Y56.06 F3300
G1 X124.68 Y53.4 E970.55 F2400
G1 X122.01 Y50.74 E970.676
G1 X119.35 Y48.07 E970.801
G1 X116.68 Y45.41 E970.926
G1 Y45.97 F3300
G1 X119.35 Y48.64 E971.051 F2400
G1 X122.01 Y51.3 E971.177
G1 X124.68 Y53.97 E971.302
G1 X127.34 Y56.63 E971.427
G1 Y57.19 F3300
G1 X124.68 Y54.53 E971.552 F2400
G1 X122.01 Y51.87 E971.678
G1 X119.35 Y49.2 E971.803
G1 X116.68 Y46.54 E971.928
G1 Y47.11 F3300
G1 X119.35 Y49.77 E972.053 F2400
G1 X122.01 Y52.44 E972.179
G1 X124.68 Y55.1 E972.304
G1 X127.34 Y57.76 E972.429
G1 Y58.33 F3300
G1 X124.68 Y55.67 E972.555 F2400
G1 X122.01 Y53 E972.68
G1 X119.35 Y50.34 E972.806
G1 X116.68 Y47.67 E972.931
G1 Y48.24 F3300
G1 X119.35 Y50.9 E973.056 F2400
G1 X122.01 Y53.57 E973.182
G1 X124.68 Y56.23 E973.307
G1 X127.34 Y58.89 E973.432
G1 Y59.46 F3300
G1 X124.68 Y56.8 E973.557 F2400
G1 X122.01 Y54.13 E973.683
G1 X119.35 Y51.47 E973.808
G1 X116.68 Y48.8 E973.933
G1 Y49.37 F3300
G1 X119.35 Y52.03 E974.058 F2400
G1 X122.01 Y54.7 E974.184
G1 X124.68 Y57.36 E974.309
G1 X127.34 Y60.02 E974.434
G1 Y60.59 F3300
G1 X124.68 Y57.93 E974.559 F2400
G1 X122.01 Y55.26 E974.685
G1 X119.35 Y52.6 E974.81
G1 X116.68 Y49.93 E974.935
G1 Y50.5 F3300
G1 X119.35 Y53.16 E975.06 F2400
G1 X122.01 Y55.83 E975.186
G1 X124.68 Y58.49 E975.311
G1 X127.34 Y61.15 E975.436
G1 Y61.72 F3300
G1 X124.68 Y59.06 E975.562 F2400
G1 X122.01 Y56.4 E975.687
G1 X119.35 Y53.73 E975.813
G1 X116.68 Y51.07 E975.938
G1 X116.64 Y51.59 F3300
G1 X119.32 Y54.27 E976.064 F2400
G1 X121.99 Y56.94 E976.19
G1 X124.67 Y59.62 E976.315
G1 X127.34 Y62.29 E976.441
G1 Y62.85 F3300
G1 X124.65 Y60.16 E976.568 F2400
G1 X121.96 Y57.47 E976.694
G1 X119.27 Y54.78 E976.821
G1 X116.58 Y52.09 E976.947
G1 X116.44 Y52.52 F3300
G1 X119.17 Y55.25 E977.075 F2400
G1 X121.89 Y57.97 E977.203
G1 X124.62 Y60.7 E977.331
G1 X127.34 Y63.42 E977.459
G1 Y63.98 F3300
G1 X124.58 Y61.22 E977.589 F2400
G1 X121.82 Y58.46 E977.719
G1 X119.05 Y55.7 E977.849
G1 X116.29 Y52.94 E977.979
G1 X116.1 Y53.31 F3300
G1 X118.91 Y56.12 E978.111 F2400
G1 X121.72 Y58.93 E978.244
G1 X124.53 Y61.74 E978.376
G1 X127.34 Y64.55 E978.508
G1 Y65.11 F3300
G1 X124.48 Y62.25 E978.643 F2400
G1 X121.61 Y59.39 E978.778
G1 X118.75 Y56.52 E978.912
G1 X115.88 Y53.66 E979.047
G1 X115.65 Y53.99 F3300
G1 X118.57 Y56.91 E979.184 F2400
G1 X121.5 Y59.84 E979.322
G1 X124.42 Y62.76 E979.459
G1 X127.34 Y65.68 E979.596
G1 Y66.25 F3300
G1 X124.35 Y63.26 E979.737 F2400
G1 X121.36 Y60.26 E979.878
G1 X118.36 Y57.27 E980.018
G1 X115.37 Y54.27 E980.159
G1 X115.09 Y54.56 F3300
G1 X118.15 Y57.62 E980.303 F2400
G1 X121.22 Y60.69 E980.448
G1 X124.28 Y63.75 E980.592
G1 X127.34 Y66.81 E980.736
G1 Y67.38 F3300
G1 X124.2 Y64.24 E980.884 F2400
G1 X121.05 Y61.09 E981.032
G1 X117.91 Y57.95 E981.18
G1 X114.76 Y54.8 E981.328
G1 X114.41 Y55.02 F3300
G1 X117.64 Y58.25 E981.48 F2400
G1 X120.88 Y61.48 E981.632
G1 X124.11 Y64.71 E981.784
G1 X127.34 Y67.94 E981.936
G1 Y68.51 F3300
G1 X124.02 Y65.19 E982.092 F2400
G1 X120.7 Y61.87 E982.249
G1 X117.37 Y58.54 E982.405
G1 X114.05 Y55.22 E982.561
G1 X113.63 Y55.37 F3300
G1 X117.06 Y58.8 E982.722 F2400
G1 X120.49 Y62.22 E982.883
G1 X123.91 Y65.65 E983.044
G1 X127.34 Y69.07 E983.205
G1 Y69.64 F3300
G1 X123.81 Y66.11 E983.371 F2400
G1 X120.28 Y62.58 E983.538
G1 X116.74 Y59.04 E983.704
G1 X113.21 Y55.51 E983.87
G1 X112.71 Y55.58 F3300
G1 X115.64 Y58.51 E984.008 F2400
G1 X118.56 Y61.43 E984.145
G1 X121.49 Y64.36 E984.283
G1 X124.41 Y67.28 E984.42
G1 X127.34 Y70.21 E984.558
G1 Y70.77 F3300
G1 X124.31 Y67.74 E984.7 F2400
G1 X121.28 Y64.71 E984.843
G1 X118.26 Y61.69 E984.985
G1 X115.23 Y58.66 E985.128
G1 X112.2 Y55.63 E985.27
G1 X111.63 F3300
G1 X114.77 Y58.77 E985.418 F2400
G1 X117.91 Y61.91 E985.566
G1 X121.06 Y65.06 E985.713
G1 X124.2 Y68.2 E985.861
G1 X127.34 Y71.34 E986.009
G1 Y71.9 F3300
G1 X124.09 Y68.65 E986.162 F2400
G1 X120.83 Y65.39 E986.315
G1 X117.58 Y62.14 E986.468
G1 X114.32 Y58.88 E986.621
G1 X111.07 Y55.63 E986.774
G1 X110.5 F3300
G1 X113.87 Y59 E986.932 F2400
G1 X117.24 Y62.37 E987.091
G1 X120.6 Y65.73 E987.249
G1 X123.97 Y69.1 E987.408
G1 X127.34 Y72.47 E987.566
G1 Y73.03 F3300
G1 X123.86 Y69.55 E987.73 F2400
G1 X120.38 Y66.07 E987.894
G1 X116.9 Y62.59 E988.057
G1 X113.42 Y59.11 E988.221
G1 X109.94 Y55.63 E988.385
G1 X109.37 F3300
G1 X112.37 Y58.63 E988.526 F2400
G1 X115.36 Y61.62 E988.667
G1 X118.36 Y64.62 E988.808
G1 X121.35 Y67.61 E988.948
G1 X124.35 Y70.61 E989.089
G1 X127.34 Y73.6 E989.23
G1 Y74.16 F3300
G1 X124.25 Y71.07 E989.375 F2400
G1 X121.16 Y67.98 E989.521
G1 X118.08 Y64.9 E989.666
G1 X114.99 Y61.81 E989.811
G1 X111.9 Y58.72 E989.957
G1 X108.81 Y55.63 E990.102
G1 X108.24 F3300
G1 X111.42 Y58.81 E990.252 F2400
G1 X114.61 Y62 E990.401
G1 X117.79 Y65.18 E990.551
G1 X120.97 Y68.36 E990.701
G1 X124.16 Y71.55 E990.85
G1 X127.34 Y74.73 E991
G1 Y75.3 F3300
G1 X124.06 Y72.02 E991.154 F2400
G1 X120.78 Y68.74 E991.308
G1 X117.51 Y65.47 E991.463
G1 X114.23 Y62.19 E991.617
G1 X110.95 Y58.91 E991.771
G1 X107.67 Y55.63 E991.925
G1 X107.11 F3300
G1 X110.48 Y59 E992.084 F2400
G1 X113.85 Y62.37 E992.242
G1 X117.23 Y65.75 E992.401
G1 X120.6 Y69.12 E992.56
G1 X123.97 Y72.49 E992.718
G1 X127.34 Y75.86 E992.877
G1 Y76.43 F3300
G1 X123.87 Y72.96 E993.04 F2400
G1 X120.41 Y69.5 E993.203
G1 X116.94 Y66.03 E993.366
G1 X113.47 Y62.56 E993.529
G1 X110.01 Y59.1 E993.692
G1 X106.54 Y55.63 E993.855
G1 X105.98 F3300
G1 X109.03 Y58.68 E993.999 F2400
G1 X112.08 Y61.73 E994.142
G1 X115.13 Y64.78 E994.286
G1 X118.19 Y67.84 E994.429
G1 X121.24 Y70.89 E994.573
G1 X124.29 Y73.94 E994.716
G1 X127.34 Y76.99 E994.86
G1 Y77.56 F3300
G1 X124.21 Y74.43 E995.007 F2400
G1 X121.07 Y71.29 E995.155
G1 X117.94 Y68.16 E995.302
G1 X114.81 Y65.03 E995.449
G1 X111.68 Y61.9 E995.596
G1 X108.54 Y58.76 E995.744
G1 X105.41 Y55.63 E995.891
G1 X104.85 F3300
G1 X108.06 Y58.84 E996.042 F2400
G1 X111.28 Y62.06 E996.193
G1 X114.49 Y65.27 E996.344
G1 X117.7 Y68.48 E996.496
G1 X120.91 Y71.69 E996.647
G1 X124.13 Y74.91 E996.798
G1 X127.34 Y78.12 E996.949
G1 Y78.69 F3300
G1 X124.05 Y75.4 E997.104 F2400
G1 X120.75 Y72.1 E997.259
G1 X117.46 Y68.81 E997.414
G1 X114.16 Y65.51 E997.569
G1 X110.87 Y62.22 E997.724
G1 X107.57 Y58.92 E997.879
G1 X104.28 Y55.63 E998.034
G1 X103.71 F3300
G1 X107.09 Y59.01 E998.193 F2400
G1 X110.46 Y62.38 E998.351
G1 X113.84 Y65.76 E998.51
G1 X117.21 Y69.13 E998.669
G1 X120.59 Y72.51 E998.828
G1 X123.96 Y75.88 E998.986
G1 X127.34 Y79.26 E999.145
G1 Y79.82 F3300
G1 X123.88 Y76.36 E999.308 F2400
G1 X120.43 Y72.91 E999.47
G1 X116.97 Y69.45 E999.633
G1 X113.52 Y66 E999.795
G1 X110.06 Y62.54 E999.958
G1 X106.61 Y59.09 E1000.12
G1 X103.15 Y55.63 E1000.283
G1 X102.58 F3300
G1 X105.68 Y58.73 E1000.429 F2400
G1 X108.77 Y61.82 E1000.574
G1 X111.87 Y64.92 E1000.72
G1 X114.96 Y68.01 E1000.866
G1 X118.06 Y71.11 E1001.011
G1 X121.15 Y74.2 E1001.157
G1 X124.25 Y77.3 E1001.302
G1 X127.34 Y80.39 E1001.448
G1 Y80.95 F3300
G1 X124.18 Y77.79 E1001.597 F2400
G1 X121.01 Y74.62 E1001.746
G1 X117.85 Y71.46 E1001.895
G1 X114.68 Y68.29 E1002.044
G1 X111.52 Y65.13 E1002.192
G1 X108.35 Y61.96 E1002.341
G1 X105.19 Y58.8 E1002.49
G1 X102.02 Y55.63 E1002.639
G1 X101.45 F3300
G1 X104.69 Y58.87 E1002.791 F2400
G1 X107.92 Y62.1 E1002.943
G1 X111.16 Y65.34 E1003.095
G1 X114.4 Y68.58 E1003.248
G1 X117.63 Y71.81 E1003.4
G1 X120.87 Y75.05 E1003.552
G1 X124.1 Y78.28 E1003.704
G1 X127.34 Y81.52 E1003.856
G1 Y82.09 F3300
G1 X124.03 Y78.78 E1004.012 F2400
G1 X120.73 Y75.48 E1004.167
G1 X117.42 Y72.17 E1004.323
G1 X114.12 Y68.86 E1004.479
G1 X110.81 Y65.55 E1004.634
G1 X107.5 Y62.25 E1004.79
G1 X104.2 Y58.94 E1004.945
G1 X100.89 Y55.63 E1005.101
G1 X100.32 F3300
G1 X103.7 Y59.01 E1005.26 F2400
G1 X107.08 Y62.39 E1005.419
G1 X110.45 Y65.76 E1005.578
G1 X113.83 Y69.14 E1005.737
G1 X117.21 Y72.52 E1005.895
G1 X120.59 Y75.9 E1006.054
G1 X123.96 Y79.27 E1006.213
G1 X127.34 Y82.65 E1006.372
G1 Y83.22 F3300
G1 X123.89 Y79.77 E1006.534 F2400
G1 X120.45 Y76.32 E1006.696
G1 X117 Y72.87 E1006.858
G1 X113.55 Y69.43 E1007.021
G1 X110.1 Y65.98 E1007.183
G1 X106.66 Y62.53 E1007.345
G1 X103.21 Y59.08 E1007.507
G1 X99.76 Y55.63 E1007.669
G1 X99.19 F3300
G1 X102.71 Y59.15 E1007.835 F2400
G1 X106.23 Y62.67 E1008
G1 X109.75 Y66.19 E1008.166
G1 X113.27 Y69.71 E1008.331
G1 X116.78 Y73.22 E1008.497
G1 X120.3 Y76.74 E1008.662
G1 X123.82 Y80.26 E1008.828
G1 X127.34 Y83.78 E1008.993
G1 Y84.35 F3300
G1 X124.15 Y81.16 E1009.143 F2400
G1 X120.96 Y77.97 E1009.293
G1 X117.77 Y74.78 E1009.443
G1 X114.58 Y71.59 E1009.593
G1 X111.38 Y68.39 E1009.744
G1 X108.19 Y65.2 E1009.894
G1 X105 Y62.01 E1010.044
G1 X101.81 Y58.82 E1010.194
G1 X98.62 Y55.63 E1010.344
G1 X98.06 F3300
G1 X101.31 Y58.88 E1010.497 F2400
G1 X104.57 Y62.14 E1010.65
G1 X107.82 Y65.39 E1010.803
G1 X111.07 Y68.64 E1010.956
G1 X114.33 Y71.9 E1011.109
G1 X117.58 Y75.15 E1011.262
G1 X120.83 Y78.4 E1011.415
G1 X124.09 Y81.66 E1011.568
G1 X127.34 Y84.91 E1011.721
G1 Y85.48 F3300
G1 X124.02 Y82.16 E1011.877 F2400
G1 X120.71 Y78.85 E1012.033
G1 X117.39 Y75.53 E1012.189
G1 X114.07 Y72.21 E1012.345
G1 X110.76 Y68.9 E1012.501
G1 X107.44 Y65.58 E1012.657
G1 X104.12 Y62.26 E1012.813
G1 X100.81 Y58.95 E1012.969
G1 X97.49 Y55.63 E1013.125
G1 X96.93 F3300
G1 X100.31 Y59.01 E1013.284 F2400
G1 X103.69 Y62.39 E1013.443
G1 X107.07 Y65.77 E1013.602
G1 X110.45 Y69.15 E1013.761
G1 X113.82 Y72.52 E1013.92
G1 X117.2 Y75.9 E1014.079
G1 X120.58 Y79.28 E1014.238
G1 X123.96 Y82.66 E1014.397
G1 X127.34 Y86.04 E1014.556
G1 Y86.61 F3300
G1 X123.9 Y83.17 E1014.718 F2400
G1 X120.46 Y79.73 E1014.88
G1 X117.01 Y76.28 E1015.042
G1 X113.57 Y72.84 E1015.204
G1 X110.13 Y69.4 E1015.365
G1 X106.69 Y65.96 E1015.527
G1 X103.24 Y62.51 E1015.689
G1 X99.8 Y59.07 E1015.851
G1 X96.36 Y55.63 E1016.013
G1 X95.8 F3300
G1 X99.3 Y59.14 E1016.178 F2400
G1 X102.81 Y62.64 E1016.343
G1 X106.31 Y66.15 E1016.508
G1 X109.82 Y69.65 E1016.673
G1 X113.32 Y73.16 E1016.837
G1 X116.83 Y76.66 E1017.002
G1 X120.33 Y80.17 E1017.167
G1 X123.84 Y83.67 E1017.332
G1 X127.34 Y87.18 E1017.497
G1 Y87.74 F3300
G1 X124.13 Y84.53 E1017.648 F2400
G1 X120.92 Y81.32 E1017.799
G1 X117.71 Y78.11 E1017.95
G1 X114.5 Y74.9 E1018.101
G1 X111.29 Y71.69 E1018.252
G1 X108.07 Y68.47 E1018.403
G1 X104.86 Y65.26 E1018.554
G1 X101.65 Y62.05 E1018.705
G1 X98.44 Y58.84 E1018.856
G1 X95.23 Y55.63 E1019.007
G1 X94.66 F3300
G1 X97.93 Y58.9 E1019.161 F2400
G1 X101.2 Y62.17 E1019.314
G1 X104.46 Y65.43 E1019.468
G1 X107.73 Y68.7 E1019.622
G1 X111 Y71.97 E1019.776
G1 X114.27 Y75.24 E1019.929
G1 X117.54 Y78.51 E1020.083
G1 X120.8 Y81.77 E1020.237
G1 X124.07 Y85.04 E1020.39
G1 X127.34 Y88.31 E1020.544
G1 Y88.87 F3300
G1 X124.02 Y85.55 E1020.7 F2400
G1 X120.69 Y82.22 E1020.857
G1 X117.37 Y78.9 E1021.013
G1 X114.04 Y75.57 E1021.17
G1 X110.72 Y72.25 E1021.326
G1 X107.4 Y68.93 E1021.482
G1 X104.07 Y65.6 E1021.639
G1 X100.75 Y62.28 E1021.795
G1 X97.42 Y58.95 E1021.952
G1 X94.1 Y55.63 E1022.108
G1 X93.53 F3300
G1 X96.91 Y59.01 E1022.267 F2400
G1 X100.29 Y62.39 E1022.426
G1 X103.67 Y65.77 E1022.585
G1 X107.05 Y69.15 E1022.744
G1 X110.44 Y72.54 E1022.903
G1 X113.82 Y75.92 E1023.062
G1 X117.2 Y79.3 E1023.221
G1 X120.58 Y82.68 E1023.38
G1 X123.96 Y86.06 E1023.539
G1 X127.34 Y89.44 E1023.698
G1 Y90 F3300
G1 X123.9 Y86.56 E1023.86 F2400
G1 X120.47 Y83.13 E1024.021
G1 X117.03 Y79.69 E1024.183
G1 X113.59 Y76.25 E1024.345
G1 X110.16 Y72.82 E1024.507
G1 X106.72 Y69.38 E1024.668
G1 X103.28 Y65.94 E1024.83
G1 X99.84 Y62.5 E1024.992
G1 X96.41 Y59.07 E1025.153
G1 X92.97 Y55.63 E1025.315
G1 X92.4 F3300
G1 X95.89 Y59.12 E1025.479 F2400
G1 X99.39 Y62.62 E1025.644
G1 X102.88 Y66.11 E1025.808
G1 X106.38 Y69.61 E1025.972
G1 X109.87 Y73.1 E1026.137
G1 X113.36 Y76.59 E1026.301
G1 X116.86 Y80.09 E1026.465
G1 X120.35 Y83.58 E1026.629
G1 X123.85 Y87.08 E1026.794
G1 X127.34 Y90.57 E1026.958
G1 Y91.14 F3300
G1 X124.11 Y87.91 E1027.11 F2400
G1 X120.89 Y84.68 E1027.262
G1 X117.66 Y81.46 E1027.413
G1 X114.43 Y78.23 E1027.565
G1 X111.2 Y75 E1027.717
G1 X107.98 Y71.77 E1027.869
G1 X104.75 Y68.54 E1028.021
G1 X101.52 Y65.31 E1028.173
G1 X98.29 Y62.09 E1028.324
G1 X95.07 Y58.86 E1028.476
G1 X91.84 Y55.63 E1028.628
G1 X91.24 Y55.6 F3300
G1 X94.52 Y58.88 E1028.782 F2400
G1 X97.8 Y62.16 E1028.937
G1 X101.09 Y65.45 E1029.091
G1 X104.37 Y68.73 E1029.246
G1 X107.65 Y72.01 E1029.4
G1 X110.93 Y75.29 E1029.555
G1 X114.21 Y78.57 E1029.709
G1 X117.49 Y81.85 E1029.864
G1 X120.78 Y85.14 E1030.018
G1 X124.06 Y88.42 E1030.173
G1 X127.34 Y91.7 E1030.327
G1 Y92.27 F3300
G1 X124 Y88.93 E1030.484 F2400
G1 X120.66 Y85.59 E1030.641
G1 X117.32 Y82.25 E1030.798
G1 X113.98 Y78.91 E1030.955
G1 X110.64 Y75.57 E1031.112
G1 X107.3 Y72.23 E1031.27
G1 X103.96 Y68.89 E1031.427
G1 X100.62 Y65.55 E1031.584
G1 X97.28 Y62.21 E1031.741
G1 X93.94 Y58.87 E1031.898
G1 X90.6 Y55.53 E1032.055
G1 X89.74 Y55.23 F3300
G1 X93.16 Y58.65 E1032.216 F2400
G1 X96.58 Y62.07 E1032.377
G1 X99.99 Y65.48 E1032.537
G1 X103.41 Y68.9 E1032.698
G1 X106.83 Y72.32 E1032.859
G1 X110.25 Y75.74 E1033.02
G1 X113.67 Y79.16 E1033.181
G1 X117.09 Y82.58 E1033.342
G1 X120.5 Y85.99 E1033.502
G1 X123.92 Y89.41 E1033.663
G1 X127.34 Y92.83 E1033.824
G1 Y93.4 F3300
G1 X124.02 Y90.08 E1033.98 F2400
G1 X120.7 Y86.76 E1034.136
G1 X117.38 Y83.44 E1034.293
G1 X114.05 Y80.11 E1034.449
G1 X110.73 Y76.79 E1034.605
G1 X107.41 Y73.47 E1034.761
G1 X104.09 Y70.15 E1034.918
G1 X100.77 Y66.83 E1035.074
G1 X97.45 Y63.51 E1035.23
G1 X94.13 Y60.19 E1035.386
G1 X90.8 Y56.86 E1035.542
G1 X87.48 Y53.54 E1035.699
G1 X84.16 Y50.22 E1035.855
G1 X80.84 Y46.9 E1036.011
G1 X81.51 Y47 F3300
G1 X84.5 Y49.99 E1036.152 F2400
G1 X87.48 Y52.98 E1036.292
G1 X87.18 Y52.11 F3300
G1 X84.6 Y49.53 E1036.414 F2400
G1 X82.02 Y46.95 E1036.535
G1 X82.46 Y46.83 F3300
G1 X84.79 Y49.15 E1036.645 F2400
G1 X87.11 Y51.47 E1036.754
G1 X87.08 Y50.88 F3300
G1 X84.97 Y48.77 E1036.853 F2400
G1 X82.86 Y46.66 E1036.952
G1 X83.19 Y46.42 F3300
G1 X85.14 Y48.37 E1037.044 F2400
G1 X87.08 Y50.31 E1037.135
G1 Y49.74 F3300
G1 X85.29 Y47.95 E1037.22 F2400
G1 X83.49 Y46.15 E1037.304
G1 X83.73 Y45.83 F3300
G1 X87.08 Y49.18 E1037.462 F2400
G1 Y48.61 F3300
G1 X83.93 Y45.46 E1037.61 F2400
G1 X84.09 Y45.06 F3300
G1 X87.08 Y48.05 E1037.75 F2400
G1 Y47.48 F3300
G1 X84.16 Y44.56 E1037.888 F2400
G1 X84.13 Y43.97 F3300
G1 X87.08 Y46.92 E1038.027 F2400
G1 Y46.35 F3300
G1 X83.85 Y43.12 E1038.178 F2400
G1 X82.83 Y42.1 F3300
G1 X79.67 Y38.94 E1038.327 F2400
G1 X76.52 Y35.79 E1038.475
G1 X73.36 Y32.63 E1038.624
G1 X70.2 Y29.47 E1038.772
G1 X69.63 F3300
G1 X72.72 Y32.56 E1038.917 F2400
G1 X75.81 Y35.65 E1039.063
G1 X78.89 Y38.73 E1039.208
G1 X81.98 Y41.82 E1039.353
G1 X81.38 Y41.79 F3300
G1 X78.3 Y38.71 E1039.498 F2400
G1 X75.23 Y35.63 E1039.643
G1 X72.15 Y32.55 E1039.788
G1 X69.07 Y29.47 E1039.933
G1 X68.5 F3300
G1 X71.6 Y32.57 E1040.079 F2400
G1 X74.7 Y35.66 E1040.224
G1 X77.79 Y38.76 E1040.37
G1 X80.89 Y41.85 E1040.515
G1 X80.48 Y42.02 F3300
G1 X77.34 Y38.88 E1040.663 F2400
G1 X74.21 Y35.75 E1040.811
G1 X71.07 Y32.61 E1040.958
G1 X67.93 Y29.47 E1041.106
G1 X67.37 F3300
G1 X70.56 Y32.66 E1041.256 F2400
G1 X73.75 Y35.85 E1041.406
G1 X76.93 Y39.03 E1041.555
G1 X80.12 Y42.22 E1041.705
G1 X79.8 Y42.46 F3300
G1 X76.55 Y39.21 E1041.858 F2400
G1 X73.3 Y35.97 E1042.011
G1 X70.05 Y32.72 E1042.164
G1 X66.8 Y29.47 E1042.317
G1 X66.24 F3300
G1 X69.56 Y32.79 E1042.473 F2400
G1 X72.89 Y36.12 E1042.63
G1 X76.21 Y39.44 E1042.786
G1 X79.53 Y42.76 E1042.942
G1 X79.29 Y43.08 F3300
G1 X75.89 Y39.68 E1043.102 F2400
G1 X72.48 Y36.28 E1043.262
G1 X69.08 Y32.87 E1043.422
G1 X65.67 Y29.47 E1043.582
G1 X65.11 F3300
G1 X68.61 Y32.97 E1043.747 F2400
G1 X72.12 Y36.48 E1043.912
G1 X75.62 Y39.98 E1044.077
G1 X79.12 Y43.48 E1044.242
G1 X79 Y43.93 F3300
G1 X76.11 Y41.04 E1044.378 F2400
G1 X73.22 Y38.15 E1044.514
G1 X70.32 Y35.25 E1044.65
G1 X67.43 Y32.36 E1044.786
G1 X64.54 Y29.47 E1044.922
G1 X63.97 F3300
G1 X66.97 Y32.46 E1045.063 F2400
G1 X69.96 Y35.46 E1045.204
G1 X72.96 Y38.45 E1045.344
G1 X75.95 Y41.45 E1045.485
G1 X78.95 Y44.44 E1045.626
G1 X79.05 Y45.11 F3300
G1 X75.92 Y41.98 E1045.773 F2400
G1 X72.79 Y38.85 E1045.92
G1 X69.67 Y35.73 E1046.068
G1 X66.54 Y32.6 E1046.215
G1 X63.41 Y29.47 E1046.362
G1 X62.84 F3300
G1 X66.23 Y32.86 E1046.522 F2400
G1 X69.63 Y36.26 E1046.681
G1 X73.02 Y39.65 E1046.841
G1 X76.42 Y43.05 E1047.001
G1 X79.81 Y46.44 E1047.16
G1 X83.21 Y49.84 E1047.32
G1 X86.6 Y53.23 E1047.48
G1 X90 Y56.62 E1047.639
G1 X93.39 Y60.02 E1047.799
G1 X96.79 Y63.41 E1047.959
G1 X100.18 Y66.81 E1048.119
G1 X103.58 Y70.2 E1048.278
G1 X106.97 Y73.59 E1048.438
G1 X110.37 Y76.99 E1048.598
G1 X113.76 Y80.38 E1048.757
G1 X117.16 Y83.78 E1048.917
G1 X120.55 Y87.17 E1049.077
G1 X123.95 Y90.57 E1049.236
G1 X127.34 Y93.96 E1049.396
G1 Y94.53 F3300
G1 X123.92 Y91.11 E1049.557 F2400
G1 X120.49 Y87.68 E1049.718
G1 X117.07 Y84.26 E1049.879
G1 X113.64 Y80.83 E1050.04
G1 X110.22 Y77.41 E1050.201
G1 X106.79 Y73.98 E1050.362
G1 X103.37 Y70.56 E1050.523
G1 X99.95 Y67.14 E1050.684
G1 X96.52 Y63.71 E1050.845
G1 X93.1 Y60.29 E1051.007
G1 X89.67 Y56.86 E1051.168
G1 X86.25 Y53.44 E1051.329
G1 X82.83 Y50.02 E1051.49
G1 X79.4 Y46.59 E1051.651
G1 X75.98 Y43.17 E1051.812
G1 X72.55 Y39.74 E1051.973
G1 X69.13 Y36.32 E1052.134
G1 X65.7 Y32.89 E1052.295
G1 X62.28 Y29.47 E1052.456
G1 X61.71 F3300
G1 X65.16 Y32.92 E1052.618 F2400
G1 X68.62 Y36.38 E1052.781
G1 X72.07 Y39.83 E1052.943
G1 X75.53 Y43.29 E1053.106
G1 X78.98 Y46.74 E1053.268
G1 X82.44 Y50.2 E1053.431
G1 X85.89 Y53.65 E1053.593
G1 X89.34 Y57.1 E1053.756
G1 X92.8 Y60.56 E1053.918
G1 X96.25 Y64.01 E1054.081
G1 X99.71 Y67.47 E1054.243
G1 X103.16 Y70.92 E1054.406
G1 X106.61 Y74.37 E1054.568
G1 X110.07 Y77.83 E1054.731
G1 X113.52 Y81.28 E1054.893
G1 X116.98 Y84.74 E1055.056
G1 X120.43 Y88.19 E1055.218
G1 X123.89 Y91.65 E1055.381
G1 X127.34 Y95.1 E1055.543
G1 Y95.66 F3300
G1 X123.86 Y92.18 E1055.707 F2400
G1 X120.37 Y88.69 E1055.871
G1 X116.89 Y85.21 E1056.035
G1 X113.41 Y81.73 E1056.198
G1 X109.92 Y78.24 E1056.362
G1 X106.44 Y74.76 E1056.526
G1 X102.95 Y71.27 E1056.69
G1 X99.47 Y67.79 E1056.854
G1 X95.99 Y64.31 E1057.018
G1 X92.5 Y60.82 E1057.181
G1 X89.02 Y57.34 E1057.345
G1 X85.54 Y53.86 E1057.509
G1 X82.05 Y50.37 E1057.673
G1 X78.57 Y46.89 E1057.837
G1 X75.08 Y43.4 E1058.001
G1 X71.6 Y39.92 E1058.164
G1 X68.12 Y36.44 E1058.328
G1 X64.63 Y32.95 E1058.492
G1 X61.15 Y29.47 E1058.656
G1 X60.58 F3300
G1 X64.09 Y32.98 E1058.821 F2400
G1 X67.61 Y36.5 E1058.987
G1 X71.12 Y40.01 E1059.152
G1 X74.63 Y43.52 E1059.317
G1 X78.15 Y47.04 E1059.483
G1 X81.66 Y50.55 E1059.648
G1 X85.18 Y54.07 E1059.813
G1 X88.69 Y57.58 E1059.979
G1 X92.2 Y61.09 E1060.144
G1 X95.72 Y64.61 E1060.309
G1 X99.23 Y68.12 E1060.474
G1 X102.74 Y71.63 E1060.64
G1 X106.26 Y75.15 E1060.805
G1 X109.77 Y78.66 E1060.97
G1 X113.29 Y82.18 E1061.136
G1 X116.8 Y85.69 E1061.301
G1 X120.31 Y89.2 E1061.466
G1 X123.83 Y92.72 E1061.632
G1 X127.34 Y96.23 E1061.797
G1 Y96.79 F3300
G1 X123.97 Y93.42 E1061.955 F2400
G1 X120.61 Y90.06 E1062.114
G1 X117.24 Y86.69 E1062.272
G1 X113.87 Y83.33 E1062.43
G1 X110.51 Y79.96 E1062.589
G1 X107.14 Y76.59 E1062.747
G1 X103.77 Y73.23 E1062.905
G1 X100.41 Y69.86 E1063.063
G1 X97.04 Y66.5 E1063.222
G1 X93.68 Y63.13 E1063.38
G1 X90.31 Y59.76 E1063.538
G1 X86.94 Y56.4 E1063.697
G1 X83.58 Y53.03 E1063.855
G1 X80.21 Y49.67 E1064.013
G1 X76.84 Y46.3 E1064.172
G1 X73.48 Y42.93 E1064.33
G1 X70.11 Y39.57 E1064.488
G1 X66.74 Y36.2 E1064.646
G1 X63.38 Y32.84 E1064.805
G1 X60.01 Y29.47 E1064.963
G1 X59.45 F3300
G1 X62.84 Y32.86 E1065.123 F2400
G1 X66.24 Y36.26 E1065.282
G1 X69.63 Y39.65 E1065.442
G1 X73.03 Y43.05 E1065.602
G1 X76.42 Y46.44 E1065.762
G1 X79.82 Y49.84 E1065.921
G1 X83.21 Y53.23 E1066.081
G1 X86.61 Y56.63 E1066.241
G1 X90 Y60.02 E1066.4
G1 X93.4 Y63.42 E1066.56
G1 X96.79 Y66.81 E1066.72
G1 X100.18 Y70.2 E1066.879
G1 X103.58 Y73.6 E1067.039
G1 X106.97 Y76.99 E1067.199
G1 X110.37 Y80.39 E1067.359
G1 X113.76 Y83.78 E1067.518
G1 X117.16 Y87.18 E1067.678
G1 X120.55 Y90.57 E1067.838
G1 X123.95 Y93.97 E1067.997
G1 X127.34 Y97.36 E1068.157
G1 Y97.92 F3300
G1 X123.92 Y94.5 E1068.318 F2400
G1 X120.49 Y91.08 E1068.479
G1 X117.07 Y87.65 E1068.64
G1 X113.65 Y84.23 E1068.801
G1 X110.23 Y80.81 E1068.962
G1 X106.8 Y77.39 E1069.123
G1 X103.38 Y73.96 E1069.284
G1 X99.96 Y70.54 E1069.445
G1 X96.53 Y67.12 E1069.606
G1 X93.11 Y63.7 E1069.767
G1 X89.69 Y60.27 E1069.928
G1 X86.26 Y56.85 E1070.089
G1 X82.84 Y53.43 E1070.25
G1 X79.42 Y50.01 E1070.411
G1 X75.99 Y46.58 E1070.572
G1 X72.57 Y43.16 E1070.733
G1 X69.15 Y39.74 E1070.894
G1 X65.73 Y36.32 E1071.055
G1 X62.3 Y32.89 E1071.216
G1 X58.88 Y29.47 E1071.377
G1 X58.32 F3300
G1 X61.77 Y32.92 E1071.539 F2400
G1 X65.22 Y36.37 E1071.702
G1 X68.67 Y39.82 E1071.864
G1 X72.12 Y43.27 E1072.026
G1 X75.58 Y46.73 E1072.189
G1 X79.03 Y50.18 E1072.351
G1 X82.48 Y53.63 E1072.513
G1 X85.93 Y57.08 E1072.675
G1 X89.38 Y60.53 E1072.838
G1 X92.83 Y63.98 E1073
G1 X96.28 Y67.43 E1073.162
G1 X99.73 Y70.88 E1073.325
G1 X103.18 Y74.33 E1073.487
G1 X106.63 Y77.78 E1073.649
G1 X110.09 Y81.24 E1073.812
G1 X113.54 Y84.69 E1073.974
G1 X116.99 Y88.14 E1074.136
G1 X120.44 Y91.59 E1074.298
G1 X123.89 Y95.04 E1074.461
G1 X127.34 Y98.49 E1074.623
G1 Y99.06 F3300
G1 X123.84 Y95.56 E1074.787 F2400
G1 X120.35 Y92.07 E1074.952
G1 X116.85 Y88.57 E1075.116
G1 X113.36 Y85.08 E1075.281
G1 X109.86 Y81.58 E1075.445
G1 X106.37 Y78.08 E1075.61
G1 X102.87 Y74.59 E1075.774
G1 X99.38 Y71.09 E1075.939
G1 X95.88 Y67.59 E1076.103
G1 X92.38 Y64.1 E1076.267
G1 X88.89 Y60.6 E1076.432
G1 X85.39 Y57.11 E1076.596
G1 X81.9 Y53.61 E1076.761
G1 X78.4 Y50.11 E1076.925
G1 X74.91 Y46.62 E1077.09
G1 X71.41 Y43.12 E1077.254
G1 X71.68 Y43.96 F3300
G1 X75.16 Y47.44 E1077.418 F2400
G1 X78.64 Y50.92 E1077.581
G1 X82.12 Y54.4 E1077.745
G1 X85.6 Y57.88 E1077.909
G1 X89.07 Y61.35 E1078.072
G1 X92.55 Y64.83 E1078.236
G1 X96.03 Y68.31 E1078.399
G1 X99.51 Y71.79 E1078.563
G1 X102.99 Y75.27 E1078.727
G1 X106.47 Y78.75 E1078.89
G1 X109.95 Y82.23 E1079.054
G1 X113.43 Y85.71 E1079.218
G1 X116.9 Y89.18 E1079.381
G1 X120.38 Y92.66 E1079.545
G1 X123.86 Y96.14 E1079.708
G1 X127.34 Y99.62 E1079.872
G1 Y100.19 F3300
G1 X123.86 Y96.71 E1080.036 F2400
G1 X120.39 Y93.24 E1080.199
G1 X116.91 Y89.76 E1080.363
G1 X113.43 Y86.28 E1080.526
G1 X109.96 Y82.81 E1080.69
G1 X106.48 Y79.33 E1080.853
G1 X103 Y75.85 E1081.017
G1 X99.53 Y72.37 E1081.181
G1 X96.05 Y68.9 E1081.344
G1 X92.57 Y65.42 E1081.508
G1 X89.09 Y61.94 E1081.671
G1 X85.62 Y58.47 E1081.835
G1 X82.14 Y54.99 E1081.998
G1 X78.66 Y51.51 E1082.162
G1 X75.19 Y48.04 E1082.325
G1 X71.71 Y44.56 E1082.489
G1 X71.65 Y45.06 F3300
G1 X75.13 Y48.54 E1082.653 F2400
G1 X78.61 Y52.02 E1082.816
G1 X82.09 Y55.5 E1082.98
G1 X85.57 Y58.98 E1083.144
G1 X89.05 Y62.46 E1083.307
G1 X92.53 Y65.94 E1083.471
G1 X96.01 Y69.42 E1083.635
G1 X99.5 Y72.91 E1083.799
G1 X102.98 Y76.39 E1083.962
G1 X106.46 Y79.87 E1084.126
G1 X109.94 Y83.35 E1084.29
G1 X113.42 Y86.83 E1084.453
G1 X116.9 Y90.31 E1084.617
G1 X120.38 Y93.79 E1084.781
G1 X123.86 Y97.27 E1084.944
G1 X127.34 Y100.75 E1085.108
G1 Y101.32 F3300
G1 X123.85 Y97.83 E1085.272 F2400
G1 X120.36 Y94.34 E1085.437
G1 X116.87 Y90.85 E1085.601
G1 X113.38 Y87.36 E1085.765
G1 X109.88 Y83.86 E1085.929
G1 X106.39 Y80.37 E1086.094
G1 X102.9 Y76.88 E1086.258
G1 X99.41 Y73.39 E1086.422
G1 X95.92 Y69.9 E1086.586
G1 X92.43 Y66.41 E1086.751
G1 X88.94 Y62.92 E1086.915
G1 X85.45 Y59.43 E1087.079
G1 X81.95 Y55.93 E1087.243
G1 X78.46 Y52.44 E1087.408
G1 X74.97 Y48.95 E1087.572
G1 X71.48 Y45.46 E1087.736
G1 X71.28 Y45.83 F3300
G1 X74.78 Y49.33 E1087.901 F2400
G1 X78.29 Y52.84 E1088.066
G1 X81.79 Y56.34 E1088.23
G1 X85.3 Y59.84 E1088.395
G1 X88.8 Y63.35 E1088.56
G1 X92.3 Y66.85 E1088.725
G1 X95.81 Y70.35 E1088.889
G1 X99.31 Y73.86 E1089.054
G1 X102.81 Y77.36 E1089.219
G1 X106.32 Y80.86 E1089.384
G1 X109.82 Y84.36 E1089.548
G1 X113.33 Y87.87 E1089.713
G1 X116.83 Y91.37 E1089.878
G1 X120.33 Y94.87 E1090.043
G1 X123.84 Y98.38 E1090.207
G1 X127.34 Y101.88 E1090.372
G1 Y102.45 F3300
G1 X123.82 Y98.93 E1090.538 F2400
G1 X120.3 Y95.41 E1090.703
G1 X116.78 Y91.89 E1090.869
G1 X113.27 Y88.38 E1091.034
G1 X109.75 Y84.86 E1091.2
G1 X106.23 Y81.34 E1091.365
G1 X102.71 Y77.82 E1091.531
G1 X99.19 Y74.3 E1091.697
G1 X95.67 Y70.78 E1091.862
G1 X92.15 Y67.26 E1092.028
G1 X88.63 Y63.74 E1092.193
G1 X85.12 Y60.23 E1092.359
G1 X81.6 Y56.71 E1092.524
G1 X78.08 Y53.19 E1092.69
G1 X74.56 Y49.67 E1092.855
G1 X71.04 Y46.15 E1093.021
G1 X70.74 Y46.42 F3300
G1 X74.07 Y49.75 E1093.178 F2400
G1 X77.4 Y53.08 E1093.334
G1 X80.73 Y56.41 E1093.491
G1 X84.06 Y59.74 E1093.647
G1 X87.39 Y63.07 E1093.804
G1 X90.72 Y66.4 E1093.961
G1 X94.05 Y69.73 E1094.117
G1 X97.38 Y73.06 E1094.274
G1 X100.7 Y76.38 E1094.43
G1 X104.03 Y79.71 E1094.587
G1 X107.36 Y83.04 E1094.743
G1 X110.69 Y86.37 E1094.9
G1 X114.02 Y89.7 E1095.057
G1 X117.35 Y93.03 E1095.213
G1 X120.68 Y96.36 E1095.37
G1 X124.01 Y99.69 E1095.526
G1 X127.34 Y103.02 E1095.683
G1 Y103.58 F3300
G1 X123.99 Y100.23 E1095.84 F2400
G1 X120.64 Y96.88 E1095.998
G1 X117.3 Y93.54 E1096.155
G1 X113.95 Y90.19 E1096.313
G1 X110.6 Y86.84 E1096.47
G1 X107.25 Y83.49 E1096.628
G1 X103.9 Y80.14 E1096.785
G1 X100.55 Y76.79 E1096.943
G1 X97.21 Y73.45 E1097.1
G1 X93.86 Y70.1 E1097.258
G1 X90.51 Y66.75 E1097.415
G1 X87.16 Y63.4 E1097.573
G1 X83.81 Y60.05 E1097.73
G1 X80.46 Y56.7 E1097.888
G1 X77.12 Y53.36 E1098.045
G1 X73.77 Y50.01 E1098.203
G1 X70.42 Y46.66 E1098.36
G1 X70.02 Y46.83 F3300
G1 X73.39 Y50.2 E1098.519 F2400
G1 X76.76 Y53.57 E1098.677
G1 X80.14 Y56.95 E1098.836
G1 X83.51 Y60.32 E1098.995
G1 X86.88 Y63.69 E1099.153
G1 X90.25 Y67.06 E1099.312
G1 X93.62 Y70.43 E1099.471
G1 X96.99 Y73.8 E1099.629
G1 X100.37 Y77.18 E1099.788
G1 X103.74 Y80.55 E1099.946
G1 X107.11 Y83.92 E1100.105
G1 X110.48 Y87.29 E1100.264
G1 X113.85 Y90.66 E1100.422
G1 X117.22 Y94.03 E1100.581
G1 X120.6 Y97.41 E1100.74
G1 X123.97 Y100.78 E1100.898
G1 X127.34 Y104.15 E1101.057
G1 Y104.71 F3300
G1 X123.94 Y101.31 E1101.217 F2400
G1 X120.54 Y97.91 E1101.377
G1 X117.15 Y94.52 E1101.536
G1 X113.75 Y91.12 E1101.696
G1 X110.35 Y87.72 E1101.856
G1 X106.95 Y84.32 E1102.016
G1 X103.55 Y80.93 E1102.176
G1 X100.15 Y77.53 E1102.336
G1 X96.76 Y74.13 E1102.495
G1 X93.36 Y70.73 E1102.655
G1 X89.96 Y67.34 E1102.815
G1 X86.56 Y63.94 E1102.975
G1 X83.16 Y60.54 E1103.135
G1 X79.76 Y57.14 E1103.295
G1 X76.37 Y53.75 E1103.454
G1 X72.97 Y50.35 E1103.614
G1 X69.57 Y46.95 E1103.774
G1 X69.06 Y47 F3300
G1 X72.49 Y50.43 E1103.935 F2400
G1 X75.92 Y53.86 E1104.096
G1 X79.34 Y57.28 E1104.258
G1 X82.77 Y60.71 E1104.419
G1 X86.2 Y64.14 E1104.58
G1 X89.63 Y67.57 E1104.741
G1 X93.06 Y71 E1104.903
G1 X96.49 Y74.43 E1105.064
G1 X99.91 Y77.85 E1105.225
G1 X103.34 Y81.28 E1105.386
G1 X106.77 Y84.71 E1105.548
G1 X110.2 Y88.14 E1105.709
G1 X113.63 Y91.57 E1105.87
G1 X117.06 Y95 E1106.031
G1 X120.48 Y98.42 E1106.193
G1 X123.91 Y101.85 E1106.354
G1 X127.34 Y105.28 E1106.515
G1 Y105.84 F3300
G1 X123.87 Y102.37 E1106.678 F2400
G1 X120.41 Y98.91 E1106.841
G1 X116.94 Y95.44 E1107.004
G1 X113.47 Y91.97 E1107.167
G1 X110 Y88.5 E1107.331
G1 X106.54 Y85.04 E1107.494
G1 X103.07 Y81.57 E1107.657
G1 X99.6 Y78.1 E1107.82
G1 X96.14 Y74.64 E1107.983
G1 X92.67 Y71.17 E1108.146
G1 X89.2 Y67.7 E1108.309
G1 X85.74 Y64.24 E1108.472
G1 X82.27 Y60.77 E1108.636
G1 X78.8 Y57.3 E1108.799
G1 X75.33 Y53.83 E1108.962
G1 X71.87 Y50.37 E1109.125
G1 X68.4 Y46.9 E1109.288
G1 X66.6 Y45.1 F3300
G1 X63.6 Y42.1 E1109.429 F2400
G1 Y42.67 F3300
G1 X66.95 Y46.02 E1109.587 F2400
G1 X70.31 Y49.38 E1109.745
G1 X73.66 Y52.73 E1109.902
G1 X77.02 Y56.09 E1110.06
G1 X80.37 Y59.44 E1110.218
G1 X83.73 Y62.8 E1110.376
G1 X87.08 Y66.15 E1110.534
G1 X90.44 Y69.51 E1110.691
G1 X93.79 Y72.86 E1110.849
G1 X97.15 Y76.22 E1111.007
G1 X100.5 Y79.57 E1111.165
G1 X103.86 Y82.93 E1111.322
G1 X107.21 Y86.28 E1111.48
G1 X110.57 Y89.64 E1111.638
G1 X113.92 Y92.99 E1111.796
G1 X117.28 Y96.35 E1111.954
G1 X120.63 Y99.7 E1112.111
G1 X123.99 Y103.06 E1112.269
G1 X127.34 Y106.41 E1112.427
G1 Y106.98 F3300
G1 X123.99 Y103.62 E1112.585 F2400
G1 X120.63 Y100.27 E1112.743
G1 X117.28 Y96.91 E1112.9
G1 X113.92 Y93.56 E1113.058
G1 X110.57 Y90.2 E1113.216
G1 X107.21 Y86.85 E1113.374
G1 X103.86 Y83.49 E1113.532
G1 X100.5 Y80.14 E1113.689
G1 X97.15 Y76.78 E1113.847
G1 X93.79 Y73.43 E1114.005
G1 X90.44 Y70.07 E1114.163
G1 X87.08 Y66.72 E1114.32
G1 X83.73 Y63.36 E1114.478
G1 X80.37 Y60.01 E1114.636
G1 X77.02 Y56.65 E1114.794
G1 X73.66 Y53.3 E1114.952
G1 X70.31 Y49.94 E1115.109
G1 X66.95 Y46.59 E1115.267
G1 X63.6 Y43.23 E1115.425
G1 Y43.8 F3300
G1 X66.95 Y47.15 E1115.583 F2400
G1 X70.31 Y50.51 E1115.741
G1 X73.66 Y53.86 E1115.899
G1 X77.02 Y57.22 E1116.056
G1 X80.37 Y60.57 E1116.214
G1 X83.73 Y63.93 E1116.372
G1 X87.08 Y67.28 E1116.53
G1 X90.44 Y70.64 E1116.688
G1 X93.79 Y73.99 E1116.846
G1 X97.15 Y77.35 E1117.003
G1 X100.5 Y80.7 E1117.161
G1 X103.86 Y84.06 E1117.319
G1 X107.21 Y87.41 E1117.477
G1 X110.57 Y90.77 E1117.635
G1 X113.92 Y94.12 E1117.793
G1 X117.28 Y97.48 E1117.95
G1 X120.63 Y100.83 E1118.108
G1 X123.99 Y104.19 E1118.266
G1 X127.34 Y107.54 E1118.424
G1 Y108.11 F3300
G1 X123.99 Y104.75 E1118.582 F2400
G1 X120.63 Y101.4 E1118.74
G1 X117.28 Y98.04 E1118.897
G1 X113.92 Y94.69 E1119.055
G1 X110.57 Y91.33 E1119.213
G1 X107.21 Y87.98 E1119.371
G1 X103.86 Y84.62 E1119.529
G1 X100.5 Y81.27 E1119.686
G1 X97.15 Y77.91 E1119.844
G1 X93.79 Y74.56 E1120.002
G1 X90.44 Y71.2 E1120.16
G1 X87.08 Y67.85 E1120.317
G1 X83.73 Y64.49 E1120.475
G1 X80.37 Y61.14 E1120.633
G1 X77.02 Y57.78 E1120.791
G1 X73.66 Y54.43 E1120.949
G1 X70.31 Y51.07 E1121.106
G1 X66.95 Y47.72 E1121.264
G1 X63.6 Y44.36 E1121.422
G1 Y44.93 F3300
G1 X66.95 Y48.28 E1121.58 F2400
G1 X70.31 Y51.64 E1121.738
G1 X73.66 Y54.99 E1121.895
G1 X77.02 Y58.35 E1122.053
G1 X80.37 Y61.7 E1122.211
G1 X83.73 Y65.06 E1122.369
G1 X87.08 Y68.41 E1122.527
G1 X90.44 Y71.77 E1122.684
G1 X93.79 Y75.12 E1122.842
G1 X97.15 Y78.48 E1123
G1 X100.5 Y81.83 E1123.158
G1 X103.86 Y85.19 E1123.315
G1 X107.21 Y88.54 E1123.473
G1 X110.57 Y91.9 E1123.631
G1 X113.92 Y95.25 E1123.789
G1 X117.28 Y98.61 E1123.947
G1 X120.63 Y101.96 E1124.104
G1 X123.99 Y105.32 E1124.262
G1 X127.34 Y108.67 E1124.42
G1 Y109.24 F3300
G1 X123.99 Y105.89 E1124.578 F2400
G1 X120.63 Y102.53 E1124.736
G1 X117.28 Y99.18 E1124.893
G1 X113.92 Y95.82 E1125.051
G1 X110.57 Y92.47 E1125.209
G1 X107.21 Y89.11 E1125.367
G1 X103.86 Y85.76 E1125.525
G1 X100.5 Y82.4 E1125.682
G1 X97.15 Y79.05 E1125.84
G1 X93.79 Y75.69 E1125.998
G1 X90.44 Y72.34 E1126.156
G1 X87.08 Y68.98 E1126.313
G1 X83.73 Y65.63 E1126.471
G1 X80.37 Y62.27 E1126.629
G1 X77.02 Y58.92 E1126.787
G1 X73.66 Y55.56 E1126.945
G1 X70.31 Y52.21 E1127.102
G1 X66.95 Y48.85 E1127.26
G1 X63.6 Y45.5 E1127.418
G1 Y46.06 F3300
G1 X66.95 Y49.41 E1127.576 F2400
G1 X70.31 Y52.77 E1127.734
G1 X73.66 Y56.12 E1127.892
G1 X77.02 Y59.48 E1128.049
G1 X80.37 Y62.83 E1128.207
G1 X83.73 Y66.19 E1128.365
G1 X87.08 Y69.54 E1128.523
G1 X90.44 Y72.9 E1128.681
G1 X93.79 Y76.25 E1128.839
G1 X97.15 Y79.61 E1128.996
G1 X100.5 Y82.96 E1129.154
G1 X103.86 Y86.32 E1129.312
G1 X107.21 Y89.67 E1129.47
G1 X110.57 Y93.03 E1129.628
G1 X113.92 Y96.38 E1129.786
G1 X117.28 Y99.74 E1129.943
G1 X120.63 Y103.09 E1130.101
G1 X123.99 Y106.45 E1130.259
G1 X127.34 Y109.8 E1130.417
G1 Y110.37 F3300
G1 X123.99 Y107.02 E1130.575 F2400
G1 X120.63 Y103.66 E1130.733
G1 X117.28 Y100.31 E1130.89
G1 X113.92 Y96.95 E1131.048
G1 X110.57 Y93.6 E1131.206
G1 X107.21 Y90.24 E1131.364
G1 X103.86 Y86.89 E1131.522
G1 X100.5 Y83.53 E1131.679
G1 X97.15 Y80.18 E1131.837
G1 X93.79 Y76.82 E1131.995
G1 X90.44 Y73.47 E1132.153
G1 X87.08 Y70.11 E1132.31
G1 X83.73 Y66.76 E1132.468
G1 X80.37 Y63.4 E1132.626
G1 X77.02 Y60.05 E1132.784
G1 X73.66 Y56.69 E1132.942
G1 X70.31 Y53.34 E1133.099
G1 X66.95 Y49.98 E1133.257
G1 X63.6 Y46.63 E1133.415
G1 Y47.19 F3300
G1 X66.95 Y50.55 E1133.573 F2400
G1 X70.31 Y53.9 E1133.731
G1 X73.66 Y57.26 E1133.888
G1 X77.02 Y60.61 E1134.046
G1 X80.37 Y63.97 E1134.204
G1 X83.73 Y67.32 E1134.362
G1 X87.08 Y70.68 E1134.52
G1 X90.44 Y74.03 E1134.677
G1 X93.79 Y77.39 E1134.835
G1 X97.15 Y80.74 E1134.993
G1 X100.5 Y84.1 E1135.151
G1 X103.86 Y87.45 E1135.308
G1 X107.21 Y90.81 E1135.466
G1 X110.57 Y94.16 E1135.624
G1 X113.92 Y97.52 E1135.782
G1 X117.28 Y100.87 E1135.94
G1 X120.63 Y104.23 E1136.097
G1 X123.99 Y107.58 E1136.255
G1 X127.34 Y110.94 E1136.413
G1 Y111.5 F3300
G1 X123.99 Y108.15 E1136.571 F2400
G1 X120.63 Y104.79 E1136.729
G1 X117.28 Y101.44 E1136.886
G1 X113.92 Y98.08 E1137.044
G1 X110.57 Y94.73 E1137.202
G1 X107.21 Y91.37 E1137.36
G1 X103.86 Y88.02 E1137.518
G1 X100.5 Y84.66 E1137.675
G1 X97.15 Y81.31 E1137.833
G1 X93.79 Y77.95 E1137.991
G1 X90.44 Y74.6 E1138.149
G1 X87.08 Y71.24 E1138.306
G1 X83.73 Y67.89 E1138.464
G1 X80.37 Y64.53 E1138.622
G1 X77.02 Y61.18 E1138.78
G1 X73.66 Y57.82 E1138.938
G1 X70.31 Y54.47 E1139.095
G1 X66.95 Y51.11 E1139.253
G1 X63.6 Y47.76 E1139.411
G1 Y48.32 F3300
G1 X66.95 Y51.68 E1139.569 F2400
G1 X70.31 Y55.03 E1139.727
G1 X73.66 Y58.39 E1139.885
G1 X77.02 Y61.74 E1140.042
G1 X80.37 Y65.1 E1140.2
G1 X83.73 Y68.45 E1140.358
G1 X87.08 Y71.81 E1140.516
G1 X90.44 Y75.16 E1140.674
G1 X93.79 Y78.52 E1140.832
G1 X97.15 Y81.87 E1140.989
G1 X100.5 Y85.23 E1141.147
G1 X103.86 Y88.58 E1141.305
G1 X107.21 Y91.94 E1141.463
G1 X110.57 Y95.29 E1141.621
G1 X113.92 Y98.65 E1141.779
G1 X117.28 Y102 E1141.936
G1 X120.63 Y105.36 E1142.094
G1 X123.99 Y108.71 E1142.252
G1 X127.34 Y112.07 E1142.41
G1 Y112.63 F3300
G1 X123.99 Y109.28 E1142.568 F2400
G1 X120.63 Y105.92 E1142.726
G1 X117.28 Y102.57 E1142.883
G1 X113.92 Y99.21 E1143.041
G1 X110.57 Y95.86 E1143.199
G1 X107.21 Y92.5 E1143.357
G1 X103.86 Y89.15 E1143.515
G1 X100.5 Y85.79 E1143.672
G1 X97.15 Y82.44 E1143.83
G1 X93.79 Y79.08 E1143.988
G1 X90.44 Y75.73 E1144.146
G1 X87.08 Y72.37 E1144.303
G1 X83.73 Y69.02 E1144.461
G1 X80.37 Y65.66 E1144.619
G1 X77.02 Y62.31 E1144.777
G1 X73.66 Y58.95 E1144.935
G1 X70.31 Y55.6 E1145.092
G1 X66.95 Y52.24 E1145.25
G1 X63.6 Y48.89 E1145.408
G1 Y49.46 F3300
G1 X66.95 Y52.81 E1145.566 F2400
G1 X70.31 Y56.17 E1145.724
G1 X73.66 Y59.52 E1145.881
G1 X77.02 Y62.88 E1146.039
G1 X80.37 Y66.23 E1146.197
G1 X83.73 Y69.59 E1146.355
G1 X87.08 Y72.94 E1146.513
G1 X90.44 Y76.3 E1146.67
G1 X93.79 Y79.65 E1146.828
G1 X97.15 Y83.01 E1146.986
G1 X100.5 Y86.36 E1147.144
G1 X103.86 Y89.72 E1147.301
G1 X107.21 Y93.07 E1147.459
G1 X110.57 Y96.43 E1147.617
G1 X113.92 Y99.78 E1147.775
G1 X117.28 Y103.14 E1147.933
G1 X120.63 Y106.49 E1148.09
G1 X123.99 Y109.85 E1148.248
G1 X127.34 Y113.2 E1148.406
G1 Y113.76 F3300
G1 X123.99 Y110.41 E1148.564 F2400
G1 X120.63 Y107.05 E1148.722
G1 X117.28 Y103.7 E1148.88
G1 X113.92 Y100.34 E1149.037
G1 X110.57 Y96.99 E1149.195
G1 X107.21 Y93.63 E1149.353
G1 X103.86 Y90.28 E1149.511
G1 X100.5 Y86.92 E1149.669
G1 X97.15 Y83.57 E1149.827
G1 X93.79 Y80.21 E1149.984
G1 X90.44 Y76.86 E1150.142
G1 X87.08 Y73.5 E1150.3
G1 X83.73 Y70.15 E1150.458
G1 X80.37 Y66.79 E1150.616
G1 X77.02 Y63.44 E1150.774
G1 X73.66 Y60.08 E1150.931
G1 X70.31 Y56.73 E1151.089
G1 X66.95 Y53.37 E1151.247
G1 X63.6 Y50.02 E1151.405
G1 Y50.59 F3300
G1 X66.95 Y53.94 E1151.563 F2400
G1 X70.31 Y57.3 E1151.721
G1 X73.66 Y60.65 E1151.878
G1 X77.02 Y64.01 E1152.036
G1 X80.37 Y67.36 E1152.194
G1 X83.73 Y70.72 E1152.352
G1 X87.08 Y74.07 E1152.51
G1 X90.44 Y77.43 E1152.667
G1 X93.79 Y80.78 E1152.825
G1 X97.15 Y84.14 E1152.983
G1 X100.5 Y87.49 E1153.141
G1 X103.86 Y90.85 E1153.298
G1 X107.21 Y94.2 E1153.456
G1 X110.57 Y97.56 E1153.614
G1 X113.92 Y100.91 E1153.772
G1 X117.28 Y104.27 E1153.93
G1 X120.63 Y107.62 E1154.087
G1 X123.99 Y110.98 E1154.245
G1 X127.34 Y114.33 E1154.403
G1 Y114.89 F3300
G1 X123.99 Y111.54 E1154.561 F2400
G1 X120.63 Y108.18 E1154.719
