; generated by PrusaSlicer 2.4.0+win64 on 2022-04-23 at 04:44:25 UTC

; 

; external perimeters extrusion width = 0.60mm
; perimeters extrusion width = 0.50mm
; infill extrusion width = 0.50mm
; solid infill extrusion width = 0.50mm
; top infill extrusion width = 0.45mm
; first layer extrusion width = 0.42mm

; external perimeters extrusion width = 0.60mm
; perimeters extrusion width = 0.50mm
; infill extrusion width = 0.50mm
; solid infill extrusion width = 0.50mm
; top infill extrusion width = 0.45mm
; first layer extrusion width = 0.42mm

M73 P0 R17
M73 Q0 S17
M201 X1000 Y1000 Z200 E5000 ; sets maximum accelerations, mm/sec^2
M203 X200 Y200 Z12 E120 ; sets maximum feedrates, mm/sec
M204 P1250 R1250 T1250 ; sets acceleration (P, T) and retract acceleration (R), mm/sec^2
M205 X8.00 Y8.00 Z0.40 E4.50 ; sets the jerk limits, mm/sec
M205 S0 T0 ; sets the minimum extruding and travel feed rate, mm/sec
M107
;TYPE:Custom
M862.3 P "MK3S" ; printer model check
M862.1 P0.4 ; nozzle diameter check
M115 U3.10.1 ; tell printer latest fw version
G90 ; use absolute coordinates
M83 ; extruder relative mode
M104 S215 ; set extruder temp
M140 S60 ; set bed temp
M190 S60 ; wait for bed temp
M109 S215 ; wait for extruder temp
G28 W ; home all without mesh bed level
G80 ; mesh bed leveling
G1 Z0.2 F720
G1 Y-3 F1000 ; go outside print area
G92 E0
G1 X60 E9 F1000 ; intro line
G1 X100 E12.5 F1000 ; intro line
G92 E0
M221 S95

; Don't change E values below. Excessive value can damage the printer.

M907 E538 ; set extruder motor current
G21 ; set units to millimeters
G90 ; use absolute coordinates
M83 ; use relative distances for extrusion
M900 K0.05 ; Filament gcode LA 1.5
M900 K30 ; Filament gcode LA 1.0
M107
;LAYER_CHANGE
;Z:0.2
;HEIGHT:0.2
;BEFORE_LAYER_CHANGE
G92 E0.0
;0.2


G1 E-.8 F2100
G1 Z.4 F720
;AFTER_LAYER_CHANGE
;0.2
G1 X118.238 Y98.116 F10800
G1 Z.2 F720
G1 E.8 F2100
M204 S800
;TYPE:Skirt/Brim
;WIDTH:0.42
G1 F1200
G1 X119.343 Y97.09 E.04725
G1 X120.751 Y96.162 E.0529
G1 X122.424 Y95.448 E.05702
G1 X124.107 Y95.064 E.05412
G1 X141.732 Y92.942 E.55662
G1 X142.623 Y92.981 E.02798
G1 X154.329 Y95.424 E.37492
G1 X155.602 Y96.066 E.0447
G1 X156.84 Y97.173 E.05209
G1 X157.621 Y98.366 E.0447
G1 X161.358 Y109.725 E.37492
G1 X161.438 Y111.148 E.0447
G1 X161.099 Y112.774 E.05209
G1 X160.456 Y114.047 E.0447
M73 Q1 S17
G1 X152.488 Y122.963 E.37492
G1 X151.295 Y123.744 E.0447
M73 P1 R17
G1 X149.717 Y124.263 E.05209
G1 X148.293 Y124.343 E.0447
G1 X136.588 Y121.9 E.37492
G1 X135.859 Y121.636 E.0243
M73 P1 R16
G1 X120.881 Y113.683 E.53172
G1 X119.806 Y113.012 E.03974
G1 X118.517 Y111.893 E.05351
G1 X117.46 Y110.574 E.05299
G1 X116.649 Y109.075 E.05345
G1 X116.132 Y107.466 E.05297
G1 X115.79 Y105.71 E.0561
G1 X115.722 Y104.174 E.04821
G1 X115.904 Y102.662 E.04775
G1 X116.43 Y100.937 E.05653
G1 X117.146 Y99.549 E.04899
G1 X118.202 Y98.163 E.05461
M204 S1000
G1 X118.501 Y98.391 F10800
M204 S800
G1 F1200
G1 X119.646 Y97.333 E.04889
G1 X120.969 Y96.473 E.04948
G1 X122.542 Y95.807 E.05357
G1 X124.158 Y95.438 E.05197
G1 X141.777 Y93.317 E.55642
G1 X142.546 Y93.35 E.02415
M73 Q1 S16
G1 X154.252 Y95.793 E.37492
G1 X155.35 Y96.347 E.03858
G1 X156.589 Y97.454 E.05209
G1 X157.263 Y98.484 E.03858
G1 X161 Y109.842 E.37492
G1 X161.069 Y111.071 E.03858
G1 X160.729 Y112.697 E.05209
G1 X160.175 Y113.796 E.03858
G1 X152.206 Y122.711 E.37492
G1 X151.177 Y123.385 E.03858
G1 X149.599 Y123.905 E.05209
G1 X148.37 Y123.973 E.03858
G1 X136.665 Y121.53 E.37492
G1 X136.036 Y121.303 E.02097
G1 X121.161 Y113.405 E.52805
G1 X120.141 Y112.788 E.03739
G1 X118.787 Y111.629 E.05588
G1 X117.775 Y110.366 E.05074
G1 X116.996 Y108.927 E.0513
G1 X116.512 Y107.436 E.04917
G1 X116.165 Y105.665 E.05658
G1 X116.099 Y104.192 E.04624
G1 X116.272 Y102.744 E.04571
G1 X116.78 Y101.078 E.05463
G1 X117.463 Y99.755 E.04668
G1 X118.465 Y98.439 E.05186
M204 S1000
;WIPE_START
G1 F8640
G1 X119.646 Y97.333 E-.37366
G1 X120.969 Y96.473 E-.36437
G1 X121.056 Y96.436 E-.02197
;WIPE_END
G1 E-.04 F2100
G1 Z.6 F720
G1 X120.624 Y100.402 F10800
G1 Z.2 F720
G1 E.8 F2100
M204 S800
G1 F1200
G1 X121.098 Y99.93 E.02096
G1 X121.611 Y99.516 E.02069
G1 X122.114 Y99.185 E.01887
G1 X122.795 Y98.837 E.02397
G1 X123.281 Y98.645 E.0164
G1 X123.919 Y98.458 E.02085
G1 X124.521 Y98.342 E.01923
G1 X125.152 Y98.281 E.01987
G1 X125.779 Y98.28 E.01965
G1 X126.403 Y98.337 E.01964
G1 X127.008 Y98.45 E.0193
G1 X127.625 Y98.625 E.02012
G1 X128.219 Y98.853 E.01994
G1 X128.781 Y99.13 E.01963
G1 X129.322 Y99.461 E.01989
G1 X129.821 Y99.831 E.01948
G1 X130.299 Y100.258 E.0201
G1 X130.73 Y100.72 E.01982
G1 X131.143 Y101.251 E.02108
M73 Q2 S16
G1 X131.473 Y101.766 E.01918
G1 X131.806 Y102.409 E.02269
G1 X132.215 Y103.613 E.03989
G1 X132.268 Y104.849 E.03877
G1 X132.206 Y105.526 E.02132
G1 X132.083 Y106.184 E.02097
G1 X131.836 Y107.001 E.02676
M73 P2 R16
G1 X131.632 Y107.501 E.01695
G1 X131.251 Y108.219 E.02548
G1 X130.968 Y108.652 E.01622
G1 X130.56 Y109.172 E.02073
G1 X130.091 Y109.667 E.02138
G1 X129.509 Y110.162 E.02395
G1 X129.009 Y110.506 E.01903
G1 X128.447 Y110.821 E.02022
G1 X127.843 Y111.087 E.02068
G1 X127.238 Y111.287 E.01998
G1 X126.601 Y111.431 E.02047
G1 X125.823 Y111.52 E.02457
G1 X125.264 Y111.526 E.01752
G1 X124.617 Y111.472 E.02036
G1 X123.989 Y111.355 E.02005
G1 X123.276 Y111.143 E.02329
G1 X122.629 Y110.868 E.02206
G1 X122.076 Y110.56 E.01984
G1 X121.509 Y110.159 E.02178
G1 X121.009 Y109.715 E.02096
G1 X120.573 Y109.235 E.02035
G1 X120.226 Y108.768 E.01823
G1 X119.937 Y108.291 E.01748
G1 X119.69 Y107.785 E.01767
G1 X119.492 Y107.252 E.01783
G1 X119.323 Y106.584 E.02159
G1 X119.272 Y106.235 E.01106
G1 X119.205 Y106.009 E.00739
G1 X119.095 Y105.481 E.01691
G1 X119.033 Y104.935 E.01723
G1 X119.024 Y104.258 E.02125
G1 X119.072 Y103.736 E.01643
G1 X119.207 Y103.028 E.02258
G1 X119.385 Y102.452 E.01891
G1 X119.608 Y101.918 E.01813
G1 X119.904 Y101.37 E.01953
G1 X120.255 Y100.85 E.01968
G1 X120.586 Y100.448 E.01633
M204 S1000
G1 X120.877 Y100.687 F10800
M204 S800
G1 F1200
G1 X121.342 Y100.217 E.02074
G1 X121.841 Y99.815 E.02008
G1 X122.312 Y99.506 E.01767
G1 X122.958 Y99.177 E.02271
G1 X123.411 Y98.999 E.01528
G1 X124.016 Y98.822 E.01977
G1 X124.583 Y98.714 E.0181
G1 X125.179 Y98.657 E.01877
G1 X125.754 Y98.656 E.01802
G1 X126.343 Y98.709 E.01855
G1 X126.914 Y98.815 E.01821
G1 X127.499 Y98.98 E.01904
G1 X128.061 Y99.195 E.01887
G1 X128.592 Y99.457 E.01856
G1 X129.105 Y99.769 E.01883
G1 X129.577 Y100.119 E.01842
G1 X130.03 Y100.522 E.01902
G1 X130.438 Y100.959 E.01874
G1 X130.83 Y101.463 E.02003
G1 X131.143 Y101.949 E.01812
G1 X131.455 Y102.546 E.02113
G1 X131.84 Y103.658 E.03689
G1 X131.891 Y104.828 E.03671
G1 X131.833 Y105.466 E.02009
G1 X131.714 Y106.104 E.02036
G1 X131.478 Y106.882 E.0255
G1 X131.287 Y107.349 E.01582
G1 X130.922 Y108.034 E.02433
G1 X130.657 Y108.439 E.01517
G1 X130.28 Y108.919 E.01915
G1 X129.825 Y109.4 E.02077
G1 X129.273 Y109.867 E.02268
G1 X128.803 Y110.19 E.01787
G1 X128.271 Y110.488 E.01912
G1 X127.716 Y110.732 E.01901
G1 X127.145 Y110.921 E.01886
G1 X126.548 Y111.058 E.0192
G1 X125.79 Y111.144 E.02393
G1 X125.286 Y111.15 E.01579
G1 X124.676 Y111.099 E.0192
G1 X124.086 Y110.99 E.01882
G1 X123.413 Y110.791 E.02199
G1 X122.803 Y110.534 E.02077
G1 X122.285 Y110.246 E.01857
G1 X121.735 Y109.857 E.02112
G1 X121.268 Y109.441 E.01964
G1 X120.859 Y108.989 E.0191
G1 X120.535 Y108.551 E.01708
G1 X120.264 Y108.104 E.01638
G1 X120.034 Y107.629 E.01656
G1 X119.85 Y107.13 E.01665
G1 X119.691 Y106.502 E.02032
G1 X119.642 Y106.154 E.01102
G1 X119.572 Y105.923 E.00756
G1 X119.468 Y105.43 E.01582
G1 X119.41 Y104.92 E.01607
G1 X119.401 Y104.281 E.02005
G1 X119.444 Y103.797 E.01524
G1 X119.575 Y103.11 E.02194
G1 X119.742 Y102.573 E.01763
G1 X119.952 Y102.073 E.01699
G1 X120.231 Y101.558 E.01837
G1 X120.552 Y101.083 E.01799
G1 X120.839 Y100.734 E.01416
M204 S1000
G1 X121.13 Y100.972 F10800
M204 S800
G1 F1200
G1 X121.587 Y100.504 E.02051
G1 X122.07 Y100.115 E.01945
G1 X122.509 Y99.827 E.01646
G1 X123.12 Y99.518 E.02145
G1 X123.54 Y99.353 E.01416
G1 X124.113 Y99.187 E.01869
G1 X124.644 Y99.086 E.01697
G1 X125.205 Y99.033 E.01767
G1 X125.729 Y99.032 E.01642
G1 X126.284 Y99.082 E.01745
G1 X126.821 Y99.18 E.01713
G1 X127.372 Y99.335 E.01796
G1 X127.902 Y99.538 E.0178
G1 X128.403 Y99.783 E.01749
G1 X128.887 Y100.077 E.01776
G1 X129.333 Y100.406 E.01736
G1 X129.761 Y100.786 E.01795
G1 X130.146 Y101.198 E.01767
G1 X130.518 Y101.675 E.01897
G1 X130.813 Y102.131 E.01703
G1 X131.114 Y102.708 E.0204
G1 X131.474 Y103.754 E.03468
G1 X131.514 Y104.806 E.03301
G1 X131.461 Y105.405 E.01888
G1 X131.345 Y106.024 E.01974
G1 X131.12 Y106.763 E.02422
G1 X130.942 Y107.196 E.01468
G1 X130.594 Y107.849 E.02319
G1 X130.346 Y108.225 E.01411
G1 X130.001 Y108.667 E.01759
G1 X129.558 Y109.133 E.02016
G1 X129.037 Y109.573 E.02139
G1 X128.597 Y109.874 E.01671
G1 X128.095 Y110.154 E.01802
G1 X127.588 Y110.377 E.01736
G1 X127.052 Y110.556 E.01773
G1 X126.475 Y110.688 E.01856
G1 X125.758 Y110.768 E.02263
G1 X125.308 Y110.773 E.01409
G1 X124.716 Y110.724 E.01863
G1 X124.182 Y110.626 E.01702
G1 X123.549 Y110.44 E.0207
G1 X122.976 Y110.199 E.01949
G1 X122.494 Y109.932 E.01727
G1 X121.962 Y109.556 E.02045
G1 X121.527 Y109.166 E.0183
G1 X121.145 Y108.743 E.01786
G1 X120.844 Y108.334 E.01593
G1 X120.592 Y107.917 E.01529
G1 X120.377 Y107.473 E.01546
G1 X120.207 Y107.01 E.01547
G1 X120.059 Y106.421 E.01905
G1 X120.011 Y106.073 E.011
G1 X119.939 Y105.837 E.00775
G1 X119.842 Y105.377 E.01473
G1 X119.787 Y104.905 E.01491
G1 X119.777 Y104.304 E.01884
G1 X119.816 Y103.858 E.01405
G1 X119.939 Y103.211 E.02063
G1 X120.099 Y102.693 E.01699
G1 X120.296 Y102.228 E.01583
G1 X120.549 Y101.761 E.01666
G1 X120.849 Y101.314 E.01688
G1 X121.092 Y101.018 E.012
M204 S1000
G1 X121.384 Y101.256 F10800
M204 S800
G1 F1200
G1 X121.832 Y100.791 E.02027
G1 X122.299 Y100.414 E.01882
G1 X122.706 Y100.149 E.01523
G1 X123.281 Y99.859 E.02019
G1 X123.669 Y99.708 E.01305
G1 X124.209 Y99.552 E.01762
G1 X124.705 Y99.458 E.01584
G1 X125.232 Y99.41 E.01657
G1 X125.704 Y99.409 E.01482
G1 X126.241 Y99.456 E.0169
G1 X126.743 Y99.55 E.01602
G1 X127.246 Y99.691 E.01637
G1 X127.745 Y99.88 E.01673
G1 X128.216 Y100.11 E.01642
G1 X128.671 Y100.386 E.01669
G1 X129.089 Y100.694 E.01629
G1 X129.492 Y101.051 E.01687
G1 X129.854 Y101.437 E.0166
G1 X130.206 Y101.887 E.01791
G1 X130.483 Y102.314 E.01597
G1 X130.763 Y102.847 E.01887
G1 X131.099 Y103.798 E.03161
G1 X131.138 Y104.785 E.03098
G1 X131.089 Y105.345 E.01764
G1 X130.977 Y105.945 E.01911
G1 X130.762 Y106.644 E.02294
G1 X130.597 Y107.043 E.01354
G1 X130.265 Y107.663 E.02205
G1 X130.036 Y108.011 E.01306
G1 X129.721 Y108.414 E.01604
G1 X129.292 Y108.866 E.01953
G1 X128.802 Y109.278 E.02009
G1 X128.392 Y109.558 E.01555
G1 X127.92 Y109.82 E.01693
G1 X127.445 Y110.028 E.01625
G1 X126.942 Y110.195 E.01662
G1 X126.402 Y110.318 E.01737
G1 X125.726 Y110.392 E.02133
G1 X125.314 Y110.396 E.01292
G1 X124.757 Y110.349 E.01752
G1 X124.279 Y110.261 E.01525
G1 X123.685 Y110.088 E.01941
G1 X123.149 Y109.864 E.0182
G1 X122.703 Y109.617 E.01598
G1 X122.204 Y109.267 E.01911
G1 X121.8 Y108.906 E.01699
G1 X121.432 Y108.498 E.01723
G1 X121.153 Y108.119 E.01476
G1 X120.92 Y107.73 E.01419
G1 X120.721 Y107.318 E.01435
G1 X120.565 Y106.89 E.01429
G1 X120.428 Y106.34 E.01777
G1 X120.381 Y105.992 E.01101
G1 X120.306 Y105.749 E.00797
G1 X120.215 Y105.324 E.01364
G1 X120.164 Y104.888 E.01375
G1 X120.154 Y104.326 E.01764
G1 X120.189 Y103.918 E.01283
G1 X120.307 Y103.292 E.01997
G1 X120.456 Y102.815 E.01567
G1 X120.639 Y102.384 E.01468
G1 X120.876 Y101.949 E.01553
G1 X121.147 Y101.546 E.01524
G1 X121.346 Y101.303 E.00984
M204 S1000
G1 X121.638 Y101.54 F10800
M204 S800
G1 F1200
G1 X122.077 Y101.078 E.02001
G1 X122.528 Y100.714 E.01817
G1 X122.903 Y100.471 E.01399
G1 X123.442 Y100.2 E.01893
G1 X123.797 Y100.063 E.01193
G1 X124.304 Y99.916 E.01656
G1 X124.765 Y99.83 E.0147
G1 X125.257 Y99.786 E.01548
G1 X125.68 Y99.785 E.01326
G1 X126.182 Y99.829 E.0158
G1 X126.651 Y99.915 E.01494
G1 X127.121 Y100.046 E.01531
G1 X127.588 Y100.223 E.01566
G1 X128.028 Y100.438 E.01535
G1 X128.455 Y100.695 E.01562
G1 X128.846 Y100.983 E.01523
G1 X129.224 Y101.316 E.01579
G1 X129.563 Y101.676 E.01552
G1 X129.895 Y102.1 E.01686
G1 X130.154 Y102.499 E.01492
G1 X130.414 Y102.989 E.01739
G1 X130.723 Y103.843 E.02849
G1 X130.761 Y104.765 E.02893
G1 X130.716 Y105.285 E.01639
G1 X130.608 Y105.865 E.01847
G1 X130.405 Y106.524 E.02163
G1 X130.253 Y106.889 E.0124
G1 X129.937 Y107.477 E.02091
G1 X129.726 Y107.796 E.01201
G1 X129.441 Y108.161 E.01451
G1 X129.026 Y108.598 E.01891
G1 X128.567 Y108.983 E.01877
G1 X128.187 Y109.241 E.0144
G1 X127.746 Y109.486 E.01584
G1 X127.303 Y109.679 E.01515
G1 X126.833 Y109.834 E.01551
G1 X126.33 Y109.948 E.01617
G1 X125.695 Y110.016 E.02001
G1 X125.32 Y110.019 E.01176
G1 X124.798 Y109.974 E.01642
G1 X124.374 Y109.896 E.01352
G1 X123.819 Y109.735 E.01812
G1 X123.321 Y109.528 E.01692
G1 X122.911 Y109.303 E.01467
G1 X122.431 Y108.965 E.01842
G1 X122.059 Y108.632 E.01563
G1 X121.719 Y108.253 E.01597
G1 X121.463 Y107.903 E.0136
G1 X121.248 Y107.545 E.0131
G1 X121.066 Y107.164 E.01324
G1 X120.923 Y106.771 E.0131
G1 X120.796 Y106.26 E.01649
G1 X120.751 Y105.911 E.01105
G1 X120.673 Y105.661 E.00822
G1 X120.588 Y105.27 E.01255
G1 X120.541 Y104.871 E.01258
G1 X120.53 Y104.347 E.01644
G1 X120.561 Y103.978 E.01162
G1 X120.67 Y103.394 E.01861
G1 X120.813 Y102.937 E.01502
G1 X120.982 Y102.541 E.01351
G1 X121.194 Y102.152 E.01387
G1 X121.445 Y101.777 E.01416
G1 X121.6 Y101.587 E.00768
M204 S1000
G1 X121.893 Y101.824 F10800
M204 S800
G1 F1200
G1 X122.323 Y101.364 E.01974
G1 X122.757 Y101.014 E.0175
G1 X123.098 Y100.794 E.01273
G1 X123.602 Y100.542 E.01768
G1 X123.924 Y100.418 E.01081
G1 X124.399 Y100.281 E.0155
G1 X124.825 Y100.203 E.01356
G1 X125.282 Y100.162 E.0144
G1 X125.656 Y100.161 E.01172
G1 X126.123 Y100.201 E.0147
G1 X126.558 Y100.281 E.01386
G1 X126.996 Y100.402 E.01424
G1 X127.431 Y100.567 E.01459
G1 X127.841 Y100.765 E.01429
G1 X128.239 Y101.005 E.01456
G1 X128.604 Y101.272 E.01417
G1 X128.956 Y101.582 E.01471
G1 X129.272 Y101.916 E.01444
G1 X129.584 Y102.313 E.01581
G1 X129.825 Y102.683 E.01385
G1 X130.074 Y103.153 E.01669
G1 X130.358 Y103.942 E.02629
G1 X130.384 Y104.743 E.02514
G1 X130.344 Y105.226 E.01517
G1 X130.239 Y105.785 E.01782
G1 X130.048 Y106.403 E.02031
G1 X129.909 Y106.734 E.01126
G1 X129.61 Y107.29 E.01979
G1 X129.416 Y107.581 E.01096
G1 X129.161 Y107.908 E.01299
G1 X128.76 Y108.331 E.01827
G1 X128.333 Y108.687 E.01743
G1 X127.983 Y108.924 E.01325
G1 X127.571 Y109.151 E.01475
G1 X127.161 Y109.33 E.01404
G1 X126.724 Y109.473 E.0144
G1 X126.259 Y109.577 E.01497
G1 X125.665 Y109.64 E.0187
G1 X125.328 Y109.642 E.01059
G1 X124.84 Y109.599 E.01534
G1 X124.47 Y109.531 E.01179
G1 X123.935 Y109.376 E.01749
G1 X123.493 Y109.192 E.015
G1 X123.119 Y108.988 E.01335
G1 X122.657 Y108.663 E.01772
G1 X122.319 Y108.359 E.01425
G1 X122.006 Y108.009 E.01472
G1 X121.772 Y107.688 E.01245
G1 X121.584 Y107.373 E.01152
G1 X121.416 Y107.025 E.01212
G1 X121.286 Y106.67 E.01184
G1 X121.165 Y106.181 E.01581
G1 X121.121 Y105.83 E.01108
G1 X121.039 Y105.572 E.0085
G1 X120.961 Y105.215 E.01145
G1 X120.917 Y104.853 E.01141
G1 X120.907 Y104.367 E.01525
G1 X120.933 Y104.037 E.01038
G1 X121.039 Y103.475 E.01793
G1 X121.17 Y103.06 E.01365
G1 X121.325 Y102.698 E.01236
G1 X121.52 Y102.34 E.01276
G1 X121.855 Y101.871 E.01808
M204 S1000
G1 X122.148 Y102.107 F10800
M204 S800
G1 F1200
G1 X122.272 Y101.953 E.0062
G1 X122.568 Y101.651 E.01327
M73 Q3 S16
G1 X122.986 Y101.314 E.01682
G1 X123.293 Y101.117 E.01144
G1 X123.762 Y100.883 E.01642
G1 X124.051 Y100.773 E.00969
G1 X124.494 Y100.647 E.01445
G1 X124.883 Y100.575 E.01242
G1 X125.307 Y100.538 E.01333
G1 X125.632 Y100.538 E.0102
G1 X126.082 Y100.576 E.01415
G1 X126.481 Y100.65 E.01273
G1 X126.886 Y100.763 E.01319
G1 X127.275 Y100.91 E.01303
G1 X127.655 Y101.093 E.01323
G1 X128.024 Y101.314 E.01349
M73 P3 R16
G1 X128.361 Y101.561 E.0131
G1 X128.688 Y101.848 E.01364
G1 X128.982 Y102.157 E.01336
G1 X129.273 Y102.527 E.01476
