; generated by PrusaSlicer 2.4.0+win64 on 2022-04-14 at 03:06:48 UTC

; 

; external perimeters extrusion width = 0.60mm
; perimeters extrusion width = 0.50mm
; infill extrusion width = 0.50mm
; solid infill extrusion width = 0.50mm
; top infill extrusion width = 0.45mm
; first layer extrusion width = 0.42mm

M73 P0 R238
M73 Q0 S240
M201 X1000 Y1000 Z200 E5000 ; sets maximum accelerations, mm/sec^2
M203 X200 Y200 Z12 E120 ; sets maximum feedrates, mm/sec
M204 P1250 R1250 T1250 ; sets acceleration (P, T) and retract acceleration (R), mm/sec^2
M205 X8.00 Y8.00 Z0.40 E4.50 ; sets the jerk limits, mm/sec
M205 S0 T0 ; sets the minimum extruding and travel feed rate, mm/sec
M107
;TYPE:Custom
M862.3 P "MK3S" ; printer model check
M862.1 P0.4 ; nozzle diameter check
M115 U3.10.1 ; tell printer latest fw version
G90 ; use absolute coordinates
M83 ; extruder relative mode
M104 S215 ; set extruder temp
M140 S60 ; set bed temp
M190 S60 ; wait for bed temp
M109 S215 ; wait for extruder temp
G28 W ; home all without mesh bed level
G80 ; mesh bed leveling
G1 Z0.2 F720
G1 Y-3 F1000 ; go outside print area
G92 E0
G1 X60 E9 F1000 ; intro line
G1 X100 E12.5 F1000 ; intro line
G92 E0
M221 S95

; Don't change E values below. Excessive value can damage the printer.

M907 E538 ; set extruder motor current
G21 ; set units to millimeters
G90 ; use absolute coordinates
M83 ; use relative distances for extrusion
M900 K0.05 ; Filament gcode LA 1.5
M900 K30 ; Filament gcode LA 1.0
M107
;LAYER_CHANGE
;Z:0.2
;HEIGHT:0.2
;BEFORE_LAYER_CHANGE
G92 E0.0
;0.2


G1 E-.8 F2100
M73 Q0 S239
G1 Z.4 F720
;AFTER_LAYER_CHANGE
;0.2
G1 X65.948 Y53.231 F10800
G1 Z.2 F720
G1 E.8 F2100
M204 S800
;TYPE:Skirt/Brim
;WIDTH:0.42
G1 F1200
G1 X66.525 Y52.516 E.0288
G1 X72.331 Y46.692 E.25787
G1 X78.715 Y41.506 E.25787
G1 X85.605 Y37.015 E.25787
G1 X92.928 Y33.27 E.25787
G1 X100.601 Y30.31 E.25787
G1 X103.641 Y29.383 E.09963
G1 X108.587 Y28.157 E.1598
G1 X116.456 Y26.902 E.24984
G1 X125.124 Y26.426 E.27219
G1 X133.089 Y26.844 E.25008
G1 X141.215 Y28.117 E.25787
G1 X149.162 Y30.233 E.25787
G1 X156.845 Y33.169 E.25787
G1 X164.179 Y36.891 E.25787
G1 X171.084 Y41.359 E.25787
G1 X177.484 Y46.525 E.25787
G1 X183.308 Y52.331 E.25787
G1 X188.494 Y58.715 E.25787
G1 X192.985 Y65.605 E.25787
G1 X196.73 Y72.928 E.25787
G1 X199.69 Y80.601 E.25787
G1 X201.831 Y88.542 E.25787
G1 X203.098 Y96.456 E.25131
G1 X203.574 Y105.124 E.27219
G1 X203.156 Y113.089 E.25008
G1 X201.883 Y121.215 E.25787
G1 X199.767 Y129.162 E.25787
G1 X196.831 Y136.845 E.25787
G1 X193.109 Y144.179 E.25787
G1 X188.641 Y151.084 E.25787
G1 X183.475 Y157.484 E.25787
G1 X177.669 Y163.308 E.25787
G1 X171.084 Y168.641 E.26566
G1 X164.179 Y173.109 E.25787
G1 X156.845 Y176.831 E.25787
G1 X149.162 Y179.767 E.25787
G1 X141.215 Y181.883 E.25787
G1 X133.089 Y183.156 E.25787
G1 X124.876 Y183.574 E.25787
G1 X116.663 Y183.13 E.25787
G1 X108.542 Y181.831 E.25787
G1 X100.838 Y179.767 E.25008
G1 X93.155 Y176.831 E.25787
G1 X85.821 Y173.109 E.25787
G1 X78.916 Y168.641 E.25787
G1 X72.516 Y163.475 E.25787
G1 X66.692 Y157.669 E.25787
G1 X61.506 Y151.285 E.25787
G1 X57.015 Y144.395 E.25787
G1 X53.27 Y137.072 E.25787
G1 X50.31 Y129.399 E.25787
G1 X48.117 Y121.215 E.26566
G1 X46.844 Y113.089 E.25787
G1 X46.426 Y104.876 E.25787
G1 X46.87 Y96.663 E.25787
G1 X48.117 Y88.785 E.25008
G1 X50.233 Y80.838 E.25787
G1 X53.169 Y73.155 E.25787
G1 X56.891 Y65.821 E.25787
G1 X61.359 Y58.916 E.25787
G1 X65.91 Y53.278 E.22719
M204 S1000
; printing object Revolving_Plate_Small.STL id:0 copy 0
;WIPE_START
G1 F8640
G1 X66.525 Y52.516 E-.22595
G1 X68.158 Y50.878 E-.53405
;WIPE_END
G1 E-.04 F2100
G1 Z.6 F720
G1 X127.82 Y103.652 F10800
G1 Z.2 F720
G1 E.8 F2100
M204 S800
;TYPE:Perimeter
G1 F1200
G1 X127.82 Y106.897 E.10175
G1 X127.265 Y107.495 E.02562
G1 X126.807 Y107.844 E.01804
G1 X126.297 Y108.11 E.01804
G1 X125.749 Y108.285 E.01804
G1 X125.179 Y108.365 E.01804
G1 X124.604 Y108.346 E.01804
G1 X124.041 Y108.23 E.01804
G1 X123.505 Y108.02 E.01804
G1 X123.013 Y107.722 E.01804
G1 X122.579 Y107.344 E.01804
G1 X122.215 Y106.897 E.01806
G1 X121.93 Y106.392 E.0182
G1 X121.738 Y105.847 E.0181
G1 X121.643 Y105.287 E.01784
G1 X121.643 Y104.714 E.01795
G1 X121.737 Y104.156 E.01773
G1 X121.929 Y103.612 E.0181
G1 X122.21 Y103.109 E.01808
G1 X122.579 Y102.656 E.01831
G1 X123.013 Y102.278 E.01804
G1 X123.505 Y101.98 E.01804
G1 X124.041 Y101.77 E.01804
G1 X124.604 Y101.654 E.01804
G1 X125.179 Y101.635 E.01804
G1 X125.749 Y101.715 E.01804
G1 X126.297 Y101.89 E.01804
G1 X126.807 Y102.156 E.01804
G1 X127.265 Y102.505 E.01804
G1 X127.82 Y103.103 E.02562
G1 X127.82 Y103.592 E.0153
M204 S1000
G1 X127.443 Y103.252 F10800
M204 S800
;TYPE:External perimeter
G1 F1200
G1 X127.443 Y106.748 E.10965
G1 X127.01 Y107.215 E.01996
G1 X126.604 Y107.525 E.01601
G1 X126.151 Y107.761 E.01601
G1 X125.665 Y107.916 E.01601
G1 X125.159 Y107.987 E.01601
G1 X124.649 Y107.97 E.01601
G1 X124.148 Y107.867 E.01601
G1 X123.673 Y107.681 E.01601
G1 X123.236 Y107.416 E.01601
G1 X122.851 Y107.081 E.01601
G1 X122.528 Y106.684 E.01604
G1 X122.275 Y106.235 E.01616
G1 X122.104 Y105.752 E.01606
G1 X122.02 Y105.255 E.01583
G1 X122.02 Y104.746 E.01595
G1 X122.103 Y104.251 E.01573
G1 X122.274 Y103.768 E.01607
G1 X122.523 Y103.321 E.01604
G1 X122.851 Y102.919 E.01627
G1 X123.236 Y102.584 E.01601
G1 X123.673 Y102.319 E.01601
G1 X124.148 Y102.133 E.01601
G1 X124.649 Y102.03 E.01601
G1 X125.159 Y102.013 E.01601
G1 X125.665 Y102.084 E.01601
G1 X126.151 Y102.239 E.01601
G1 X126.604 Y102.475 E.01601
G1 X127.01 Y102.785 E.01601
G1 X127.403 Y103.208 E.01808
M204 S1000
G1 X127.831 Y103.35 F10800
;WIPE_START
G1 F8640
G1 X127.44 Y106.499 E-.76
;WIPE_END
G1 E-.04 F2100
G1 Z.6 F720
G1 X112.504 Y126.267 F10800
G1 Z.2 F720
G1 E.8 F2100
M204 S800
;TYPE:Perimeter
G1 F1200
G1 X116.233 Y127.996 E.12887
G1 X119.532 Y128.996 E.10809
G1 X122.939 Y129.525 E.10809
G1 X126.54 Y129.574 E.11294
G1 X127.122 Y129.732 E.01891
G1 X130.214 Y130.308 E.09861
G1 X133.261 Y131.412 E.10162
G1 X136.088 Y132.998 E.10162
G1 X138.619 Y135.023 E.10162
G1 X140.786 Y137.433 E.10162
G1 X142.529 Y140.158 E.10143
G1 X143.811 Y143.144 E.10188
G1 X144.586 Y146.289 E.10156
G1 X144.84 Y149.52 E.10162
G1 X144.563 Y152.749 E.10162
G1 X143.765 Y155.89 E.10162
G1 X142.466 Y158.86 E.10162
G1 X140.701 Y161.578 E.10162
G1 X138.539 Y163.949 E.10061
G1 X133.376 Y168.754 E.22114
G1 X125.923 Y169.282 E.23425
G1 X118.692 Y168.978 E.22693
G1 X111.541 Y167.864 E.22693
G1 X104.56 Y165.952 E.22693
G1 X97.838 Y163.269 E.22693
G1 X90.744 Y159.462 E.25243
G1 X112.438 Y126.236 E1.24416
G1 X112.45 Y126.242 E.00043
M204 S1000
G1 X112.575 Y126.715 F10800
M204 S800
;TYPE:External perimeter
G1 F1200
G1 X116.098 Y128.35 E.12178
G1 X119.448 Y129.364 E.10975
G1 X122.907 Y129.901 E.10975
G1 X126.488 Y129.95 E.11227
G1 X127.038 Y130.1 E.01789
G1 X130.115 Y130.673 E.09811
G1 X133.104 Y131.756 E.09968
G1 X135.877 Y133.312 E.09968
G1 X138.359 Y135.298 E.09968
G1 X140.485 Y137.662 E.09968
G1 X142.194 Y140.335 E.09949
G1 X143.452 Y143.264 E.09994
G1 X144.213 Y146.349 E.09962
G1 X144.461 Y149.518 E.09968
G1 X144.19 Y152.686 E.09968
G1 X143.407 Y155.768 E.09968
G1 X142.133 Y158.68 E.09968
G1 X140.402 Y161.347 E.09968
G1 X138.27 Y163.683 E.09916
G1 X133.216 Y168.387 E.21648
G1 X125.918 Y168.904 E.22941
G1 X118.729 Y168.602 E.2256
G1 X111.62 Y167.494 E.2256
G1 X104.68 Y165.594 E.2256
G1 X97.998 Y162.926 E.2256
G1 X91.285 Y159.324 E.23888
G1 X112.542 Y126.766 E1.21916
M204 S1000
G1 X112.737 Y126.35 F10800
;WIPE_START
M73 P0 R237
G1 F8640
G1 X115.549 Y128.105 E-.76
;WIPE_END
G1 E-.04 F2100
G1 Z.6 F720
G1 X71.217 Y71.188 F10800
G1 Z.2 F720
G1 E.8 F2100
M204 S800
;TYPE:Perimeter
G1 F1200
G1 X103.764 Y92.438 E1.21873
G1 X102.004 Y96.233 E.13118
G1 X101.004 Y99.532 E.10809
G1 X100.475 Y102.939 E.10809
G1 X100.426 Y106.54 E.11294
G1 X100.268 Y107.122 E.01891
G1 X99.692 Y110.215 E.09862
G1 X98.575 Y113.287 E.10252
G1 X96.999 Y116.091 E.10084
G1 X94.977 Y118.619 E.10149
G1 X92.567 Y120.786 E.10162
G1 X89.837 Y122.532 E.10162
G1 X86.858 Y123.81 E.10162
G1 X83.711 Y124.586 E.10162
G1 X80.48 Y124.84 E.10162
G1 X77.251 Y124.563 E.10162
G1 X74.11 Y123.765 E.10162
G1 X71.14 Y122.466 E.10162
G1 X68.422 Y120.701 E.10162
G1 X66.051 Y118.539 E.10061
G1 X61.246 Y113.376 E.22114
G1 X60.718 Y105.923 E.23425
G1 X61.022 Y98.692 E.22693
G1 X62.136 Y91.541 E.22693
G1 X64.048 Y84.56 E.22693
G1 X66.731 Y77.838 E.22693
G1 X70.538 Y70.744 E.25243
G1 X71.167 Y71.155 E.02355
M204 S1000
G1 X70.676 Y71.285 F10800
M204 S800
;TYPE:External perimeter
G1 F1200
G1 X103.285 Y92.575 E1.22104
G1 X101.65 Y96.098 E.12178
G1 X100.636 Y99.448 E.10975
G1 X100.099 Y102.907 E.10975
G1 X100.05 Y106.488 E.11227
G1 X99.9 Y107.039 E.01789
G1 X99.327 Y110.115 E.09812
G1 X98.231 Y113.129 E.10058
G1 X96.686 Y115.88 E.09891
G1 X94.702 Y118.359 E.09955
G1 X92.338 Y120.485 E.09968
G1 X89.66 Y122.198 E.09968
G1 X86.738 Y123.451 E.09968
G1 X83.651 Y124.213 E.09968
G1 X80.482 Y124.461 E.09968
G1 X77.314 Y124.19 E.09968
G1 X74.232 Y123.407 E.09968
G1 X71.32 Y122.133 E.09968
G1 X68.653 Y120.402 E.09968
G1 X66.317 Y118.27 E.09916
G1 X61.613 Y113.216 E.21648
G1 X61.096 Y105.918 E.22941
G1 X61.398 Y98.729 E.2256
G1 X62.506 Y91.62 E.2256
G1 X64.406 Y84.68 E.2256
G1 X67.074 Y77.998 E.2256
M73 Q0 S238
G1 X70.648 Y71.338 E.237
M204 S1000
G1 X70.879 Y70.94 F10800
;WIPE_START
G1 F8640
G1 X73.407 Y73.133 E-.76
;WIPE_END
G1 E-.04 F2100
G1 Z.6 F720
G1 X158.812 Y51.217 F10800
G1 Z.2 F720
G1 E.8 F2100
M204 S800
;TYPE:Perimeter
G1 F1200
G1 X137.562 Y83.764 E1.21873
G1 X133.767 Y82.004 E.13118
G1 X130.468 Y81.004 E.10809
G1 X127.061 Y80.475 E.10809
G1 X123.46 Y80.426 E.11294
G1 X122.877 Y80.268 E.01891
G1 X119.786 Y79.692 E.09861
G1 X116.723 Y78.58 E.10215
G1 X113.906 Y76.998 E.10131
G1 X111.38 Y74.976 E.10146
G1 X109.214 Y72.568 E.10155
G1 X107.469 Y69.838 E.10158
G1 X106.191 Y66.86 E.10162
G1 X105.414 Y63.714 E.10162
G1 X105.16 Y60.484 E.10158
G1 X105.437 Y57.25 E.10176
G1 X106.237 Y54.104 E.10177
G1 X107.534 Y51.139 E.10149
G1 X109.298 Y48.424 E.1015
G1 X111.461 Y46.051 E.10068
G1 X116.624 Y41.246 E.22114
G1 X124.077 Y40.718 E.23425
G1 X131.308 Y41.022 E.22693
G1 X138.459 Y42.136 E.22693
G1 X145.44 Y44.048 E.22693
G1 X152.162 Y46.731 E.22693
G1 X159.256 Y50.538 E.25243
G1 X158.845 Y51.167 E.02355
M204 S1000
G1 X158.715 Y50.676 F10800
M204 S800
;TYPE:External perimeter
G1 F1200
G1 X137.425 Y83.285 E1.22104
G1 X133.902 Y81.65 E.12178
G1 X130.552 Y80.636 E.10975
G1 X127.093 Y80.099 E.10975
G1 X123.512 Y80.05 E.11227
G1 X122.961 Y79.9 E.01789
G1 X119.885 Y79.327 E.09812
G1 X116.881 Y78.236 E.10021
G1 X114.118 Y76.684 E.09937
G1 X111.64 Y74.701 E.09952
G1 X109.515 Y72.339 E.09961
G1 X107.803 Y69.661 E.09965
G1 X106.549 Y66.74 E.09969
G1 X105.788 Y63.653 E.0997
G1 X105.539 Y60.485 E.09962
G1 X105.81 Y57.313 E.09982
G1 X106.594 Y54.227 E.09983
G1 X107.868 Y51.318 E.09956
G1 X109.597 Y48.655 E.09957
G1 X111.73 Y46.317 E.09923
G1 X116.784 Y41.613 E.21648
G1 X124.082 Y41.096 E.22941
G1 X131.271 Y41.398 E.2256
G1 X138.38 Y42.506 E.2256
G1 X145.32 Y44.406 E.2256
G1 X152.002 Y47.074 E.2256
G1 X158.662 Y50.648 E.237
M204 S1000
G1 X159.06 Y50.879 F10800
;WIPE_START
G1 F8640
G1 X156.867 Y53.407 E-.76
;WIPE_END
G1 E-.04 F2100
G1 Z.6 F720
G1 X178.783 Y138.812 F10800
G1 Z.2 F720
G1 E.8 F2100
M204 S800
;TYPE:Perimeter
G1 F1200
G1 X146.236 Y117.562 E1.21873
G1 X147.996 Y113.767 E.13118
G1 X148.996 Y110.468 E.10809
G1 X149.525 Y107.061 E.10809
G1 X149.574 Y103.46 E.11294
G1 X149.732 Y102.878 E.01891
G1 X150.308 Y99.786 E.0986
G1 X151.412 Y96.739 E.10161
G1 X152.998 Y93.912 E.10164
G1 X155.023 Y91.381 E.10162
G1 X157.433 Y89.214 E.10162
G1 X160.163 Y87.468 E.10162
G1 X163.142 Y86.19 E.10162
G1 X166.289 Y85.414 E.10162
G1 X169.52 Y85.16 E.10162
G1 X172.749 Y85.437 E.10162
G1 X175.885 Y86.233 E.10144
G1 X178.863 Y87.536 E.10194
G1 X181.578 Y89.299 E.10149
G1 X183.949 Y91.461 E.10061
G1 X188.754 Y96.624 E.22114
G1 X189.282 Y104.077 E.23425
G1 X188.978 Y111.308 E.22693
G1 X187.864 Y118.459 E.22693
G1 X185.957 Y125.424 E.22642
G1 X185.717 Y126.098 E.02243
G1 X183.268 Y132.163 E.20508
G1 X179.462 Y139.256 E.25239
G1 X178.833 Y138.845 E.02355
M204 S1000
G1 X179.324 Y138.715 F10800
M204 S800
;TYPE:External perimeter
G1 F1200
G1 X146.715 Y117.425 E1.22104
G1 X148.35 Y113.902 E.12178
G1 X149.364 Y110.552 E.10975
G1 X149.901 Y107.093 E.10975
G1 X149.95 Y103.512 E.11227
G1 X150.1 Y102.961 E.01789
G1 X150.673 Y99.885 E.09811
G1 X151.756 Y96.897 E.09967
G1 X153.312 Y94.123 E.0997
G1 X155.298 Y91.641 E.09968
G1 X157.662 Y89.515 E.09968
G1 X160.34 Y87.802 E.09968
G1 X163.262 Y86.549 E.09968
G1 X166.349 Y85.787 E.09968
G1 X169.518 Y85.539 E.09968
G1 X172.686 Y85.81 E.09968
G1 X175.762 Y86.591 E.0995
G1 X178.684 Y87.869 E.1
G1 X181.347 Y89.598 E.09955
G1 X183.683 Y91.73 E.09916
G1 X188.387 Y96.784 E.21648
G1 X188.904 Y104.082 E.22941
G1 X188.602 Y111.271 E.2256
G1 X187.494 Y118.38 E.2256
G1 X185.597 Y125.311 E.22531
G1 X185.364 Y125.964 E.02174
G1 X182.926 Y132.003 E.20419
G1 X179.352 Y138.663 E.23698
M204 S1000
G1 X179.121 Y139.06 F10800
;WIPE_START
G1 F8640
G1 X176.593 Y136.867 E-.76
;WIPE_END
G1 E-.04 F2100
G1 Z.6 F720
G1 X190.091 Y143.041 F10800
G1 Z.2 F720
G1 E.8 F2100
M204 S800
;TYPE:Perimeter
G1 F1200
G1 X186.009 Y149.326 E.23495
G1 X181.042 Y155.46 E.2475
G1 X175.46 Y161.042 E.2475
G1 X169.326 Y166.009 E.2475
G1 X162.706 Y170.309 E.24749
G1 X155.673 Y173.892 E.2475
G1 X148.304 Y176.721 E.2475
G1 X140.679 Y178.764 E.24749
G1 X132.883 Y179.999 E.2475
G1 X125 Y180.412 E.24749
G1 X117.117 Y179.999 E.2475
G1 X109.321 Y178.764 E.2475
G1 X101.696 Y176.721 E.24749
G1 X99.873 Y176.021 E.06123
G1 X94.327 Y173.892 E.18627
G1 X87.294 Y170.309 E.2475
G1 X80.674 Y166.009 E.2475
G1 X74.54 Y161.042 E.2475
G1 X68.958 Y155.46 E.2475
G1 X63.991 Y149.326 E.2475
G1 X59.691 Y142.706 E.2475
G1 X56.108 Y135.673 E.2475
G1 X53.279 Y128.304 E.2475
G1 X51.236 Y120.679 E.24749
G1 X50.001 Y112.883 E.2475
G1 X49.588 Y105 E.2475
G1 X50.001 Y97.117 E.24749
M73 P0 R236
G1 X51.236 Y89.321 E.2475
G1 X53.279 Y81.696 E.24749
G1 X56.108 Y74.327 E.2475
G1 X59.691 Y67.294 E.2475
G1 X63.991 Y60.674 E.24749
G1 X68.958 Y54.54 E.2475
G1 X74.54 Y48.958 E.2475
G1 X80.674 Y43.991 E.2475
G1 X87.294 Y39.691 E.24749
G1 X94.327 Y36.108 E.2475
G1 X101.708 Y33.275 E.24788
G1 X104.663 Y32.385 E.09676
G1 X109.313 Y31.237 E.15019
G1 X117.117 Y30.001 E.24774
G1 X125 Y29.588 E.2475
G1 X132.883 Y30.001 E.2475
G1 X140.679 Y31.236 E.2475
G1 X148.304 Y33.279 E.24749
G1 X155.673 Y36.108 E.2475
G1 X162.706 Y39.691 E.2475
G1 X169.326 Y43.991 E.24749
G1 X175.46 Y48.958 E.2475
G1 X181.042 Y54.54 E.2475
G1 X186.009 Y60.674 E.2475
G1 X190.309 Y67.294 E.24749
G1 X193.892 Y74.327 E.2475
G1 X196.721 Y81.696 E.2475
G1 X198.764 Y89.321 E.24749
G1 X199.999 Y97.117 E.2475
G1 X200.412 Y105 E.2475
G1 X199.999 Y112.883 E.2475
G1 X198.764 Y120.679 E.2475
G1 X196.721 Y128.304 E.24749
G1 X193.892 Y135.673 E.24749
G1 X190.309 Y142.706 E.2475
G1 X190.123 Y142.991 E.01066
M204 S1000
G1 X190.636 Y142.895 F10800
M204 S800
;TYPE:External perimeter
G1 F1200
G1 X186.315 Y149.548 E.24873
G1 X181.323 Y155.713 E.24873
G1 X175.713 Y161.323 E.24873
G1 X169.548 Y166.315 E.24873
G1 X162.895 Y170.636 E.24873
G1 X155.826 Y174.237 E.24873
G1 X148.42 Y177.08 E.24873
M73 Q0 S237
G1 X140.758 Y179.133 E.24873
G1 X132.922 Y180.374 E.24873
G1 X125 Y180.789 E.24873
G1 X117.078 Y180.374 E.24873
G1 X109.242 Y179.133 E.24873
G1 X101.58 Y177.08 E.24873
G1 X94.174 Y174.237 E.24873
G1 X87.105 Y170.636 E.24873
G1 X80.452 Y166.315 E.24873
G1 X74.287 Y161.323 E.24873
G1 X68.677 Y155.713 E.24873
G1 X63.685 Y149.548 E.24873
G1 X59.364 Y142.895 E.24873
G1 X55.763 Y135.826 E.24873
G1 X52.92 Y128.42 E.24873
G1 X50.867 Y120.758 E.24873
G1 X49.626 Y112.922 E.24873
G1 X49.211 Y105 E.24873
G1 X49.626 Y97.078 E.24873
G1 X50.867 Y89.242 E.24873
G1 X52.92 Y81.58 E.24873
G1 X55.763 Y74.174 E.24873
G1 X59.364 Y67.105 E.24873
G1 X63.685 Y60.452 E.24873
G1 X68.677 Y54.287 E.24873
G1 X74.287 Y48.677 E.24873
G1 X80.452 Y43.685 E.24873
G1 X87.105 Y39.364 E.24873
G1 X94.174 Y35.763 E.24873
G1 X101.586 Y32.918 E.24894
