; generated by PrusaSlicer 2.4.1+win64 on 2022-05-02 at 17:23:46 UTC

; 

; external perimeters extrusion width = 0.45mm
; perimeters extrusion width = 0.45mm
; infill extrusion width = 0.45mm
; solid infill extrusion width = 0.45mm
; top infill extrusion width = 0.40mm
; support material extrusion width = 0.35mm
; first layer extrusion width = 0.42mm

M73 P0 R270
M73 Q0 S274
M107
;TYPE:Custom
M862.3 P "MK3S" ; printer model check
M862.1 P0.4 ; nozzle diameter check
M115 U3.9.2 ; tell printer latest fw version
G90 ; use absolute coordinates
M83 ; extruder relative mode
M104 S225 ; set extruder temp
M140 S70 ; set bed temp
M190 S70 ; wait for bed temp
M109 S225 ; wait for extruder temp
G28 W ; home all without mesh bed level
G80 ; mesh bed leveling
G1 Y-3.0 F1000.0 ; go outside print area
G92 E0.0
G1 X60.0 E9.0 F1000.0 ; intro line
G1 X100.0 E12.5 F1000.0 ; intro line
G92 E0.0
M221 S95

; Don't change E values below. Excessive value can damage the printer.

M907 E538 ; set extruder motor current
G21 ; set units to millimeters
G90 ; use absolute coordinates
M83 ; use relative distances for extrusion
M900 K0.05 ; Filament gcode LA 1.5
M900 K30 ; Filament gcode LA 1.0
M107
;LAYER_CHANGE
;Z:0.2
;HEIGHT:0.2
;BEFORE_LAYER_CHANGE
G92 E0.0
;0.2


G1 E-.8 F2100
M73 Q0 S273
G1 Z.4 F10800
;AFTER_LAYER_CHANGE
;0.2
G1 X53.324 Y41.941
G1 Z.2
G1 E.8 F2100
M204 S1000
;TYPE:Skirt/Brim
;WIDTH:0.42
G1 F1200
G1 X54.819 Y40.041 E.0758
G1 X60.676 Y34.184 E.25975
G1 X63.103 Y32.32 E.09594
G1 X65.929 Y31.146 E.09594
G1 X68.988 Y30.741 E.09674
G1 X183.552 Y30.741 E3.59208
G1 X186.586 Y31.139 E.09594
M73 P0 R269
G1 X189.414 Y32.307 E.09594
G1 X191.864 Y34.184 E.09674
G1 X197.721 Y40.041 E.25975
G1 X199.585 Y42.468 E.09594
G1 X200.759 Y45.294 E.09594
G1 X201.164 Y48.353 E.09674
G1 X201.164 Y159.107 E3.47262
G1 X200.766 Y162.141 E.09594
G1 X199.598 Y164.969 E.09594
G1 X197.721 Y167.419 E.09674
G1 X191.864 Y173.276 E.25975
G1 X189.437 Y175.14 E.09594
G1 X186.611 Y176.314 E.09594
G1 X183.84 Y176.716 E.08779
G1 X80.128 Y179.256 E3.25278
G1 X66.448 Y179.259 E.42894
G1 X63.414 Y178.861 E.09594
G1 X60.586 Y177.693 E.09594
G1 X58.136 Y175.816 E.09674
G1 X52.279 Y169.959 E.25975
G1 X50.415 Y167.532 E.09594
G1 X49.241 Y164.706 E.09594
G1 X48.836 Y161.647 E.09674
G1 X48.84 Y147.956 E.42928
G1 X51.38 Y48.054 E3.13336
G1 X51.855 Y45.031 E.09594
G1 X53.094 Y42.234 E.09594
G1 X53.287 Y41.989 E.00977
G1 X53.572 Y42.215 F10800
G1 F1200
G1 X55.085 Y40.308 E.07632
G1 X60.943 Y34.45 E.25975
G1 X63.335 Y32.622 E.09438
G1 X66.122 Y31.485 E.09438
G1 X68.988 Y31.118 E.0906
G1 X183.552 Y31.118 E3.59208
G1 X186.536 Y31.516 E.09438
G1 X189.311 Y32.683 E.09438
G1 X191.597 Y34.45 E.0906
G1 X197.455 Y40.308 E.25975
G1 X199.283 Y42.7 E.09438
G1 X200.42 Y45.487 E.09438
G1 X200.787 Y48.353 E.0906
G1 X200.787 Y159.107 E3.47262
G1 X200.389 Y162.091 E.09438
G1 X199.222 Y164.866 E.09438
G1 X197.455 Y167.152 E.0906
G1 X191.597 Y173.01 E.25975
G1 X189.205 Y174.838 E.09438
G1 X186.418 Y175.975 E.09438
G1 X183.831 Y176.339 E.08193
G1 X80.119 Y178.879 E3.25278
G1 X66.448 Y178.882 E.42865
G1 X63.464 Y178.484 E.09438
G1 X60.689 Y177.317 E.09438
G1 X58.403 Y175.55 E.0906
G1 X52.545 Y169.692 E.25975
G1 X50.717 Y167.3 E.09438
G1 X49.58 Y164.513 E.09438
G1 X49.213 Y161.647 E.0906
G1 X49.217 Y147.965 E.42898
G1 X51.757 Y48.064 E3.13336
G1 X52.231 Y45.091 E.09438
G1 X53.468 Y42.347 E.09438
G1 X53.535 Y42.262 E.00339
;WIPE_START
G1 F8640
G1 X55.085 Y40.308 E-.57593
G1 X55.649 Y39.744 E-.18407
;WIPE_END
G1 E-.04 F2100
G1 Z.6 F10800
G1 X64.423 Y48.352
G1 Z.2
G1 E.8 F2100
G1 F1200
G1 X65.974 Y46.046 E.08714
G1 X67.386 Y44.757 E.05992
G1 X69.001 Y43.766 E.05943
G1 X72.305 Y42.879 E.10725
G1 X180.12 Y42.883 E3.38046
G1 X182.098 Y43.228 E.06296
M73 P0 R268
M73 Q0 S272
G1 X183.952 Y43.965 E.06256
G1 X186.335 Y45.799 E.09427
G1 X188.193 Y48.5 E.10281
G1 X189.026 Y51.668 E.1027
G1 X189.026 Y155.875 E3.26734
G1 X188.117 Y159.108 E.1053
G1 X186.566 Y161.414 E.08714
G1 X185.154 Y162.703 E.05992
G1 X183.539 Y163.694 E.05943
G1 X180.235 Y164.581 E.10724
G1 X83.119 Y164.581 E3.04501
G1 X81.003 Y166.067 E.08109
G1 X77.513 Y167.111 E.11421
G1 X69.241 Y167.056 E.25937
G1 X66.43 Y166.206 E.09208
G1 X64.141 Y164.661 E.08661
G1 X62.874 Y163.278 E.05881
G1 X61.875 Y161.656 E.05974
G1 X61.086 Y159.139 E.08271
G1 X60.997 Y150.761 E.26269
G1 X61.39 Y148.63 E.06794
G1 X62.235 Y146.709 E.0658
G1 X63.514 Y145.019 E.06647
G1 X63.514 Y51.585 E2.92956
G1 X64.407 Y48.409 E.10342
G1 X64.77 Y48.512 F10800
G1 F1200
G1 X66.245 Y46.309 E.08316
G1 X67.598 Y45.069 E.05753
G1 X69.175 Y44.102 E.058
G1 X72.33 Y43.257 E.10239
G1 X180.104 Y43.26 E3.37918
G1 X181.977 Y43.585 E.05961
G1 X183.788 Y44.306 E.06111
G1 X186.081 Y46.079 E.09088
G1 X187.837 Y48.628 E.09706
G1 X188.648 Y51.693 E.09939
G1 X188.648 Y155.849 E3.26574
G1 X187.762 Y158.976 E.10192
G1 X186.295 Y161.151 E.08228
G1 X184.942 Y162.391 E.05753
G1 X183.365 Y163.358 E.058
G1 X180.211 Y164.203 E.10239
G1 X82.999 Y164.203 E3.04801
G1 X80.865 Y165.715 E.08201
G1 X77.487 Y166.734 E.11061
G1 X69.325 Y166.687 E.25594
G1 X66.567 Y165.853 E.09033
G1 X64.404 Y164.39 E.08188
G1 X63.164 Y163.037 E.05754
G1 X62.209 Y161.479 E.0573
G1 X61.454 Y159.053 E.07965
G1 X61.374 Y150.775 E.25956
G1 X61.744 Y148.762 E.06419
G1 X62.571 Y146.881 E.0644
G1 X63.892 Y145.146 E.06837
G1 X63.892 Y51.611 E2.93273
G1 X64.753 Y48.57 E.09911
G1 X65.115 Y48.673 F10800
G1 F1200
G1 X65.132 Y48.616 E.00186
G1 X66.516 Y46.572 E.07742
G1 X67.84 Y45.359 E.05627
G1 X69.348 Y44.437 E.05544
G1 X72.354 Y43.634 E.09756
G1 X180.087 Y43.637 E3.37789
G1 X181.892 Y43.953 E.05746
G1 X183.623 Y44.646 E.05844
G1 X185.826 Y46.358 E.08749
G1 X187.507 Y48.814 E.09332
G1 X188.271 Y51.717 E.09411
G1 X188.271 Y155.822 E3.26416
G1 X187.408 Y158.844 E.09852
G1 X186.024 Y160.888 E.07742
G1 X184.701 Y162.101 E.05627
G1 X183.192 Y163.022 E.05544
G1 X180.186 Y163.826 E.09755
G1 X82.82 Y163.826 E3.05283
G1 X82.684 Y163.967 E.00615
M73 P0 R267
M73 Q0 S271
G1 X80.725 Y165.364 E.07543
G1 X77.46 Y166.357 E.10699
G1 X69.407 Y166.318 E.25249
G1 X66.704 Y165.5 E.08857
G1 X64.667 Y164.119 E.07718
G1 X63.476 Y162.824 E.05515
G1 X62.542 Y161.302 E.05597
G1 X61.822 Y158.969 E.07657
G1 X61.752 Y150.79 E.25643
G1 X62.111 Y148.852 E.0618
G1 X62.906 Y147.055 E.06163
G1 X64.269 Y145.274 E.0703
G1 X64.269 Y51.638 E2.93591
G1 X65.099 Y48.731 E.09478
G1 X65.461 Y48.835 F10800
G1 F1200
G1 X65.486 Y48.75 E.00279
G1 X66.788 Y46.835 E.07261
G1 X68.052 Y45.672 E.05387
G1 X69.522 Y44.773 E.05401
G1 X72.379 Y44.011 E.09272
G1 X180.07 Y44.014 E3.3766
G1 X181.807 Y44.321 E.05529
G1 X183.457 Y44.986 E.05577
G1 X185.57 Y46.637 E.0841
G1 X187.177 Y48.999 E.08958
G1 X187.894 Y51.741 E.08885
G1 X187.894 Y155.796 E3.26257
G1 X187.054 Y158.71 E.0951
G1 X185.752 Y160.625 E.07261
G1 X184.488 Y161.788 E.05387
G1 X183.018 Y162.687 E.05401
G1 X180.161 Y163.449 E.09271
G1 X82.65 Y163.449 E3.05739
G1 X82.445 Y163.675 E.00955
G1 X80.584 Y165.012 E.07186
G1 X77.433 Y165.979 E.10336
G1 X69.49 Y165.949 E.24903
G1 X66.84 Y165.148 E.0868
G1 X64.93 Y163.847 E.07247
G1 X63.766 Y162.582 E.05389
G1 X62.877 Y161.126 E.05349
G1 X62.191 Y158.885 E.0735
G1 X62.129 Y150.805 E.25333
G1 X62.464 Y148.985 E.05805
G1 X63.242 Y147.228 E.06022
G1 X64.646 Y145.403 E.07221
G1 X64.646 Y51.664 E2.9391
G1 X65.444 Y48.893 E.09042
G1 X65.806 Y48.998 F10800
G1 F1200
G1 X65.839 Y48.884 E.00373
G1 X67.059 Y47.097 E.06784
G1 X68.265 Y45.983 E.05146
G1 X69.695 Y45.109 E.05256
G1 X72.403 Y44.388 E.08787
G1 X180.054 Y44.391 E3.3753
G1 X181.721 Y44.689 E.05311
M73 P1 R267
M73 Q1 S271
G1 X183.29 Y45.325 E.05309
G1 X185.314 Y46.916 E.08072
G1 X186.821 Y49.127 E.0839
G1 X187.517 Y51.765 E.08556
G1 X187.517 Y155.769 E3.26095
G1 X186.701 Y158.576 E.09166
G1 X185.481 Y160.363 E.06784
G1 X184.275 Y161.477 E.05146
G1 X182.845 Y162.351 E.05256
G1 X180.137 Y163.072 E.08787
G1 X82.477 Y163.072 E3.06205
G1 X82.205 Y163.383 E.01296
G1 X80.443 Y164.662 E.06826
G1 X77.405 Y165.602 E.09971
G1 X69.573 Y165.58 E.24556
G1 X66.977 Y164.795 E.08503
G1 X65.192 Y163.576 E.06779
G1 X64.078 Y162.37 E.05148
G1 X63.211 Y160.95 E.05214
G1 X62.56 Y158.802 E.0704
G1 X62.506 Y150.821 E.25024
G1 X62.818 Y149.117 E.05431
G1 X63.578 Y147.402 E.05882
G1 X64.846 Y145.75 E.06531
G1 X65.023 Y145.593 E.0074
G1 X65.023 Y51.691 E2.94422
G1 X65.789 Y49.056 E.08605
G1 X66.151 Y49.162 F10800
G1 F1200
G1 X66.192 Y49.019 E.00466
G1 X67.331 Y47.359 E.06312
G1 X68.477 Y46.295 E.04904
G1 X69.868 Y45.445 E.05111
G1 X72.428 Y44.765 E.08303
G1 X180.037 Y44.769 E3.374
G1 X181.634 Y45.056 E.0509
M73 P1 R266
M73 Q1 S270
G1 X183.123 Y45.664 E.05041
G1 X185.057 Y47.193 E.07732
G1 X186.491 Y49.311 E.08019
G1 X187.14 Y51.789 E.08033
G1 X187.14 Y155.742 E3.25934
G1 X186.348 Y158.441 E.0882
G1 X185.209 Y160.101 E.06312
G1 X184.063 Y161.165 E.04904
G1 X182.672 Y162.015 E.05111
G1 X180.112 Y162.695 E.08303
G1 X82.301 Y162.695 E3.0668
G1 X81.963 Y163.093 E.01638
G1 X80.3 Y164.311 E.06463
G1 X77.377 Y165.225 E.09604
G1 X69.656 Y165.211 E.24208
G1 X67.114 Y164.443 E.08325
G1 X65.454 Y163.304 E.06312
G1 X64.39 Y162.157 E.04907
G1 X63.546 Y160.775 E.05078
G1 X62.929 Y158.719 E.06729
G1 X62.883 Y150.836 E.24718
G1 X63.172 Y149.249 E.05058
G1 X63.913 Y147.575 E.0574
G1 X65.131 Y145.998 E.06248
G1 X65.4 Y145.771 E.01104
G1 X65.4 Y51.718 E2.94895
G1 X66.134 Y49.22 E.08166
G1 X66.495 Y49.327 F10800
G1 F1200
G1 X66.545 Y49.156 E.00559
G1 X67.603 Y47.621 E.05844
G1 X68.691 Y46.607 E.04662
G1 X70.042 Y45.781 E.04965
G1 X72.452 Y45.142 E.07819
G1 X180.02 Y45.146 E3.37271
G1 X181.51 Y45.413 E.04748
G1 X182.955 Y46.003 E.04893
G1 X184.8 Y47.47 E.07391
G1 X186.134 Y49.439 E.07457
G1 X186.763 Y51.814 E.07704
G1 X186.763 Y155.714 E3.25771
G1 X185.995 Y158.304 E.08472
G1 X184.937 Y159.839 E.05844
G1 X183.849 Y160.853 E.04662
G1 X182.498 Y161.679 E.04965
G1 X180.088 Y162.318 E.07819
G1 X82.123 Y162.318 E3.07164
G1 X81.719 Y162.805 E.01982
G1 X80.156 Y163.961 E.06097
G1 X77.347 Y164.848 E.09234
G1 X69.738 Y164.843 E.23858
G1 X67.252 Y164.09 E.08145
G1 X65.716 Y163.032 E.05848
G1 X64.702 Y161.944 E.04664
G1 X63.881 Y160.599 E.0494
G1 X63.298 Y158.638 E.06415
G1 X63.26 Y150.851 E.24415
G1 X63.526 Y149.381 E.04685
G1 X64.248 Y147.749 E.05596
G1 X65.414 Y146.248 E.0596
G1 X65.777 Y145.952 E.01466
G1 X65.777 Y51.746 E2.95377
G1 X66.477 Y49.384 E.07724
G1 X66.838 Y49.492 F10800
G1 F1200
G1 X66.898 Y49.293 E.00652
G1 X67.875 Y47.882 E.05381
G1 X68.904 Y46.919 E.04419
G1 X70.215 Y46.118 E.04818
G1 X72.477 Y45.519 E.07335
G1 X180.003 Y45.523 E3.37141
G1 X181.423 Y45.78 E.04526
G1 X182.787 Y46.341 E.04622
G1 X184.542 Y47.746 E.0705
G1 X185.804 Y49.622 E.0709
G1 X186.386 Y51.838 E.07183
G1 X186.386 Y155.686 E3.25608
G1 X185.642 Y158.167 E.08121
G1 X184.665 Y159.578 E.05381
G1 X183.636 Y160.541 E.04419
G1 X182.325 Y161.342 E.04817
G1 X180.064 Y161.941 E.07335
G1 X81.942 Y161.941 E3.07654
G1 X81.475 Y162.516 E.02323
M73 Q1 S269
G1 X79.957 Y163.64 E.05921
G1 X77.318 Y164.471 E.08673
G1 X69.821 Y164.474 E.23508
G1 X67.389 Y163.738 E.07965
G1 X65.977 Y162.76 E.05386
M73 P1 R265
G1 X65.013 Y161.731 E.04421
G1 X64.215 Y160.424 E.048
G1 X63.667 Y158.558 E.061
G1 X63.637 Y150.867 E.24114
G1 X63.88 Y149.513 E.04313
G1 X64.584 Y147.923 E.05451
G1 X65.697 Y146.499 E.05668
G1 X66.154 Y146.136 E.0183
G1 X66.154 Y51.774 E2.95866
G1 X66.821 Y49.55 E.0728
G1 X67.181 Y49.659 F10800
G1 F1200
G1 X67.25 Y49.431 E.00746
G1 X68.148 Y48.144 E.04923
G1 X69.117 Y47.23 E.04176
G1 X70.388 Y46.454 E.04669
G1 X72.501 Y45.896 E.06851
G1 X179.985 Y45.9 E3.37011
G1 X181.335 Y46.147 E.04302
G1 X182.617 Y46.679 E.0435
G1 X184.282 Y48.021 E.06707
G1 X185.472 Y49.805 E.06724
G1 X186.009 Y51.862 E.06666
G1 X186.009 Y155.658 E3.25445
G1 X185.29 Y158.029 E.07767
G1 X184.392 Y159.316 E.04923
G1 X183.423 Y160.23 E.04176
G1 X182.152 Y161.006 E.04669
G1 X180.039 Y161.564 E.06851
G1 X81.759 Y161.564 E3.08152
G1 X81.23 Y162.228 E.02663
G1 X79.758 Y163.318 E.05742
G1 X77.289 Y164.094 E.08114
G1 X69.903 Y164.104 E.23158
G1 X67.527 Y163.386 E.07783
G1 X66.239 Y162.487 E.04927
G1 X65.325 Y161.517 E.04178
G1 X64.55 Y160.249 E.04658
G1 X64.037 Y158.478 E.05782
G1 X64.014 Y150.883 E.23816
G1 X64.234 Y149.645 E.03943
G1 X64.919 Y148.098 E.05304
G1 X65.978 Y146.751 E.05372
G1 X66.531 Y146.322 E.02194
G1 X66.531 Y51.802 E2.96362
G1 X67.163 Y49.716 E.06833
G1 X67.523 Y49.826 F10800
G1 F1200
G1 X67.601 Y49.571 E.00838
G1 X68.421 Y48.404 E.04471
G1 X69.331 Y47.541 E.03932
G1 X70.561 Y46.79 E.0452
G1 X72.525 Y46.273 E.06367
G1 X179.968 Y46.277 E3.3688
G1 X181.246 Y46.514 E.04076
G1 X182.446 Y47.016 E.04078
G1 X184.022 Y48.296 E.06367
G1 X185.116 Y49.932 E.0617
G1 X185.632 Y51.887 E.0634
G1 X185.632 Y155.63 E3.25279
G1 X184.939 Y157.889 E.0741
G1 X184.119 Y159.056 E.04471
G1 X183.209 Y159.919 E.03932
G1 X181.979 Y160.67 E.0452
G1 X180.015 Y161.187 E.06367
G1 X81.574 Y161.187 E3.08655
G1 X80.984 Y161.941 E.03002
G1 X79.559 Y162.996 E.0556
G1 X77.26 Y163.717 E.07553
G1 X69.931 Y163.727 E.2298
G1 X67.667 Y163.034 E.07425
G1 X66.499 Y162.214 E.04474
G1 X65.636 Y161.304 E.03934
G1 X64.886 Y160.075 E.04514
G1 X64.406 Y158.4 E.05462
G1 X64.392 Y150.898 E.23521
G1 X64.588 Y149.776 E.03573
G1 X65.254 Y148.273 E.05156
G1 X66.258 Y147.004 E.05072
G1 X66.908 Y146.51 E.02561
G1 X66.908 Y51.83 E2.96863
G1 X67.505 Y49.884 E.06384
G1 X67.864 Y49.995 F10800
G1 F1200
G1 X67.952 Y49.712 E.00931
G1 X68.694 Y48.664 E.04025
G1 X69.545 Y47.852 E.03688
G1 X70.734 Y47.126 E.04369
G1 X72.549 Y46.65 E.05883
G1 X179.95 Y46.654 E3.36748
G1 X181.156 Y46.881 E.03847
M73 Q1 S268
G1 X182.274 Y47.352 E.03804
G1 X183.761 Y48.569 E.06025
G1 X184.784 Y50.114 E.05808
G1 X185.255 Y51.911 E.05825
G1 X185.255 Y155.601 E3.25113
G1 X184.588 Y157.748 E.0705
M73 P1 R264
G1 X183.846 Y158.796 E.04025
G1 X182.995 Y159.608 E.03688
G1 X181.806 Y160.334 E.04369
G1 X179.991 Y160.81 E.05883
G1 X81.387 Y160.81 E3.09165
G1 X80.738 Y161.654 E.03339
G1 X79.36 Y162.674 E.05376
G1 X77.231 Y163.34 E.06993
G1 X69.96 Y163.35 E.228
G1 X67.808 Y162.683 E.07064
G1 X66.759 Y161.941 E.04028
G1 X65.947 Y161.09 E.03689
G1 X65.221 Y159.901 E.04368
G1 X64.776 Y158.323 E.05139
G1 X64.769 Y150.914 E.2323
G1 X64.942 Y149.907 E.03204
G1 X65.589 Y148.448 E.05005
G1 X66.537 Y147.259 E.04767
G1 X67.285 Y146.7 E.02929
G1 X67.285 Y51.859 E2.97368
G1 X67.846 Y50.053 E.05931
G1 X68.205 Y50.165 F10800
G1 F1200
G1 X68.303 Y49.854 E.01023
G1 X68.968 Y48.924 E.03586
G1 X69.76 Y48.163 E.03442
G1 X70.907 Y47.462 E.04216
G1 X72.573 Y47.027 E.05399
G1 X179.933 Y47.031 E3.36618
M73 P2 R264
G1 X181.028 Y47.236 E.03494
M73 Q2 S268
G1 X182.102 Y47.689 E.03654
G1 X183.5 Y48.842 E.05681
G1 X184.428 Y50.24 E.05263
G1 X184.878 Y51.936 E.05499
G1 X184.878 Y155.572 E3.24944
G1 X184.237 Y157.606 E.06686
G1 X183.572 Y158.536 E.03586
G1 X182.78 Y159.297 E.03442
G1 X181.633 Y159.998 E.04216
G1 X179.967 Y160.433 E.05399
G1 X81.199 Y160.433 E3.09681
G1 X80.492 Y161.367 E.03675
G1 X79.161 Y162.352 E.0519
G1 X77.202 Y162.963 E.06433
G1 X69.988 Y162.973 E.22619
G1 X67.95 Y162.333 E.06699
G1 X67.019 Y161.667 E.03588
G1 X66.258 Y160.875 E.03443
G1 X65.557 Y159.727 E.04219
G1 X65.146 Y158.247 E.04814
G1 X65.146 Y150.93 E.22944
G1 X65.297 Y150.038 E.02835
G1 X65.923 Y148.623 E.04852
G1 X66.815 Y147.516 E.04458
G1 X67.662 Y146.892 E.033
G1 X67.662 Y51.888 E2.97877
G1 X68.187 Y50.223 E.05475
G1 X68.544 Y50.337 F10800
G1 F1200
G1 X68.652 Y49.998 E.01114
G1 X69.242 Y49.184 E.03154
G1 X69.974 Y48.474 E.03197
G1 X71.08 Y47.799 E.04062
G1 X72.597 Y47.404 E.04915
G1 X179.915 Y47.408 E3.36487
G1 X180.937 Y47.603 E.03263
G1 X181.928 Y48.025 E.03378
G1 X183.236 Y49.113 E.05336
G1 X184.096 Y50.421 E.04907
G1 X184.501 Y51.96 E.04988
G1 X184.501 Y155.542 E3.24776
G1 X183.888 Y157.462 E.06318
G1 X183.298 Y158.276 E.03154
G1 X182.566 Y158.986 E.03197
G1 X181.46 Y159.661 E.04062
G1 X179.943 Y160.056 E.04915
G1 X81.009 Y160.056 E3.10202
G1 X80.244 Y161.081 E.0401
G1 X78.962 Y162.03 E.05001
G1 X77.174 Y162.586 E.05873
G1 X70.017 Y162.596 E.22438
G1 X68.094 Y161.983 E.0633
G1 X67.279 Y161.393 E.03156
G1 X66.569 Y160.66 E.03198
G1 X65.893 Y159.553 E.04067
