; generated by PrusaSlicer 2.4.1+win64 on 2022-05-02 at 17:23:18 UTC

; 

; external perimeters extrusion width = 0.45mm
; perimeters extrusion width = 0.45mm
; infill extrusion width = 0.45mm
; solid infill extrusion width = 0.45mm
; top infill extrusion width = 0.40mm
; support material extrusion width = 0.35mm
; first layer extrusion width = 0.42mm

M73 P0 R296
M73 Q0 S303
M107
;TYPE:Custom
M862.3 P "MK3S" ; printer model check
M862.1 P0.4 ; nozzle diameter check
M115 U3.9.2 ; tell printer latest fw version
G90 ; use absolute coordinates
M83 ; extruder relative mode
M104 S225 ; set extruder temp
M140 S70 ; set bed temp
M190 S70 ; wait for bed temp
M109 S225 ; wait for extruder temp
G28 W ; home all without mesh bed level
G80 ; mesh bed leveling
G1 Y-3.0 F1000.0 ; go outside print area
G92 E0.0
G1 X60.0 E9.0 F1000.0 ; intro line
G1 X100.0 E12.5 F1000.0 ; intro line
G92 E0.0
M221 S95

; Don't change E values below. Excessive value can damage the printer.

M907 E538 ; set extruder motor current
G21 ; set units to millimeters
G90 ; use absolute coordinates
M83 ; use relative distances for extrusion
M900 K0.05 ; Filament gcode LA 1.5
M900 K30 ; Filament gcode LA 1.0
M107
;LAYER_CHANGE
;Z:0.2
;HEIGHT:0.2
;BEFORE_LAYER_CHANGE
G92 E0.0
;0.2


G1 E-.8 F2100
G1 Z.4 F10800
;AFTER_LAYER_CHANGE
;0.2
G1 X41.465 Y38.262
G1 Z.2
G1 E.8 F2100
M204 S1000
;TYPE:Skirt/Brim
;WIDTH:0.42
G1 F1200
G1 X47.33 Y32.411 E.25975
G1 X49.759 Y30.55 E.09594
G1 X52.586 Y29.38 E.09594
G1 X55.646 Y28.978 E.09674
G1 X69.526 Y28.995 E.43521
G1 X173.036 Y31.663 E3.24655
G1 X176.059 Y32.14 E.09594
G1 X178.856 Y33.38 E.09594
G1 X181.054 Y35.112 E.08775
G1 X186.905 Y40.977 E.25975
G1 X188.766 Y43.406 E.09594
G1 X189.936 Y46.233 E.09594
G1 X190.338 Y49.293 E.09674
G1 X190.204 Y160.047 E3.47262
G1 X189.802 Y163.08 E.09594
M73 Q0 S302
G1 X188.631 Y165.907 E.09594
G1 X186.751 Y168.354 E.09674
G1 X180.886 Y174.205 E.25975
G1 X178.457 Y176.066 E.09594
G1 X175.63 Y177.236 E.09594
G1 X172.571 Y177.638 E.09674
G1 X58.007 Y177.5 E3.59208
G1 X54.973 Y177.098 E.09594
G1 X52.146 Y175.926 E.09594
G1 X49.699 Y174.047 E.09674
G1 X43.849 Y168.182 E.25975
G1 X41.988 Y165.753 E.09594
G1 X40.817 Y162.926 E.09594
G1 X40.419 Y160.167 E.0874
G1 X37.999 Y60.75 E3.11807
G1 X38.012 Y46.569 E.44462
G1 X38.414 Y43.536 E.09594
G1 X39.586 Y40.709 E.09594
G1 X41.429 Y38.309 E.09486
G1 X41.724 Y38.538 F10800
G1 F1200
G1 X47.596 Y32.678 E.26012
G1 X49.99 Y30.853 E.09438
G1 X52.779 Y29.719 E.09438
G1 X55.645 Y29.355 E.0906
G1 X69.526 Y29.372 E.43521
G1 X173.026 Y32.04 E3.24626
G1 X175.999 Y32.515 E.09438
M73 P0 R295
G1 X178.743 Y33.753 E.09438
G1 X180.787 Y35.378 E.08189
G1 X186.638 Y41.243 E.25975
G1 X188.463 Y43.637 E.09438
G1 X189.597 Y46.426 E.09438
G1 X189.96 Y49.292 E.0906
G1 X189.827 Y160.046 E3.47262
G1 X189.425 Y163.03 E.09438
G1 X188.255 Y165.803 E.09438
G1 X186.485 Y168.087 E.0906
G1 X180.62 Y173.938 E.25975
G1 X178.226 Y175.763 E.09438
G1 X175.438 Y176.897 E.09438
G1 X172.571 Y177.261 E.0906
G1 X58.007 Y177.122 E3.59208
G1 X55.024 Y176.721 E.09438
G1 X52.25 Y175.55 E.09438
G1 X49.966 Y173.781 E.0906
G1 X44.115 Y167.916 E.25975
G1 X42.29 Y165.522 E.09438
G1 X41.156 Y162.733 E.09438
G1 X40.796 Y160.157 E.08155
G1 X38.376 Y60.741 E3.11807
G1 X38.389 Y46.57 E.44432
G1 X38.791 Y43.586 E.09438
G1 X39.961 Y40.813 E.09438
G1 X41.687 Y38.586 E.08834
;WIPE_START
G1 F8640
G1 X44.015 Y36.259 E-.76
;WIPE_END
G1 E-.04 F2100
G1 Z.6 F10800
G1 X51.908 Y45.144
G1 Z.2
G1 E.8 F2100
G1 F1200
G1 X53.365 Y43.538 E.06797
G1 X55.108 Y42.281 E.06737
G1 X57.946 Y41.262 E.09456
G1 X59.985 Y41.122 E.06407
G1 X66.503 Y41.143 E.20439
G1 X68.982 Y41.662 E.07941
G1 X70.929 Y42.622 E.06805
G1 X72.151 Y43.677 E.05063
G1 X169.348 Y43.794 E3.04753
G1 X172.515 Y44.6 E.10249
G1 X175.228 Y46.432 E.10263
G1 X177.119 Y48.886 E.09713
G1 X177.863 Y50.781 E.06382
G1 X178.195 Y52.767 E.06314
G1 X178.069 Y156.648 E3.25711
G1 X177.264 Y159.816 E.10249
G1 X175.431 Y162.528 E.10263
G1 X172.977 Y164.419 E.09713
G1 X171.083 Y165.163 E.06382
G1 X169.097 Y165.495 E.06314
G1 X61.406 Y165.365 E3.37657
G1 X58.238 Y164.559 E.10249
M73 Q0 S301
G1 X55.526 Y162.727 E.10263
G1 X53.635 Y160.273 E.09713
G1 X52.89 Y158.378 E.06382
G1 X52.559 Y156.392 E.06314
G1 X52.671 Y63.136 E2.92399
G1 X51.663 Y61.956 E.04867
G1 X50.852 Y60.401 E.05496
G1 X50.32 Y58.756 E.05423
G1 X50.143 Y50.112 E.27109
G1 X50.674 Y47.5 E.08355
G1 X51.88 Y45.197 E.08154
G1 X52.214 Y45.373 F10800
G1 F1200
G1 X53.63 Y43.807 E.06619
G1 X55.306 Y42.603 E.06471
G1 X57.998 Y41.636 E.08968
G1 X59.99 Y41.499 E.06261
G1 X66.483 Y41.52 E.20358
G1 X68.837 Y42.011 E.07539
G1 X70.74 Y42.949 E.06653
G1 X72.009 Y44.054 E.05277
G1 X169.323 Y44.171 E3.05121
G1 X172.39 Y44.957 E.09927
G1 X174.948 Y46.687 E.09682
G1 X176.778 Y49.05 E.09371
G1 X177.494 Y50.863 E.06113
G1 X177.818 Y52.782 E.06102
G1 X177.692 Y156.623 E3.25587
G1 X176.906 Y159.69 E.09927
M73 P0 R294
G1 X175.177 Y162.248 E.09682
G1 X172.814 Y164.078 E.09371
G1 X171 Y164.795 E.06113
G1 X169.081 Y165.118 E.06102
G1 X61.43 Y164.988 E3.37533
G1 X58.363 Y164.202 E.09927
G1 X55.805 Y162.472 E.09682
G1 X53.975 Y160.109 E.09371
G1 X53.259 Y158.296 E.06113
G1 X52.936 Y156.377 E.06102
G1 X53.048 Y62.996 E2.92789
G1 X51.987 Y61.761 E.05105
G1 X51.206 Y60.27 E.05278
G1 X50.687 Y58.666 E.05285
G1 X50.521 Y50.126 E.26784
G1 X51.037 Y47.603 E.08074
G1 X52.186 Y45.426 E.07717
G1 X52.519 Y45.602 F10800
G1 F1200
G1 X52.552 Y45.539 E.00222
G1 X53.894 Y44.077 E.06222
G1 X55.504 Y42.925 E.06207
G1 X58.05 Y42.011 E.08481
G1 X59.996 Y41.876 E.06116
G1 X66.463 Y41.897 E.20277
G1 X68.691 Y42.36 E.07137
G1 X70.55 Y43.276 E.06499
G1 X71.867 Y44.431 E.0549
G1 X169.3 Y44.548 E3.05494
G1 X172.207 Y45.288 E.09407
G1 X174.669 Y46.942 E.09301
G1 X176.438 Y49.214 E.09027
G1 X177.126 Y50.946 E.05843
G1 X177.44 Y52.798 E.0589
G1 X177.315 Y156.6 E3.25463
G1 X176.575 Y159.507 E.09407
G1 X174.921 Y161.97 E.09301
G1 X172.649 Y163.738 E.09027
G1 X170.917 Y164.426 E.05843
G1 X169.065 Y164.741 E.0589
G1 X61.454 Y164.611 E3.37409
G1 X58.546 Y163.871 E.09407
G1 X56.084 Y162.216 E.09301
G1 X54.316 Y159.945 E.09027
G1 X53.627 Y158.213 E.05843
G1 X53.313 Y156.361 E.0589
G1 X53.426 Y62.855 E2.93181
G1 X52.311 Y61.567 E.05342
G1 X51.548 Y60.11 E.05157
G1 X51.054 Y58.577 E.05047
G1 X50.898 Y50.139 E.26461
G1 X51.384 Y47.755 E.0763
G1 X52.491 Y45.655 E.07445
G1 X52.824 Y45.831 F10800
G1 F1200
G1 X52.874 Y45.738 E.00333
G1 X54.158 Y44.347 E.05934
G1 X55.702 Y43.247 E.05944
G1 X58.102 Y42.385 E.07997
G1 X60.001 Y42.253 E.0597
G1 X66.443 Y42.274 E.20196
G1 X68.546 Y42.709 E.06735
G1 X70.361 Y43.603 E.06343
G1 X71.723 Y44.808 E.05702
G1 X169.276 Y44.925 E3.0587
G1 X172.025 Y45.62 E.0889
M73 Q0 S300
G1 X174.391 Y47.199 E.0892
G1 X176.097 Y49.379 E.08679
G1 X176.768 Y51.067 E.05695
G1 X177.063 Y52.813 E.05554
G1 X176.938 Y156.576 E3.25341
G1 X176.244 Y159.325 E.0889
G1 X174.665 Y161.691 E.0892
G1 X172.485 Y163.398 E.08679
G1 X170.797 Y164.068 E.05695
G1 X169.05 Y164.363 E.05554
G1 X61.477 Y164.234 E3.37287
G1 X58.728 Y163.539 E.0889
G1 X56.362 Y161.96 E.0892
G1 X54.656 Y159.78 E.08679
G1 X53.985 Y158.092 E.05695
G1 X53.69 Y156.346 E.05554
G1 X53.803 Y62.714 E2.93576
G1 X52.634 Y61.372 E.0558
M73 P0 R293
G1 X51.902 Y59.978 E.04935
G1 X51.422 Y58.488 E.04908
G1 X51.275 Y50.154 E.26136
G1 X51.747 Y47.858 E.0735
G1 X52.796 Y45.884 E.07006
G1 X53.128 Y46.062 F10800
G1 F1200
G1 X53.194 Y45.938 E.00443
G1 X54.421 Y44.618 E.05649
G1 X55.855 Y43.593 E.05527
G1 X58.155 Y42.76 E.0767
G1 X60.007 Y42.63 E.05822
G1 X66.423 Y42.651 E.20116
G1 X68.401 Y43.057 E.06333
G1 X70.171 Y43.93 E.06186
G1 X71.579 Y45.184 E.05914
G1 X169.252 Y45.302 E3.06246
G1 X171.901 Y45.977 E.0857
G1 X174.114 Y47.456 E.08345
G1 X175.758 Y49.544 E.08334
G1 X176.4 Y51.15 E.05423
G1 X176.686 Y52.829 E.0534
G1 X176.561 Y156.552 E3.25217
G1 X175.886 Y159.201 E.0857
G1 X174.408 Y161.414 E.08345
G1 X172.319 Y163.058 E.08334
G1 X170.713 Y163.7 E.05423
G1 X169.034 Y163.986 E.0534
G1 X61.501 Y163.857 E3.37163
G1 X58.853 Y163.182 E.0857
G1 X56.64 Y161.703 E.08345
G1 X54.996 Y159.615 E.08334
G1 X54.353 Y158.009 E.05423
G1 X54.067 Y156.33 E.0534
M73 P1 R293
G1 X54.18 Y62.572 E2.93972
G1 X52.957 Y61.176 E.0582
M73 Q1 S300
G1 X52.256 Y59.847 E.04711
G1 X51.789 Y58.399 E.04769
G1 X51.653 Y50.169 E.2581
G1 X52.111 Y47.961 E.07069
G1 X53.099 Y46.115 E.06566
G1 X53.431 Y46.294 F10800
G1 F1200
G1 X53.514 Y46.138 E.00554
G1 X54.656 Y44.913 E.05252
G1 X56.009 Y43.938 E.05228
G1 X58.208 Y43.134 E.0734
G1 X60.013 Y43.007 E.05673
G1 X66.403 Y43.028 E.20036
G1 X68.256 Y43.406 E.05931
G1 X69.981 Y44.257 E.06028
G1 X71.434 Y45.561 E.06124
G1 X169.228 Y45.679 E3.06627
G1 X171.719 Y46.309 E.08056
G1 X173.837 Y47.713 E.07967
G1 X175.418 Y49.711 E.07988
G1 X176.032 Y51.234 E.05149
G1 X176.309 Y52.845 E.05125
G1 X176.184 Y156.529 E3.25093
G1 X175.554 Y159.019 E.08056
G1 X174.15 Y161.137 E.07967
G1 X172.153 Y162.718 E.07988
G1 X170.629 Y163.332 E.05149
G1 X169.019 Y163.609 E.05125
G1 X61.525 Y163.48 E3.37039
G1 X59.034 Y162.85 E.08056
M73 Q1 S299
G1 X56.916 Y161.445 E.07967
G1 X55.335 Y159.448 E.07988
G1 X54.721 Y157.925 E.05149
G1 X54.444 Y156.314 E.05125
G1 X54.557 Y62.429 E2.94369
G1 X53.28 Y60.98 E.06058
G1 X52.597 Y59.686 E.04588
G1 X52.157 Y58.311 E.04526
G1 X52.03 Y50.184 E.25485
G1 X52.474 Y48.066 E.06786
G1 X53.402 Y46.346 E.06125
G1 X53.732 Y46.526 F10800
G1 F1200
G1 X53.834 Y46.34 E.00666
G1 X54.893 Y45.207 E.04863
G1 X56.165 Y44.282 E.0493
G1 X58.261 Y43.508 E.07008
G1 X60.019 Y43.385 E.05523
G1 X66.383 Y43.405 E.19955
G1 X68.156 Y43.771 E.05677
G1 X69.789 Y44.582 E.05718
G1 X71.288 Y45.938 E.06338
G1 X169.205 Y46.056 E3.07011
G1 X171.539 Y46.642 E.07545
G1 X173.561 Y47.972 E.07589
G1 X175.079 Y49.878 E.0764
G1 X175.664 Y51.319 E.04875
G1 X175.932 Y52.861 E.04907
G1 X175.807 Y156.505 E3.24969
G1 X175.221 Y158.839 E.07545
M73 P1 R292
G1 X173.891 Y160.861 E.07589
G1 X171.985 Y162.379 E.0764
G1 X170.544 Y162.964 E.04875
G1 X169.002 Y163.232 E.04907
G1 X61.548 Y163.103 E3.36915
G1 X59.214 Y162.517 E.07545
G1 X57.192 Y161.187 E.07589
G1 X55.674 Y159.281 E.0764
G1 X55.089 Y157.84 E.04875
G1 X54.821 Y156.298 E.04907
G1 X54.935 Y62.286 E2.94768
G1 X53.602 Y60.783 E.06298
G1 X52.951 Y59.555 E.04359
G1 X52.525 Y58.223 E.04385
G1 X52.407 Y50.2 E.25158
G1 X52.837 Y48.171 E.06502
G1 X53.704 Y46.579 E.05683
G1 X54.033 Y46.76 F10800
G1 F1200
G1 X54.152 Y46.543 E.00776
G1 X55.155 Y45.478 E.04586
G1 X56.321 Y44.626 E.04527
G1 X58.315 Y43.882 E.06673
G1 X60.024 Y43.762 E.05372
G1 X66.362 Y43.782 E.19872
G1 X68.055 Y44.135 E.0542
G1 X69.596 Y44.908 E.05408
G1 X71.142 Y46.315 E.06554
G1 X169.181 Y46.433 E3.07395
G1 X171.416 Y47 E.07228
G1 X173.286 Y48.231 E.07021
G1 X174.74 Y50.046 E.07292
G1 X175.307 Y51.442 E.04725
G1 X175.555 Y52.877 E.04565
G1 X175.43 Y156.481 E3.24845
G1 X174.864 Y158.716 E.07228
G1 X173.632 Y160.586 E.07021
G1 X171.818 Y162.04 E.07292
G1 X170.421 Y162.607 E.04725
G1 X168.987 Y162.855 E.04565
G1 X61.572 Y162.726 E3.36791
G1 X59.338 Y162.159 E.07228
G1 X57.468 Y160.928 E.07021
G1 X56.013 Y159.113 E.07292
G1 X55.446 Y157.717 E.04725
G1 X55.198 Y156.282 E.04565
G1 X55.312 Y62.142 E2.95169
G1 X53.925 Y60.586 E.06537
G1 X53.292 Y59.393 E.04233
G1 X52.892 Y58.135 E.04138
G1 X52.785 Y50.216 E.24832
G1 X53.2 Y48.277 E.06217
G1 X54.004 Y46.812 E.0524
G1 X54.333 Y46.995 F10800
G1 F1200
G1 X54.47 Y46.747 E.00887
G1 X55.417 Y45.75 E.04312
G1 X56.479 Y44.969 E.04131
G1 X58.369 Y44.256 E.06336
G1 X60.03 Y44.139 E.0522
G1 X66.342 Y44.159 E.19789
G1 X67.952 Y44.498 E.05161
G1 X69.403 Y45.232 E.05096
G1 X70.995 Y46.692 E.06773
G1 X169.158 Y46.81 E3.07784
G1 X171.236 Y47.333 E.0672
M73 Q1 S298
G1 X173.011 Y48.492 E.06646
G1 X174.402 Y50.214 E.06942
G1 X174.939 Y51.527 E.04448
G1 X175.178 Y52.893 E.04346
G1 X175.053 Y156.458 E3.24721
G1 X174.531 Y158.536 E.0672
G1 X173.372 Y160.311 E.06646
G1 X171.649 Y161.702 E.06942
G1 X170.336 Y162.239 E.04448
G1 X168.971 Y162.478 E.04346
G1 X61.596 Y162.349 E3.36667
G1 X59.517 Y161.826 E.0672
G1 X57.742 Y160.667 E.06646
G1 X56.351 Y158.944 E.06942
G1 X55.814 Y157.632 E.04448
G1 X55.575 Y156.266 E.04346
G1 X55.689 Y61.927 E2.95795
G1 X55.488 Y61.78 E.00779
G1 X54.247 Y60.388 E.05849
G1 X53.646 Y59.262 E.04001
G1 X53.26 Y58.048 E.03996
G1 X53.162 Y50.233 E.24504
G1 X53.563 Y48.385 E.05929
G1 X54.304 Y47.047 E.04796
G1 X54.634 Y47.23 F10800
G1 F1200
G1 X54.788 Y46.952 E.00998
G1 X55.678 Y46.022 E.04035
G1 X56.638 Y45.312 E.03743
G1 X58.424 Y44.631 E.05995
G1 X60.036 Y44.516 E.05066
M73 P1 R291
G1 X66.321 Y44.536 E.19708
G1 X67.804 Y44.846 E.0475
G1 X69.21 Y45.557 E.04938
G1 X70.611 Y46.837 E.05949
G1 X70.77 Y47.069 E.00884
G1 X169.135 Y47.187 E3.08415
G1 X171.058 Y47.666 E.06216
G1 X172.738 Y48.753 E.06272
G1 X174.064 Y50.384 E.06592
G1 X174.571 Y51.614 E.0417
G1 X174.801 Y52.909 E.04125
G1 X174.676 Y156.435 E3.24597
G1 X174.197 Y158.358 E.06216
G1 X173.11 Y160.038 E.06272
G1 X171.479 Y161.364 E.06592
G1 X170.25 Y161.872 E.0417
G1 X168.954 Y162.101 E.04125
G1 X61.619 Y161.972 E3.36543
G1 X59.695 Y161.492 E.06216
G1 X58.015 Y160.406 E.06272
G1 X56.689 Y158.775 E.06592
G1 X56.182 Y157.545 E.0417
G1 X55.953 Y156.25 E.04125
G1 X56.066 Y61.723 E2.96381
G1 X55.752 Y61.509 E.01194
G1 X54.568 Y60.19 E.05557
G1 X54 Y59.131 E.03766
G1 X53.628 Y57.96 E.03853
G1 X53.539 Y50.25 E.24178
G1 X53.906 Y48.543 E.05473
G1 X54.605 Y47.282 E.0452
G1 X54.932 Y47.466 F10800
G1 F1200
G1 X55.105 Y47.158 E.01107
G1 X55.939 Y46.295 E.03762
G1 X56.798 Y45.654 E.03363
G1 X58.48 Y45.005 E.05651
G1 X60.042 Y44.893 E.0491
G1 X66.3 Y44.913 E.19624
G1 X67.701 Y45.21 E.04489
G1 X69.015 Y45.881 E.04625
G1 X70.335 Y47.096 E.05626
G1 X70.561 Y47.446 E.01306
G1 X169.111 Y47.564 E3.08996
G1 X170.936 Y48.024 E.05902
G1 X172.465 Y49.015 E.05712
G1 X173.727 Y50.555 E.06244
G1 X174.204 Y51.701 E.03891
G1 X174.424 Y52.926 E.03902
G1 X174.299 Y156.411 E3.2447
G1 X173.839 Y158.236 E.05902
G1 X172.849 Y159.765 E.05712
G1 X171.308 Y161.027 E.06244
G1 X170.163 Y161.504 E.03891
G1 X168.938 Y161.724 E.03902
G1 X61.643 Y161.594 E3.36416
G1 X59.818 Y161.135 E.05902
M73 Q1 S297
G1 X58.288 Y160.144 E.05712
G1 X57.026 Y158.604 E.06244
G1 X56.549 Y157.458 E.03891
G1 X56.33 Y156.233 E.03902
G1 X56.444 Y61.516 E2.96978
G1 X56.013 Y61.236 E.0161
G1 X54.889 Y59.991 E.0526
G1 X54.341 Y58.969 E.03637
G1 X53.996 Y57.874 E.03599
G1 X53.917 Y50.267 E.23851
G1 X54.268 Y48.651 E.05185
G1 X54.903 Y47.518 E.04072
G1 X55.232 Y47.702 F10800
G1 F1200
G1 X55.421 Y47.364 E.01215
G1 X56.198 Y46.569 E.03485
G1 X56.96 Y45.996 E.02991
G1 X58.536 Y45.379 E.05304
G1 X60.048 Y45.27 E.04753
G1 X66.279 Y45.29 E.19539
G1 X67.597 Y45.573 E.04225
G1 X68.818 Y46.204 E.0431
G1 X70.059 Y47.353 E.05302
G1 X70.348 Y47.823 E.01728
G1 X169.087 Y47.942 E3.09592
G1 X170.759 Y48.359 E.05401
G1 X172.194 Y49.278 E.05343
G1 X173.39 Y50.727 E.05894
G1 X173.837 Y51.789 E.03611
G1 X174.047 Y52.943 E.03676
G1 X173.922 Y156.388 E3.24344
G1 X173.505 Y158.059 E.05401
G1 X172.585 Y159.494 E.05343
G1 X171.136 Y160.691 E.05894
G1 X170.074 Y161.137 E.03611
G1 X168.921 Y161.347 E.03676
G1 X61.666 Y161.217 E3.3629
G1 X59.994 Y160.8 E.05401
M73 P1 R290
G1 X58.56 Y159.881 E.05343
G1 X57.363 Y158.432 E.05894
G1 X56.916 Y157.37 E.03611
G1 X56.707 Y156.216 E.03676
G1 X56.821 Y61.306 E2.97585
G1 X56.274 Y60.963 E.02026
G1 X55.21 Y59.792 E.04961
G1 X54.695 Y58.838 E.03397
G1 X54.364 Y57.787 E.03454
G1 X54.294 Y50.285 E.23526
G1 X54.611 Y48.811 E.04727
G1 X55.203 Y47.755 E.03795
G1 X55.532 Y47.939 F10800
G1 F1200
G1 X55.738 Y47.571 E.01322
G1 X56.457 Y46.844 E.03207
G1 X57.124 Y46.336 E.0263
G1 X58.592 Y45.753 E.04952
G1 X60.054 Y45.647 E.04594
G1 X66.259 Y45.667 E.19457
G1 X67.447 Y45.92 E.03807
G1 X68.622 Y46.527 E.04148
G1 X69.78 Y47.609 E.0497
G1 X70.131 Y48.199 E.02153
G1 X169.064 Y48.319 E3.102
G1 X170.584 Y48.694 E.04906
G1 X171.923 Y49.543 E.04973
G1 X173.054 Y50.9 E.05538
G1 X173.481 Y51.916 E.03457
G1 X173.67 Y52.959 E.03323
G1 X173.545 Y156.365 E3.24221
G1 X173.17 Y157.884 E.04906
M73 P2 R290
G1 X172.321 Y159.223 E.04973
G1 X170.964 Y160.354 E.05538
G1 X169.947 Y160.781 E.03457
G1 X168.904 Y160.97 E.03323
